#N Max
#O Tim Coe, 1995
#C https://conwaylife.com/wiki/Max
x = 27, y = 27, rule = B3/S23
18bo$17b3o$12b3o4b2o$11bo2b3o2bob2o$10bo3bobo2bobo$10bo4bobobobob2o$
12bo4bobo3b2o$4o5bobo4bo3bob3o$o3b2obob3ob2o9b2o$o5b2o5bo$bo2b2obo2bo
2bob2o$7bobobobobobo5b4o$bo2b2obo2bo2bo2b2obob2o3bo$o5b2o3bobobo3b2o5b
o$o3b2obob2o2bo2bo2bob2o2bo$4o5bobobobobobo$10b2obo2bo2bob2o2bo$13bo5b
2o5bo$b2o9b2ob3obob2o3bo$2b3obo3bo4bobo5b4o$2b2o3bobo4bo$2b2obobobobo
4bo$5bobo2bobo3bo$4b2obo2b3o2bo$6b2o4b3o$7b3o$8bo!

#N Sawtooth 177
#O Maia Karpovich, 2015
#C https://conwaylife.com/wiki/Sawtooth_177
x = 68, y = 76, rule = B3/S23
59b2o$59b2o3$56b2o$56b2o8b2o$7b2o57bo$7b2o50b2o6bo$59b2o5b2o2$10b2o54b
2o$2o8b2o55bo$bo61bo$o6b2o53bo3bo$2o5b2o55b2o2$2o$o$4bo43b3o$bo3bo41bo
2bo$2b2o43bo3bo$46b2obobo$46b2ob2o$47b3o$17b3o$17bo2bo$16bo3bo29b2o$
16bobob2o27bo2bo$17b2ob2o25b5o$18b3o25b2ob3o$46b3o$47bobo$16b2o22bo7b
2o$15bo2bo10bo8b3o$16b5o8bobo5bo$16b3ob2o7b2o6b2o$19b3o$18bobo$18b2o
15bo$34bobo$29bo3bo3bo$27b2o5b3o$28b2o2b2o3b2o11$7b4o24b2o$5b2o4b2o22b
2o$5b2o5bo$7b2obobo$12bo9bo4bo$8bo3bo7b2ob4ob2o$8bo4bo8bo4bo$10b3o3bo$
10b2o4bo$16b2o$18bo$18b3o3$21bo$20bob5o$19b2o5bo$19b2o3bo2bo$27bo$21b
2obo2bo$24bo2bo$25b2o$25b2o!

#N Breeder 1
#O Bill Gosper, 1971
#C https://conwaylife.com/wiki/Breeder_1
x = 749, y = 338, rule = B3/S23
404bo2bo$408bo$404bo3bo$405b4o$416b2o$402bo11bo4bo$400bobo17bo$342bobo
46bo8bobo11bo5bo$342bobo44bo3bo21b6o5b6o$331bo10bob2o48bo30bo5bo$329bo
3bo10b2o43bo4bo36bo$334bo6bo2bo45b5o30bo4bo$329bo4bo7b2o83b2o$330b5o
50b2o$385b2o32b3o5b2o$385b2o2bo13bo13bo3bo4bob2o$368b2o12b2ob2o3bo11bo
bo12bo7b2obobo$355b2o10bo2bo8b2o2bobo4bo4b2o4bo9b2o4bo7bob2ob2o$355b2o
11b2o9b2o2b3o3bo5b2o5bo8b2o5bo2bo3bo3b2o$419bobo5b3o2$419bobo5b3o$355b
2o11b2o9b2o2b3o3bo5b2o5bo8b2o5bo2bo3bo3b2o$355b2o10bo2bo8b2o2bobo4bo4b
2o4bo9b2o4bo7bob2ob2o$368b2o12b2ob2o3bo11bobo12bo7b2obobo$385b2o2bo13b
o13bo3bo4bob2o$385b2o32b3o5b2o$330b5o50b2o$329bo4bo7b2o83b2o$334bo6bo
2bo45b5o30bo4bo$329bo3bo10b2o43bo4bo36bo$331bo10bob2o48bo30bo5bo$342bo
bo44bo3bo21b6o5b6o$342bobo46bo8bobo11bo5bo$400b2o18bo$401bo12bo4bo$
416b2o$477b2o$475b2ob2o$475b4o$476b2o$376bobo$376b2o111b2o$377bo107b4o
b2o5b4o$485b6o5b6o$463b2o21b4o6b4ob2o$460b3ob2o34b2o$403b2o55b5o21bo$
400b3ob2o46bo8b3o23bo$352bobo45b5o21b3o23bo32b4o$352b2o47b3o20bo2b2o
54b2o3bob2o$353bo69bo3bobo26bo11b2o14bobobobo7b2o$421bo3bo9bobo13b4obo
10bo2bo13bo3b3o2bo3bo2b2o$405b2o14bo3b2o11bo11bo2bob2o4b2o4bobo7b2o6bo
bo3bo4b3o2bo$405b2o14bo8bo3b2obo12bobo8b2o5bo8b2o7bo4b3o2bo4bo$422bo3b
o3b3o3bo14bo44b5o2$328bobo91bo3bo3b3o3bo14bo44b5o$328b2o11b2o30b2o30b
2o14bo8bo3b2obo12bobo8b2o5bo8b2o7bo4b3o2bo4bo$329bo11b2o30b2o30b2o14bo
3b2o11bo11bo2bob2o4b2o4bobo7b2o6bobo3bo4b3o2bo$421bo3bo9bobo13b4obo10b
o2bo13bo3b3o2bo3bo2b2o$423bo3bobo26bo11b2o14bobobobo7b2o$424bo2b2o54b
2o3bob2o$426b3o23bo32b4o$452bo8b3o23bo$460b5o21bo$460b3ob2o34b2o89b2o$
463b2o21b4o6b4ob2o87b4o$485b6o5b6o88b2ob2o$485b4ob2o5b4o91b2o$489b2o$
464bo136b4o$464bobo133b6o$280bobo181b2o134b4ob2o$280b2o294b3o13b3o9b2o
9b2o$281bo252bobo38b5o12bo18b4ob2o$516b3o14b2o2bo37b3ob2o12bo17b6o$
515b5o12b3o2bo40b2o27bo4b4o$515b3ob2o10b3o72bo2bo$440bo77b2o11bobo2b2o
59b3o$440bobo87b2ob3obo38b2o17b5o12b2o$440b2o89bo6bo37b2o16b3o14bo3bo$
532bo4bo20b2o15bo2bo14bo3bo9bo3bo4bo$534b5o6b2o10bo2bo8b2o4bobo7b2o5b
2o2bo4b2o5bobo5bo$538b2o5b2o11b2o9b2o5bo8b2o5bo6b3o9b2ob3o$538b2o53b8o
2$538b2o53b8o$449b2o30b2o30b2o23b2o5b2o11b2o9b2o5bo8b2o5bo6b3o9b2ob3o
81b2o$232bobo214b2o30b2o30b2o19b5o6b2o10bo2bo8b2o4bobo7b2o5b2o2bo4b2o
5bobo5bo79b2ob2o$232b2o298bo4bo20b2o15bo2bo14bo3bo9bo3bo4bo79b4o$233bo
297bo6bo37b2o16b3o14bo3bo81b2o$530b2ob3obo38b2o17b5o12b2o$531bobo2b2o
59b3o110b2o$531b3o72bo2bo96b4ob2o5b4o$392bo139b3o2bo40b2o27bo4b4o90b6o
5b6o$392bobo138b2o2bo37b3ob2o12bo17b6o67b2o21b4o6b4ob2o$392b2o140bobo
38b5o12bo18b4ob2o63b3ob2o34b2o$576b3o13b3o9b2o9b2o7b2o55b5o21bo$600b4o
b2o14b3ob2o46bo8b3o23bo$600b6o15b5o21b3o23bo32b4o$601b4o17b3o20bo2b2o
54b2o3bob2o$644bo3bobo26bo11b2o14bobobobo7b2o$642bo3bo9bobo13b4obo10bo
2bo13bo3b3o2bo3bo2b2o$569bo56b2o14bo3b2o11bo11bo2bob2o4b2o4bobo7b2o6bo
bo3bo4b3o2bo$184bobo381bo57b2o14bo8bo3b2obo12bobo8b2o5bo8b2o7bo4b3o2bo
4bo$184b2o382b3o72bo3bo3b3o3bo14bo44b5o$185bo$643bo3bo3b3o3bo14bo44b5o
$562b2o30b2o30b2o14bo8bo3b2obo12bobo8b2o5bo8b2o7bo4b3o2bo4bo$562b2o30b
2o30b2o14bo3b2o11bo11bo2bob2o4b2o4bobo7b2o6bobo3bo4b3o2bo$344bo297bo3b
o9bobo13b4obo10bo2bo13bo3b3o2bo3bo2b2o$344bobo198bo98bo3bobo26bo11b2o
14bobobobo7b2o$344b2o198bo100bo2b2o54b2o3bob2o$544b3o100b3o23bo32b4o$
673bo8b3o23bo$681b5o21bo$681b3ob2o34b2o$684b2o21b4o6b4ob2o$706b6o5b6o$
706b4ob2o5b4o$136bobo571b2o$136b2o547bo$137bo547bobo$685b2o3$296bo$
296bobo198bo$296b2o198bo$496b3o162bo55b2o$661bobo52b4o$661b2o53b2ob2o$
718b2o2$727b4o$726b6o$88bobo635b4ob2o$88b2o547bo64b3o25b2o9b2o$89bo
547bobo61b5o31b4ob2o$637b2o62b3ob2o16b2o12b6o$665b2o37b2o16bobo13b4o$
664bo2bo53bo2bo12bo$248bo412b2obo61bo9bobo$248bobo198bo216b2o52bo15bob
o$248b2o198bo212bo3b2o39b2o17bobobo10b2o$448b3o212bobo22b2o15bo2bo13bo
2bobo2bo9bobo$643b2o30b2o10bo2bo4bo3b2o4bobo7b2o6b2o5bo2bo8bo$643b2o
23b2o5b2o11b2o5bo3b2o5bo8b2o11bobobo2bo4b3o$668b2o55b2obo3bo2bo2$668b
2o55b2obo3bo2bo$3b2o30b2o30b2o30b2o30b2o30b2o30b2o30b2o30b2o30b2o30b2o
30b2o30b2o30b2o30b2o30b2o30b2o30b2o30b2o30b2o30b2o23b2o5b2o11b2o5bo3b
2o5bo8b2o11bobobo2bo4b3o$3b2o30b2o3bobo24b2o30b2o30b2o30b2o30b2o30b2o
30b2o30b2o30b2o30b2o30b2o30b2o30b2o30b2o30b2o30b2o30b2o30b2o30b2o30b2o
10bo2bo4bo3b2o4bobo7b2o6b2o5bo2bo8bo$40b2o547bo73bobo22b2o15bo2bo13bo
2bobo2bo9bobo$41bo547bobo69bo3b2o39b2o17bobobo10b2o$589b2o75b2o52bo15b
obo$3bo657b2obo61bo9bobo$2b3o659bo2bo53bo2bo12bo$bo3bo194bo464b2o37b2o
16bobo13b4o$ob3obo193bobo198bo299b3ob2o16b2o12b6o$b5o194b2o198bo300b5o
31b4ob2o$196b2o30b2o30b2o30b2o30b2o30b2o30b2o10b3o17b2o30b2o30b2o30b2o
30b2o152b3o25b2o9b2o$35b2o30b2o30b2o30b2o30b2o30bo2bo28bo2bo28bo2bo28b
o2bo28bo2bo28bo2bo28bo2bo28bo2bo28bo2bo28bo2bo28bo2bo28bo2bo175b4ob2o$
35bobo29bobo29bobo29bobo29bobo29bo2bo28bo2bo28bo2bo28bo2bo28bo2bo28bo
2bo28bo2bo28bo2bo28bo2bo28bo2bo28bo2bo28bo2bo175b6o$36b2o30b2o30b2o30b
2o30b2o30b2o30b2o30b2o30b2o30b2o30b2o30b2o30b2o30b2o30b2o30b2o30b2o
177b4o$6b3o692bo$8bo691bo$7bo$701bobo$703bo$701bo$702bo2$38b2o30b2o30b
2o30b2o30b2o30b2o30b2o30b2o30b2o30b2o30b2o371b4o$4b3o30bobo29bobo29bob
o29bobo29bobo29bo2bo28bo2bo28bo2bo28bo2bo28bo2bo28bo2bo369b6o$3bo3bo
29b2o30b2o30b2o30b2o30b2o30bo2bo28bo2bo28bo2bo28bo2bo28bo2bo28bo2bo
229b2o138b4ob2o$2bo5bo189b2o30b2o30b2o30b2o30b2o30b2o229b2o115b3o25b2o
9b2o$2b2obob2o193b2o387bo113b5o15b3o13b4ob2o$202bobo461b2o37b3ob2o14bo
15b6o$202bo464b2o39b2o18bo13b4o$5bo659bobo59bo12bo$4bobo657b3o71b2o$4b
obo34b2o621bo2bo62bo8bo2bo$5bo35bobo356b2o262bob3o39b2o19b4o7b3ob2o$
41bo357b2o264bo2bo21b2o15bo2bo21bo13bo$5b2o30b2o30b2o30b2o30b2o30b2o
30b2o30b2o30b2o30b2o30b2o30b2o30b2o10bo19b2o30b2o30b2o30b2o30b2o30b2o
30b2o30b2o19b2o9b2o10bo2bo8b2o4bobo7b2o5b4o2bob2o12bo$5b2o30b2o30b2o
30b2o30b2o30b2o30b2o30b2o30b2o30b2o30b2o30b2o30b2o30b2o30b2o30b2o30b2o
30b2o30b2o30b2o30b2o23b2o5b2o11b2o9b2o5bo8b2o5bobobobo4b2o5bo2b2o$670b
2o53b2o2bobo11b2o2$670b2o53b2o2bobo11b2o$422bo30b2o30b2o30b2o30b2o30b
2o30b2o30b2o23b2o5b2o11b2o9b2o5bo8b2o5bobobobo4b2o5bo2b2o$422bo30b2o
30b2o30b2o30b2o30b2o30b2o23b2o5b2o19b2o9b2o10bo2bo8b2o4bobo7b2o5b4o2bo
b2o12bo$424b2o211b2o26bo2bo21b2o15bo2bo21bo13bo$250b2o387bo24bob3o39b
2o19b4o7b3ob2o$250bobo411bo2bo62bo8bo2bo$250bo413b3o71b2o$665bobo59bo
12bo$667b2o39b2o18bo13b4o$89b2o575b2o37b3ob2o14bo15b6o$89bobo356b2o
212b2o41b5o15b3o13b4ob2o$89bo357b2o212b2o43b3o25b2o9b2o$449bo213bo66b
4ob2o$730b6o$731b4o2$479b6o6b2o229b2o$478bo5bo4bo4bo225b2ob2o$472b2o
10bo10bo190b2o32b4o$414b2o38b5o12b2o5bo4bo5bo5bo189b2o34b2o$298b2o113b
3o37bo4bo14bo6b2o8b6o191bo$298bobo93b5o12b2o3bo41bo27bo$298bo94bo4bo
12bo3bo37bo3bo28b3o$398bo11bo44bo21bo7bob2o2bo$393bo3bo12b3o2b2o59b3o
8b3o2bo$137b2o256bo14bobob3o38b2o16b3o10b5o2bo$137bobo271b3ob2o20b2o
15bo2bo14bo3bo3bo5b3obob3o215b2o$137bo275b2o9b2o10bo2bo8b2o4bobo7b2o5b
o2bobo4bo9b2ob2o213b2o$417b2o5b2o11b2o9b2o5bo8b2o5bo8bo9b2ob2o216bo$
417b2o53b8o252b6o6b2o$731bo5bo4bo4bo$417b2o53b8o257bo10bo$360b2o30b2o
23b2o5b2o11b2o9b2o5bo8b2o5bo8bo9b2ob2o212b5o19bo4bo5bo5bo$360b2o30b2o
19b2o9b2o10bo2bo8b2o4bobo7b2o5bo2bobo4bo9b2ob2o210bo4bo20bobo8b6o$411b
3ob2o20b2o15bo2bo14bo3bo3bo5b3obob3o152b5o59bo$410bobob3o38b2o16b3o10b
5o2bo152bo4bo21bo32bo3bo20bo2bo$346b2o62b3o2b2o59b3o8b3o2bo158bo20bobo
33bo21b3ob2o$346bobo61bo44bo21bo7bob2o2bo154bo3bo24bo53b2o3bob2o$346bo
64bo3bo37bo3bo28b3o159bo21bob2o24b2obo12b2o14bo3bo9b3o$411b2o3bo41bo
27bo181bob2o25b4ob2o9bo2bo13bobobob2o4bo3b2o$413b3o37bo4bo14bo6b2o8b6o
155b2o13b3o2b2o7b2ob2o11bo4b2o4b2o4bobo7b2o6b5obobo2bobo2b2o$185b2o
227b2o38b5o12b2o5bo4bo5bo5bo155b2o14b2o2b2o3bo4b3o12bobo8b2o5bo8b2o7bo
4b2o2bo5bo$185bobo284b2o10bo10bo180b2o3b2o14bo40bo3b5o$185bo292bo5bo4b
o4bo$370b2o107b6o6b2o183b2o3b2o14bo40bo3b5o$370bobo278b2o14b2o2b2o3bo
4b3o12bobo8b2o5bo8b2o7bo4b2o2bo5bo$370bo97bo2bo179b2o13b3o2b2o7b2ob2o
11bo4b2o4b2o4bobo7b2o6b5obobo2bobo2b2o$472bo195bob2o25b4ob2o9bo2bo13bo
bobob2o4bo3b2o$468bo3bo175bo21bob2o24b2obo12b2o14bo3bo9b3o$469b4o173bo
3bo24bo53b2o3bob2o$651bo20bobo33bo21b3ob2o$646bo4bo21bo32bo3bo20bo2bo$
394b2o251b5o59bo$394bobo309bo4bo20bobo8b6o$394bo312b5o19bo4bo5bo5bo$
737bo10bo$731bo5bo4bo4bo$233b2o497b6o6b2o$233bobo$233bo487bo2bo$418b2o
305bo$418bobo300bo3bo$418bo303b4o6$442b2o$442bobo$442bo3$281b2o$281bob
o$281bo$466b2o$466bobo$466bo$491b2o$487b4ob2o5b4o$487b6o5b6o$465b2o21b
4o6b4ob2o$462b3ob2o34b2o$462b5o21bo$454bo8b3o23bo$428b3o23bo32b4o$426b
o2b2o54b2o3bob2o$425bo3bobo26bo11b2o14bobobobo7b2o$329b2o92bo3bo9bobo
13b4obo10bo2bo13bo3b3o2bo3bo2b2o$329bobo11b2o30b2o30b2o14bo3b2o11bo11b
o2bob2o4b2o4bobo7b2o6bobo3bo4b3o2bo$329bo13b2o30b2o30b2o14bo8bo3b2obo
12bobo8b2o5bo8b2o7bo4b3o2bo4bo$424bo3bo3b3o3bo14bo44b5o2$424bo3bo3b3o
3bo14bo44b5o$407b2o14bo8bo3b2obo12bobo8b2o5bo8b2o7bo4b3o2bo4bo$407b2o
14bo3b2o11bo11bo2bob2o4b2o4bobo7b2o6bobo3bo4b3o2bo$353b2o68bo3bo9bobo
13b4obo10bo2bo13bo3b3o2bo3bo2b2o$353bobo69bo3bobo26bo11b2o14bobobobo7b
2o$353bo49b3o20bo2b2o54b2o3bob2o$402b5o21b3o23bo32b4o$402b3ob2o46bo8b
3o23bo$405b2o55b5o21bo$462b3ob2o34b2o$465b2o21b4o6b4ob2o$377b2o108b6o
5b6o$377bobo107b4ob2o5b4o$377bo113b2o2$478b2o$477b4o$477b2ob2o$479b2o$
401b2o$401bobo16b2o$401bo14b4ob2o5b4o$416b6o5b6o$374bo19b2o21b4o6b4ob
2o$372b2obo15b3ob2o34b2o$334b2o35bo3bo15b5o$331b3ob2o30b4obobo17b3o$
331b5o30bobo3b2o12b2o33bo$332b3o20bo4b2o4bobo16bo2bo32b2o5b3o$354bobo
2b2obo2b2ob2o18bo15bo14bo2bo3b2o$353bo3bo2b2ob3o2b4o11b2o5b2o11b2o12b
3o6bo4b2o$340b2o12bo2bo4bo3b2obob2o17b2o4b2o4b3o7b2o4b2o5b2ob2o2bo$
340b2o12b2ob2o9b2ob2o11bobo9b2o14b2o5bobo10bo$370bo14bo35bo7b3o2$370bo
14bo35bo7b3o$340b2o12b2ob2o9b2ob2o11bobo9b2o14b2o5bobo10bo$340b2o12bo
2bo4bo3b2obob2o17b2o4b2o4b3o7b2o4b2o5b2ob2o2bo$353bo3bo2b2ob3o2b4o11b
2o5b2o11b2o12b3o6bo4b2o$354bobo2b2obo2b2ob2o18bo15bo14bo2bo3b2o$332b3o
20bo4b2o4bobo16bo2bo32b2o5b3o$331b5o30bobo3b2o12b2o33bo$331b3ob2o30b4o
bobo17b3o$334b2o35bo3bo15b5o$372b2obo15b3ob2o34b2o$374bo19b2o21b4o6b4o
b2o$416b6o5b6o$416b4ob2o5b4o$403b2o15b2o$402bo$407b2o$406b4o$406b2ob2o
$408b2o!

#N Halfmax
#O Jason Summers, 2005
#C https://conwaylife.com/wiki/Halfmax
x = 65, y = 80, rule = B3/S23
5bobo49bobo$4bo2bo49bo2bo$3b2o55b2o$2bo59bo$b4o55b4o$o4bo53bo4bo$o2bo
24b3o3b3o24bo2bo$o2bo24bo2bobo2bo24bo2bo$bo26bo7bo26bo$2b4obo20bo7bo
20bob4o$3bo3bo21bobobobo21bo3bo$4bo24bobobobo24bo$4bobo23bo3bo23bobo$
29b3ob3o$3b3o26bo26b3o$3b2o23b9o23b2o$3b3o21bo9bo21b3o$26b13o$4bobo18b
o13bo18bobo$4bo19b17o19bo$3bo3bo15bo17bo15bo3bo$2b4obo14b21o14bob4o$bo
19bo21bo19bo$o2bo16b25o16bo2bo$o2bo15bo25bo15bo2bo$o4bo12b29o12bo4bo$b
4o12bo29bo12b4o$2bo13b33o13bo$3b2o10bo33bo10b2o$4bo2bobo4b37o4bobo2bo$
5bobo2bo2bo37bo2bo2bobo$8bo3b20ob20o3bo$9bo21bobo21bo$10b21o3b21o2$8b
21o3bo3b21o$7bo21bobobobo21bo$6bo3b2o2bob2ob2ob2ob5obobob5ob2ob2ob2obo
2b2o3bo$6bo4bobo2b2o4b2o7bobo7b2o4b2o2bobo4bo$6bo8bo5bo5b3obobob3o5bo
5bo8bo$7b3o20b2ob2o20b3o$9bo17b2o3bo3b2o17bo$6b2o2bo3b2o11b4obob4o11b
2o3bo2b2o$4bo5b2obo17bobo17bob2o5bo$3bo6bo18bobobobo18bo6bo$3bo4b2obo
2bo10b2o2b3ob3o2b2o10bo2bob2o4bo$3b5o3b2o5bo6b2o2b2o3b2o2b2o6bo5b2o3b
5o$13b2o4bo25bo4b2o$10b2o3b2ob2obo7b3ob3o7bob2ob2o3b2o$13bo4bobo23bobo
4bo$9bo4b5obo4bo3b3ob3o3bo4bob5o4bo$8b2o2b2o4bo3b3o3bo7bo3b3o3bo4b2o2b
2o$9b2o3bo4b2o7b4ob4o7b2o4bo3b2o$10b2o8bo10bobo10bo8b2o$30b2ob2o$22bo
3bob2obobob2obo3bo$21bobobobob2o3b2obobobobo$21bobobobo9bobobobo$22bob
ob3o7b3obobo$24bobo3b5o3bobo$24b2o6bo6b2o2$27bo2bobobo2bo$27b11o2$29bo
5bo$28bobo3bobo$28bob2ob2obo$26bobob2ob2obob2o$25bobo9bobo$25bo2b3o3b
3o$26b2o$29bo2bo2b2o$26b3obobobo2bo$26bo3bobobob2o$27bobo4bo$28b2obo2b
ob2o$30bobobobo$30bobobobo$31b2ob2o!

#N Sawtooth 260
#O David Bell, 2010
#C https://conwaylife.com/wiki/Sawtooth_260
x = 154, y = 100, rule = B3/S23
46bo$45bobo2$45bo2bo3bob3o$47bo4bo$48bob2obobo$49b2o3bo$50bo15b2o$66b
2o7$74b2o$57bo16b2o$57b3o$49bo6bo3bo$49bo3b3o4bo$49bo3b3obob2o$53b2o3b
o2$39bo$39bo$39bo8bo$46bobo$40b3o2bo3bo$41bob5o$47bo$42b2o9$23b3o$27bo
$27b2o$27bo2bo$28bobo$28bo$bobo23b2o$o25bobo$bo2bo23b2o$3bobo19b2o$6bo
11b3o6bo$5b3o94bo$5bo95bobo17b2o$3b2o95bo3bo9b2o5b2o$5bo13b3o79bo3bo8b
2o$3bo2bo12b3o80bo3bo$3bobo13b2o82bo3bo$3bo14bo85bobo9b2o27b2o$16b2o2b
o84bo10b2o18b2obo5b2o$17bo3bo88b2o24bob2o$17bo2bo89b2o$18b3o130b2o$
151b2o$147b2o$147b2o3$7b2o$7b2o143b2o$152b2o2$97b2o$95bob2o$94bo$97bo$
15b2o76b2obo$15b2o76b2o7$105b2o39b2o$105b2o40bo$146bo$146b2o$126bo$
110b2o15b3o$110b2o18bob2o$106b2o20bo4bo$106b2o22b3o$147b2o$119b2obo24b
2o$112b2o5bob2o18b2o$112b2o27b2o3$143b2o$136b2o5b2o$136b2o!

#N Sawtooth 1212
#O Dean Hickerson, 1991
#C https://conwaylife.com/wiki/Sawtooth_1212
x = 173, y = 114, rule = B3/S23
39b2o$39bo16b2o$28b2o7bobo16bo$28bo2bo5b2o$14bobo15bo$12bo3bo15bo$12bo
19bo$5b2o4bo16bo2bo6b2o$5bo6bo15b2o8bobo15bo$12bo3bo22b3o13b3o$14bobo
23b2o13b3o$37b2o$37b3o13b2o3b2o$31bo21bo5bo$32bo$30b3o5b2o$38bo22b2o$
55bo6bo$56bo5bobo7b2o$54b3o6b2o6b3o$9bobo56bob2o15bo$7bo3bo56bo2bo15bo
bo$2o5bo15b2o43bob2o16bobo$o5bo16bo2bo24bo5bo13b3o14bo2bo3b2o$7bo19bo
23bo5bo14b2o14bobo4bo$7bo3bo15bo6b2o16bo3bo30bobo28b2o$9bobo15bo6bo18b
3o31bo31bo$23bo2bo76b2o14bobo9bo$23b2o78bo16b2o8b4o$38b2o52bobo6bobo
25b2obo8b2o$38bo53bo2bo5b2o25b3obobo6bo2bo$26b2o8bobo38bo17b2o32b2obo
12bo$28bo7b2o38bobo14bo3b2o20b2o9b4o11bo6b2o$15b2o12bo26b2o17bob2o16b
2o21bo2bo9bo13bo6bo$15bo13bo26bo17b2ob2o13bo2bo6b2o14bo22bo2bo$12b2o
15bo27b3o15bob2o13bobo6bo2bo13bo22b2o$4b2o5b3o14bo8b2o20bo11b2o3bobo
25bo13bob2o$4bo7b2o12b2o9bo24bo7bobo4bo26bo15bo8bo$15bo31b2o12bo8bo30b
2obo22b2o$15b2o30bo13b3o5b2o31bo25b2o$37b3o79b2o$29bo8b2o55bo23bo12b2o
$30bo4b2o9b3o47b2o4b2o28bo$28b3o4b3o8b2o18b2o27b2o5bo41bo$36bobo10b2o
16bo74bobo$24b2o11b2o9b3o16bobo7b2o42b2o7b2o9bobo11b2o$24bo22bobo18b2o
5bo2bo42bo8b3o7bo2bo11bo$14bo32b2o25bo13bo43b2obo5bobo$13bobo58bo11b4o
42bo2bo6bobo$b2o10b2obo8bobo46bo12bob2o41b2obo8bo$bo11b2ob2o6bo2bo47bo
2bo6bobob3o31b2o5b3o$13b2obo6b2o52b2o8bob2o31bobo5b2o$13bobo5b2o3bo59b
4o8b2o22bo$14bo8b2o63bo9bobo20b2o$24bo2bo5b2o65bo$25bobo5bobo64b2o$35b
o$35b2o2$53bo7b3o$53b2ob2obo2b2o$54bo4b3o$34b2ob2obo13bo3bobo2bo$33b2o
2b2ob2o12bo4bo4bo$41bo12bo4bo4bo$33b2o19bo3bobo2bo$33b2o5b2o12bo4b3o$
40b2o11b2ob2obo2b2o$33bo13b3o3bo7b3o$33b2ob2o2b2o5b3o$34bob2ob2o6b3o$
50b3o$50b3o$50b3o2$39b2o23b2o$38b3o23bo44bo27b2o$26bo8bob2o9b2o59bobo
26bo$26bobo6bo2bo9bo63b2o6b2o16bobo9bo$27bobo5bob2o25bo47b2o4bo3bo16b
2o8b4o$14b2o11bo2bo7b3o22b2obo45b2o3bo5bo24b2ob4o5b2o$14bo12bobo9b2o
25bo33b2o7bobo4b2obo3bo23b3ob2o3bo3bo2bo$26bobo37bo32bobo7bo7bo5bo24b
2ob2o3bo7bo$26bo36bo2bo32bo18bo3bo7b2o17b5o3bo6bo6b2o$37b2o25b2o32b2o
20b2o8bobo17bo3b3o7bo6bo$37bo43b2o27bo21bo27bo2bo$81bo26b2o22b2o26b2o$
70b2o7bobo27b2o$70bobo6b2o54bo$57bobo13bo61b2o$56bo2bo5bo4bo2bo18b2o$
55b2o9bo6bo17bo2bo41bo$53b2o3bo5b3o3bobo21bo40bobo$55b2o13b2o22bo39bo
2bo$49b2o5bo2bo31b2obo38bo2bo24bo$48bobo6bobo32bo67bobo$48bo66bobo18bo
7bobo13b2obo4b2o$47b2o34b2o29bo2bo17b2o6bo2bo13b2ob2o3bo$23bo24bob2o
30bobo7b2o6b2o11b2o10b2o15b2o16b2obo$23b2o23bobo30b3o8bo7bobo8b2o3bo8b
o14b2o3bo14bobo$14b2o8b2o14bo5bobo2bo29b2o20bo9b2o27b2o17bo$14bo9b3o
13bobo3b2o2b2o32b2o14bo2bo10bo2bo18b2o5bo2bo$24b2o15bobo39b3o17bo11bob
o17bobo6bobo$23b2o16bo2bo13b2o33b2o5bobo32bo$23bo17bobo16bo8b3o20bobo
5b2o32b2o$40bobo7b2o9bo9bo3bo7b2o7bo$40bo9bo10bo8bo4bobo5bo7b2o$61bo
16b2o$60bo17b2o$58b2o18b2o$75bobo4b2o$75bo6bobo$84bo$84b2o!

#N Wickstretcher 1
#O Hartmut Holzwart, Dean Hickerson, 1992
#C https://conwaylife.com/wiki/Wickstretcher_1
x = 49, y = 16, rule = B3/S23
10bo19b2o$9bobo17bo4b2o$2bo4b3obo5bo14bob3o$bobo2bo4b2o3bobo7bobob4o3b
o3b2o2b2obo$bobo2bob2o3bo3bo8b3obo8bo2b2o4bo$2ob2obobob2o8bo10bo4b2ob
2o4b2obo$bo4b2o4b2o3bob2o13bo7bo$bob2o2bo3bobob2o2bob2ob3o4bobo9bo$2bo
3b3obobo2bo4bo3b3o4bobo9bo$3b2o3bobo2bo5b2o13bo7bo$5b2obob2obobo3bo11b
o4b2ob2o4b2obo$5bob2obo2bob2o4bo4b3obo8bo2b2o4bo$11b2o7b2o4bobob4o3bo
3b2o2b2obo$32bob3o$29bo4b2o$30b2o!

#N Moving sawtooth
#O David Bell, 2005
#C https://conwaylife.com/wiki/Moving_sawtooth
x = 128, y = 173, rule = B3/S23
20b3o17b3o26bo4b3o17b3o17b3o$15b2ob2obo19bob2ob2o20b3o2bo2bo12b2ob2obo
19bob2ob2o$15b2o4bob2o13b2obo4b2o13b3o4bob2o4bo12b2o4bob2o13b2obo4b2o$
14bo2bo3bobobo11bobobo3bo2bo11bo2bo5b4o3bo11bo2bo3bobobo11bobobo3bo2bo
$21bobobob2o5b2obobobo21bo5b3o4bo18bobobob2o5b2obobobo$19bo3bobob2o5b
2obobo3bo15bo3bo9bobo17bo3bobob2o5b2obobo3bo$20bobobob3o5b3obobobo16bo
3bo30bobobob3o5b3obobobo$63bo4bo$24b3o9b3o21bobo5bo29b3o9b3o$24b3obobo
bobob3o29bo29b3obobobobob3o$25b5obob5o61b5obob5o$30bobo35bo35bobo$30b
3o35bo35b3o$27bobo3bobo32bo32bobo3bobo2$25b2ob3ob3ob2o30bo30b2ob3ob3ob
2o$25bo11bo30bo30bo11bo$24bo2bo7bo2bo29bo29bo2bo7bo2bo$24bo4bo3bo4bo
59bo4bo3bo4bo$29bo3bo34bo34bo3bo$23b6o5b6o28bo28b6o5b6o$22b2o7bo7b2o
27bo27b2o7bo7b2o$30bobo71bobo$30b3o12bo9bo12bo12bo9bo12b3o$43b4o7b4o
10bo10b4o7b4o$19bo19b2ob2o3bo5bo3b2ob2o6bo6b2ob2o3bo5bo3b2ob2o19bo$17b
4o18b2o2bo3bo5bo3bo2b2o13b2o2bo3bo5bo3bo2b2o18b4o$13b2ob2o3bo3bo12bo2b
o7bobo7bo2bo11bo2bo7bobo7bo2bo12bo3bo3b2ob2o$13b2o2bo5b4o19bo2bobo2bo
27bo2bobo2bo19b4o5bo2b2o$12bo2bo7bo3bo17b3obobob3o25b3obobob3o17bo3bo
7bo2bo$21bo2bobo83bobo2bo$22bo7b3o14b2o3b2o29b2o3b2o14b3o7bo$33b2o12b
2o3b2o29b2o3b2o12b2o$29bo4bo12bobobobo29bobobobo12bo4bo$29bo4bo11b2obo
bob2o27b2obobob2o11bo4bo$29bo3bo12b2obobob2o27b2obobob2o12bo3bo$31bo
17bobo33bobo17bo$45bo9bo25bo9bo$46bo7bo27bo7bo3$45bo45bo$46b2o41b2o$
45b2o43b2o26$8b3o17b3o$3b2ob2obo19bob2ob2o$3b2o4bob2o13b2obo4b2o$2bo2b
o3bobobo11bobobo3bo2bo$9bobobob2o5b2obobobo28bobo15bobo$7bo3bobob2o5b
2obobo3bo27b2o15b2o$8bobobob3o5b3obobobo28bo17bo2$12b3o9b3o$12b3obobob
obob3o21b3o35b3o$13b5obob5o18bob2o3bo33bo3b2obo$18bobo22b3o3b3o2b3o23b
3o2b3o3b3o$18b3o21bo3bo4b3obobo21bobob3o4bo3bo$15bobo3bobo19bo7bo4bo
23bo4bo7bo$52b2o29b2o$13b2ob3ob3ob2o$13bo11bo$12bo2bo7bo2bo$12bo4bo3bo
4bo$17bo3bo75b3o17b3o$11b6o5b6o64b2ob2obo19bob2ob2o$10b2o15b2o63b2o4bo
b2o13b2obo4b2o$19bo71bo2bo3bobobo11bobobo3bo2bo$17b2ob2o11bo9bo54bobob
ob2o5b2obobobo$18bobo10b4o7b4o50bo3bobob2o5b2obobo3bo$7bo11bo7b2ob2o3b
o5bo3b2ob2o47bobobob3o5b3obobobo$5b4o18b2o2bo3bo5bo3bo2b2o$b2ob2o3bo3b
o12bo2bo7bobo7bo2bo50b3o9b3o$b2o2bo5b4o19bo2bobo2bo58b3obobobobob3o$o
2bo7bo3bo17b3obobob3o58b5obob5o$9bo2bobo51b2ob2o36bobo$10bo24b2o3b2o
24b2ob2o36b3o$35b2o3b2o62bobo3bobo$22b2o11bobobobo$17b2o4b2o9b2obobob
2o59b2ob3ob3ob2o$17b2o3b2o10b2obobob2o59bo11bo$17b2o3bo14bobo61bo2bo7b
o2bo$33bo9bo57bo4bo3bo4bo$34bo7bo63bo3bo$100b6o5b6o$99b2o7bo7b2o$107bo
bo$84bo9bo12b3o$82b4o7b4o$78b2ob2o3bo5bo3b2ob2o19bo$78b2o2bo3bo5bo3bo
2b2o18b4o$77bo2bo7bobo7bo2bo12bo3bo3b2ob2o$85bo2bobo2bo19b4o5bo2b2o$
66b2ob2o13b3obobob3o17bo3bo7bo2bo$66b2ob2o42bobo2bo$86b2o3b2o14b3o7bo$
86b2o3b2o12b2o$86bobobobo12bo4bo$85b2obobob2o11bo4bo$85b2obobob2o12bo
3bo$88bobo17bo$84bo9bo$85bo7bo2$40bobo$41b2o51bo$41bo50b2o$93b2o4$66b
2ob2o$66b2ob2o17$66b2ob2o$66b2ob2o5$54bo$55b2o$54b2o23bobo$79b2o$80bo
8$66b2ob2o$66b2ob2o!

#N Sawtooth 181
#O Chris Cain, 2015
#C https://conwaylife.com/wiki/Sawtooth_181
x = 78, y = 87, rule = B3/S23
5bob2o$5b2obo3$69b2obo$69bob2o$6bo$2o3bo3b3o$2o2bo6bo$5bo5bo$6b2ob2o$
69b2o5b2o$69b2o5b2o2$72b2o$27b2o43b2o$27b2o2$24b2o5b2o$24b2o5b2o16b2o$
18bo30b2o9bobo$16bobo41bobobo$17b2o26b2o5b2o11b2o$45b2o5b2o10bo20$50bo
$39bo8b3o$39bobo5bo$39b2o6b2o3$45bo$44bobo$39bo3bo3bo$37b2o5b3o$38b2o
2b2o3b2o11$17b4o24b2o$15b2o4b2o22b2o$15b2o5bo$17b2obobo$22bo9bo4bo$18b
o3bo7b2ob4ob2o$18bo4bo8bo4bo$20b3o3bo$20b2o4bo$26b2o$28bo$28b3o3$31bo$
30bob5o$29b2o5bo$29b2o3bo2bo$37bo$31b2obo2bo$34bo2bo$35b2o$35b2o!

#N 20-cell quadratic growth
#O dani, 2022
#C https://conwaylife.com/wiki/20-cell_quadratic_growth
x = 97, y = 33, rule = B3/S23
94bo$92bobo$94b2o6$88b3o11$96bo$95b2o8$3bob2o$2bo3bo$bo$bo$obo!

#N Blinker ship 1
#O Paul Schick
#C https://conwaylife.com/wiki/Blinker_ship_1
x = 27, y = 15, rule = B3/S23
10b4o$10bo3bo$10bo$b2o8bo2bo$2ob2o$b4o3bo$2b2o3bob2o8bo4b3o$6bo3bo8bo
4bobo$2b2o3bob2o8bo4b3o$b4o3bo$2ob2o$b2o8bo2bo$10bo$10bo3bo$10b4o!

#N Quartermax
#O Keith Amling, 2022
#C https://conwaylife.com/wiki/Quartermax
x = 108, y = 60, rule = B3/S23
2bo$b3o5b3o12bo5bo$2obo4bo2bo5b3o3b3o3b3o$3o4b3obo4bo2bo3bob2ob2obo$3o
2bo6bo3bo2bo4b3ob3o$b2o5bo4bo4b4o2b3o2b2o$7bo6bobobob2o2b3o$14bobob2o
2bo2b2o39b3o$12b2o3bo2b2o2b3o5b3o24b3o4bo2bo$15b2o4b3o3b2o2bo2bo7b3o3b
3o7bo2bo4bo$12b5o2b2o8bo5bo5bo2bo2bo2bo10bo4bo$12bo6b2obo5b3o2b2o6bo3b
o4bo6bo3bo5bobo$11b2o5b2o5b2o3b2ob6ob2obo7bo4bo4bo$12bo2b4obo2bob2o2b
4o2bo2b2o2bo4bo2b2o2b2obo3bob2o6b3o$13bo3bo6b2o5bo5b2o2bob2o2bo2b2o2b
2obo3b2o2bo4bo2bo$13b2o2bo9bob2o6b5ob3o2bo4b2o2bo4bo10bo$8bo3b2ob2o19b
ob2o2bobo2bo8bo2b4o2bo7bo$7b3o4bo20bo5bo2b2ob2o2b2o5b2o3b2ob3obobo$7bo
b2o25bo2b2o4b2o4bo6bo2b2o4b2o$8b3o23b2o3bo2bob2obo2bo4bo4bo32bobo$8b6o
20b4obobo5bob2o4b3o7b2o2bo23bo2bo$8b3obob2o14bo6bobo3bobobo9bo6bo25bo
5b2o$11bo4bo12b3o3b3obo2bo4b2ob2o5b6o6bo19b3o2bo3bo$10bo18bob2o4b3o4bo
3b5ob3o2bobo2bob3o3b3o3b3o7b2obo3bob3o$10bo4b2o15bo4b3o3b2o4b2o2b2obo
4b2o9bo2bobo2bo7b3o10b2o$10bo17b3o3bobobo3b3o14bob2o8bo3bobo4bo6b2o4b
5o3bo$10bo17b4o3bo6b2o10bobo2bob2o5b6obobob4o17bo3bo$10bo18bo8bo14bo6b
3o5bo6bobobo3b2ob2o9b2o5bo$11bobo22b2o22b3o3bob9ob6obobo5bob4o3bobo$
35bo2bo22b2o4bo17bo3bo2bob2o6b2o$31b3ob4o29b17ob4o2b2o7b2o$30b2ob6o52b
2o6bob2o2bo$29b2o37b24o7bob2o$29b2o33b2obo36bob2o$29b2o3bo3bo26bob27o
9bo3bo$32b2o30bo28b2o8bo3bo$29bo33bob2ob4o2b4o2b4o2b3obobob2o7bo2bo$
29b2ob3o28bobo2b2o2bob2o2bob2o2bob2o4bob3o7bo$28bo4bobo24b2obob2o3bo5b
o5bo5bo5b2o$27bobo5b2o23bo2bo26bo3bo$34b2o26bo4bo25bo$28b2o4b2ob2o22b
2obobo4bo16bo3bo$27b2ob2o31bobo3b2obo14b2o3b6o$27b5o4bo26bob3o4bo14b2o
3bob5o$28b3o31b2obo2bo3bob2o10b2o6b3ob2o$29bo31bo2bobo4b2o2bo8b3o3b2o
5b2o$29b2o30b2obo2bo2bo2b2o8bobob4o$30bo3bo29bo2b2o2bo6b2o3bo2b2o3bo$
33b3o28bob2ob2o6b6o6bob2o$33bob2o26b2o2bobo7b4obob5ob2obo$34b3o25bo2b
3obobo12bo4b2o2bo$34b3o25b2o4b2ob3o7b3o3bo4b2o$34b2o28b2o2bobo3bo12bo$
64bob2o2bob2o16b2o$65b2obobobo$68bobobo$63b3o3bobo$63bo2bob2o$64bobobo
bo$65bo3b2o!

#N Sawtooth 1163
#O David Bell, 1992
#C https://conwaylife.com/wiki/Sawtooth_1163
x = 150, y = 219, rule = B3/S23
131b2o$131b2o$61bo$60bobo$43b2o15b2obo68bo$43bobo14b2ob2o8b2o21b2o33b
3o$38b2o6bo13b2obo8bobo21bo33bo3bo$34b2obo2bo2bo2bo13bobo8b3o12bo7bobo
19b2o14bo$34b2o2b2o6bo8bo5bo8b3o8b2o3b4o4b2o20b2o11bo5bo$43bobo7bobo
15b3o8b2o3b4o11bo10b2o6bo3b2o2bo5bo$43b2o9b2o16bobo2b2obob2o3bo2bo11bo
bo7b3o5bo3bobo3bo3bo$73b2o2b2obobo4b4o14b2o6b2o6b5o5b3o$79b2obo3b4o15b
2o9b2o4b3o$86bo18b2o9b2o$93b2o7bobo$92bobo7bo11bo$62b2o8bo19bo19bobo$
61b2ob2o4b2o19b2o20b2o$31b2o38b2o24b2o4bo4b2o$32bo30bo32bo2bobo3bobo2b
o19bo$32bobo29bob2o28b3o9b3o19bobo$33b2o30bo33b2o5b2o22b2o$98bo2b5o2bo
12bo$98b2o7b2o13bo$4b2o114b3o$3b2ob3o122b2o3b2o$4b5o23b2o28b2o28b2o29b
o$5b3o23b4o26b4o26b4o11b2o14bo9bo3bo$18b3o9b2ob2o25b2ob2o25b2ob2o10b2o
b2o9bo2b3o8b3o$17b5o9b2o28b2o28b2o13b4o8b2o13b3o$4b5o7b2ob3o85b2o9bobo
$4bo6bo5b2o38bo$4bo6bo43b2o$5bo5bo44b2o$7bo125b2o$133b2o$83b2o41b2o$6b
2o75b2o40b2o$5b2ob4o60b2o6b2o10bo4bo29bo9bo$6b6o42bobo15b2o5b3o10bo4bo
bo35bobo$7b4o46bo22b2o10bo7b2o21b2o9bobo11b2o$41b2o10bo4bo2b2o5b2o13b
2o2b2o11b2o4b2o15b3o7bo2bo11b2o$40bobo10b2obo2bob2o4b2o14b2o2bo2b2o8b
2o4b2o6b2o9b2obo5bobo$42bo14b2o10bo18b4o5bobo14bo5bo4bo2bo6bobo$89bo7b
o21bo5b2obo8bo$65b2o48bo3bo3b3o$64bo2bo49bo5b2o$67bo$67bo12bobo$40b2o
22b2obo12b2o$40b2o22b2o15bo$40b2o35b2o$40bo36b2o$39bobo23b2o$39bob2o
22b2o$56b3o$26b2o4bobo21bo26b2o9b2o$25bobo12b2o15bo24b2o9bobo$27bo4b5o
3b2o35bo6bo7b3o4b2ob3o$33b3o40bobo12b3o4bo2b4o$34b2o33b2o3b2o3bo12b3o
4b2o$69b2o3b2o3bo13bobo$9bo8b2o54b2o3bo14b2o$7bobo6bo2bo56bobo$2o4bobo
7bo3bo2b2o17bo34bo$2o3bo2bo7bo2b2o2b3o15b2o10b2o$6bobo16b2obo12bobo9b
2o$7bobo4b3o8bo2bo7b2o12b2o6bo3b2o$9bo15b2obo5bo3bo10b3o5bo3bobo$23b3o
7bo5bo10b2o6b5o$23b2o7b2obo3bo13b2o4b3o$33bo5bo13b2o$20bo13bo3bo$20b3o
13b2o$23bo45b2o$22b2o45b2o3$25bo43b3o10bo$7b2o14b2ob2o42b2o5b4obo$7b2o
58b2o8bobob2o$22bo5bo38b3o9bo$68bobo7b2o$22b2obob2o40b2o2$72bo13b3o$
72b2o12bo$71bobo13bo9bo$7bo88bobo$6b3o75bobo8bob2o10b2o$5b5o48b2o24bo
2bo6b2ob2o10b2o$4b2o3b2o46b3o3b2obo20b2o6bob2o$54bob2o5bo3bo2bo14bo3b
2o5bobo$54bo2bo4bo4bo2b2o15b2o8bo$54bob2o4b4o5b2o11bo2bo$8bo15b2o3b2o
18b2o6b3o3bo7b3o10bobo$7b2o15bo5bo17bobo7b2o11b2o$48bo21b2o$5bo19bo3bo
17b2o21bo$4bobo19b3o$3bo3bo$4b3o$2b2o3b2o2$24b2o$25bo$22b3o$22bo4$2b2o
8bo$3bo6b3o$3o6bo$o8b2o9$5b5o$4bob3obo$5bo3bo$6b3o$7bo2$10bo$9b2o4$6b
2obob2o$6bo5bo$7bo3bo$8b3o8$10bo$9b2o6$92b2o$92b2o3$75bo$74bobob2o$76b
o2b2o2bo$79bo2b3o$73bo2bo2b4ob2o14b2o$74bobo5b3o15b2o$71bo3bo7bo$68bo
3bo$67bo5bo$68b2ob2o2$68bo$68b4o36b2o$69bobo36b2o$71bo$70b3o$69b2ob2o$
70b3o$71bo5$87b3o20b5o$87bo22b2obo$88bo22b3o$49bo61b2o$48bobob2o57bo$
50bo2b2o2bo52bobo$53bo2b3o51b2o$47bo2bo2b4ob2o49bob3o$48bobo5b3o51bo3b
o$49bo7bo51bo3bo$113b3o$46b2o33bo29b2o$46b2o31b2obo28b2ob2o$70bobo6b2o
2bo9b3o17bo$70bo2bo6b2o3b3o6bo2bo$69bo3b2o8b4obo9bo$69bo12b4o2bo6bobo$
83bo$69bo2b3o$54b2o13b2o$54b2o15b3o$71b3o25bobo$92b2o3b2obo$92b5ob2o3b
2o$70bo18bo2bob2obobo3b2o$69bobo16bo4b2o4bob2o2bo$72bo11b4obo10bobobo$
62b2o3bo4bo11b2ob3o12bobo$62b2o2bo5b2o11b3o$72bo12b2o$67b2o2b3o11bo$
72b2o10bobo$84b2o$83bob3o$84bo3bo$69bo2bo10bo3bo$70b2o15b3o$85b2o$85b
2ob2o$87bo!

#N 21-cell quadratic growth
#O dani, 2022
#C https://conwaylife.com/wiki/21-cell_quadratic_growth
x = 266, y = 164, rule = B3/S23
bo$2bo$3o122$221bo$221b2o19$261bobo$260bo$261bo2bo$263b3o14$143b3o$
146bo$146bo!

#N 22-cell quadratic growth
#O dani, David Raucci, 2022
#C https://conwaylife.com/wiki/22-cell_quadratic_growth
x = 170, y = 216, rule = B3/S23
168bo$167bo$167b3o141$9bo$8b3o$10bo62$40bo$39bobo$40bo$2b3o$o$bo$2bo$b
o$o!

#N Boatstretcher 1
#O Hartmut Holzwart, 1993
#C https://conwaylife.com/wiki/Boatstretcher_1
x = 21, y = 21, rule = B3/S23
10bo$9b2o$9bobo3bo$13b2o$14bo2bo$12b2obo2bo$8b3ob2o4bo$7bo2bo4bo$6bo4b
o4b2o$b2o3bo5bobob2o$2o4b2o9bo$2bo5bo9bo$5b2o2bo6b3o$3bob2o11bobo$3b2o
4bo9b2o$2bo2bobo$8b2o2bo$4bo3b3obo$5b2o4b3o$14bo$13b2o!

#N Flying wing
#O Emerson J. Perkins, 2010
#C https://conwaylife.com/wiki/Flying_wing
x = 159, y = 90, rule = B3/S23
13b3o11b3o99b3o11b3o$12bo3bo9bo3bo97bo3bo9bo3bo$11b2o4bo7bo4b2o95b2o4b
o7bo4b2o$10bobob2ob2o5b2ob2obobo93bobob2ob2o5b2ob2obobo$9b2obo4bob2ob
2obo4bob2o35b3o15b3o35b2obo4bob2ob2obo4bob2o$8bo4bo3bo2bobo2bo3bo4bo4b
o28bo3bo13bo3bo28bo4bo4bo3bo2bobo2bo3bo4bo$20bobo15b3ob2o23b2o4bo11bo
4b2o23b2ob3o15bobo$8b2o7b2obobob2o7b2o2b2o3bob2o20bobob2ob2o3b3o3b2ob
2obobo20b2obo3b2o2b2o7b2obobob2o7b2o$20bobo13b2o2bo4b5o15b2obo4bob2ob
3ob2obo4bob2o15b5o4bo2b2o13bobo$14b3o9b3o5bo2bo5bobobob2ob2o5bo4bo4bo
3bo4bobo4bo3bo4bo4bo5b2ob2obobobo5bo2bo5b3o9b3o$14bo3bo9bo6bo8bo3bo3bo
b2o2b3o15bo5bo15b3o2b2obo3bo3bo8bo6bo9bo3bo$14bobo4b3o26bo4b3ob3o2b2o
7b2o9b2o7b2o2b3ob3o4bo26b3o4bobo$20bo2bo4b2o19bo3bobo5b2o33b2o5bobo3bo
19b2o4bo2bo$23bo30bo6bo2bo29bo2bo6bo30bo$19bo3bo39bo31bo39bo3bo$19bo3b
o111bo3bo$14bo8bo111bo8bo$14bobo3bobo113bobo3bobo$14b2o127b2o4$12bo23b
3o11b3o53b3o11b3o23bo$12bobo20bo3bo9bo3bo51bo3bo9bo3bo20bobo$12b2o20b
2o4bo7bo4b2o49b2o4bo7bo4b2o20b2o$33bobob2ob2o5b2ob2obobo47bobob2ob2o5b
2ob2obobo$32b2obo4bob2ob2obo4bob2o45b2obo4bob2ob2obo4bob2o$31bo4bo3bo
2bobo2bo3bo4bo43bo4bo3bo2bobo2bo3bo4bo$10bo32bobo67bobo32bo$10bobo18b
2o7b2obobob2o7b2o43b2o7b2obobob2o7b2o18bobo$10b2o31bobo67bobo31b2o$37b
3o9b3o55b3o9b3o$37bo3bo9bo55bo9bo3bo$37bobo4b3o65b3o4bobo$8bo34bo2bo4b
2o53b2o4bo2bo34bo$8bobo35bo65bo35bobo$8b2o32bo3bo65bo3bo32b2o$42bo3bo
65bo3bo$37bo8bo65bo8bo$37bobo3bobo67bobo3bobo$6bo30b2o81b2o30bo$6bobo
141bobo$6b2o143b2o2$35bo87bo$35bobo83bobo$4bo30b2o85b2o30bo$4bobo145bo
bo$4b2o147b2o2$33bo91bo$33bobo87bobo$2bo30b2o89b2o30bo$2bobo149bobo$2b
2o151b2o2$31bo95bo$31bobo91bobo$o30b2o93b2o30bo$obo153bobo$2o155b2o2$
29bo99bo$29bobo95bobo$29b2o97b2o$3o153b3o$obo153bobo$3o153b3o$27bo103b
o$6b2o19bobo99bobo19b2o$8bo18b2o101b2o18bo$6b3o141b3o$5bob2o141b2obo$
4bobo145bobo$4bobo18bo107bo18bobo$25bobo103bobo$9b2o14b2o105b2o14b2o$
8bo2bo135bo2bo$9b2o137b2o2$23bo111bo$12b2o9bobo107bobo9b2o$11bo2bo8b2o
109b2o8bo2bo$12b2o131b2o3$21bo115bo$21bobo111bobo$17b2o2b2o113b2o2b2o$
17b2o121b2o!

#N Hacksaw
#O Dean Hickerson, 1992
#C https://conwaylife.com/wiki/Hacksaw
x = 199, y = 102, rule = B3/S23
17b2o$18bo$91bo$91bobo$94b2o6b2o$52b2o24bo15b2o3bo4bo$53bo23b2o15b2o3b
2o4bo$34b2o17bobo5b2o13b2o13bobo11bo9bo$33bobo18b2o5b3o11b3o13bo13bo8b
2o$23b2o7b3o12bo15b2obo9b2o26bo$23bo7b3o13b4o12bo2bo10b2o23b2o$16b3o
13b3o4bobo6b4o11b2obo11bo$15bo3bo13bobo3b2o7bo2bo9b3o$14bo5bo13b2o4bo
7b4o9b2o$15bo3bo27b4o4b2o17b2o$16b3o28bo7bobo16bo$16b3o38bo$57b2o$40b
2o9b2o64b2o$39bo2bo7bo2bo63bo$39b3o9b3o61bobo$14b3o25b9o64b2o$13b2ob2o
23bo2b5o2bo$13b2ob2o23b2o2b3o2b2o134bo$13b5o169bo$12b2o3b2o163bo4bo$
46bo136b5o$47bo$43bo3bo12bo$44b4o13bo$56bo4bo123b2o$57b5o120b3ob2o$
177b3o3b4o$184b2o$15bo$15b2o$67b2o115bo$66bobo116bo$9bobo40bo12b3o8b2o
101bo5bo$7bo3bo40b4o8b3o10bo102b6o$2o5bo10b2o3b2o28b4o8b3o24bo$o5bo10b
obo3bo2bo15bo10bo2bo9bobo18b3ob2o3bo$7bo11bo7bo7bo6b2o9b4o10b2o18b4o4b
2o$7bo3bo15bo6b2o16b4o35b2o$9bobo15bo24bo$23bo2bo38b2o16b2o$23b2o40bo
16bobo$81b3o$81b2o79bo$84b2o77bo$83b3o71bo5bo$158b6o2$84bo$83b2o2$57bo
126b2o$56b2o122b4ob2o$45b2o8b2o11bo26bo84b6o$45bo8b3o9bobo26b2o84b4o
12bo$55b2o8bobo12bo54b5o58bo$56b2o2b2o2bo2bo11b2o14bo38bo4bo54bo3bo$
57bo2bo4bobo26bobo42bo55b4o$66bobo25bo2bo40bo20b4o27b3o$68bo26bo2bo59b
o3bo25b2ob2o$162bo21b3o3b3o$95bo65bo33b4o$95b2o97bo3bo$172b2o24bo$171b
4o22bo$171b2ob2o$66b2o105b2o6b6o$65b3o27bo73bo10bo5bo$55b2o5bob2o12bo
15b2o71bobo16bo$55bo6bo2bo12b2o29b2o58bo15bo$62bob2o13b2o27bo64b2o$65b
3o11b3o11bo13bo9b2o52b2ob2o$66b2o11b2o10bobo13bo10bo17b2o33b4o$78b2o9b
2o16bo27bo2bo33b2o$78bo10b2o17bo29bo$89b2o18b2o27bo22b6o$91bobo41b2obo
21bo5bo$93bo42bo29bo$149b2obo2bo9bo$148b2o6bo$137bo12bobo3bo$136b2o15b
4o4$168bo$137bo29b2o$137b2o12bo14b2o8b2o$125bo23bobo13b3o9bo$125bobo
20bobo15b2o$114b2o12b2o9b2o6bo2bo16b2o$114bo13b2o9bo8bobo17bo$128b2o6b
2o6b2o3bobo$125bobo7b3o7bo5bo$125bo10b2o$139bo$139b2o!

#N Parabolic sawtooth
#O Dean Hickerson, 1991
#C https://conwaylife.com/wiki/Parabolic_sawtooth
x = 126, y = 144, rule = B3/S23
34b2o11b2o36b2o18b2o$34bo12bo37bo19bo6$16b2o16bo$16bo16b3o$33b3o36b2o
29bo5bo$72bo11b3o16b2o3b2o$31b2o3b2o6b2o3b2o32bo3bo$31bo5bo44bo5bo16b
3o$45bo3bo32bo5bo16b3o$46b3o57bo$46b3o24bo10bo$35bo35b2ob2o7b2o$34bo$
34b3o33bo5bo$14b5o$13bob3obo50b2o3b2o5b3o$14bo3bo26bo5bo30b3o$15b3o15b
o5bo4b3o5bo28bo3bo$16bo16bo5bo4b3o3b3o$34bo3bo41b2o3b2o20b3o6b2o$35b3o
4b2o3b2o57bo3bo5bo$42bo5bo56bo5bo$5b2o7bo90bo5bo$5bo8bo$13bobo$12b2ob
2o99b3o$11bo5bo98b3o$14bo23b2o7b2o23b2o3b2o36bo3bo$11b2o3b2o20bo8bo24b
o5bo$5bo33b3o6b3o31b2o23b2o5b2o3b2o$4b3o27b2o5bo8bo4b2o16bo3bo4bo24bo$
4b3o28bo19bo18b3o21b2o$35bobo5bo9bobo42bo$2b2o3b2o27b2o4bobo8b2o$2bo5b
o32bob2o$40b2ob2o$13b2o26bob2o13bo$13bo9b2o17bobo12bo40bo$4bo15bo4b4o
14bo13b3o14b2o4bobo13b2ob2o$5bo13b2o2b2ob3o36b2o7bo5b2o$3b3o17bo37b4o
4b2o10bo13bo5bo$61b3ob2o2bo18bo2bo$66bo16b2o2b2o3bo2b2o3b2o14bo5bo$83b
o8bo23b2o3b2o$o5bo81b4o$o5bo111b3o$bo3bo21bo15bo74b3o$2b3o22b2o15bo74b
o$26bobo13b3o3$34bo$34b3o$37bo$36b2o55b2o3b2o2b2o$25b2o66bo5bo2bo$26bo
32bo9b2o51bo$57bobo10bo23bo3bo22b3o$23bo2bo31b2o10bobo5bo16b3o22b5o$3b
2o3b2o14bo2bo43b2o3b4o39b2o3b2o$3b2o3b2o15bobo8bo5bo34bob2o9b2o$4b5o
17bo9bo5bo32bobob3o8bo$5bobo29bo3bo35bob2o$25b2o11b3o35b4o32b2o$5b3o
17bo30bo21bo33bobo$57b2o37b2o11b2obobo$56b2o38bo12bobobo$111bo$111b2o$
8bo43b2o57b3o$7bobo42bo23bo34b3o3b2o3b2o$6bo3bo63bobo34b3o3b2o3b2o$7b
3o28b2o35b2o34b2o5b5o$5b2o3b2o26bo15b2o55bo7bobo$54bo32b2o20bobobo$45b
2o5bobo32bo21b2obobo4b3o$44b3o5b2o19bo38bobo$32bo8bob2o29bo37b2o$32bob
o6bo2bo27b3o$20b2o11bobo5bob2o$20bo12bo2bo7b3o$33bobo9b2o63b2o7b2o$32b
obo75bo8bo$32bo$8b2o33b2o$8bo34bo12b2o51b3o$55bo2bo50b2o$47b2o6bo56b2o
$48b2o5bo55b3o$47bo7bob2o51bobo$57bo52b2o3$56b2o$56bo2$28bobo$28bo3bo$
18b2o12bo10b2o$18bo14bo7bo2bo21b2o42b2o$32bo7bo11b2o12bo43bo$28bo3bo7b
o11bo$28bobo9bo$41bo2bo20b3o$43b2o20b2o$68b2o$34bo32b3o$34bobo29bobo$
17b2o18b2o4b2o21b2o41b2o$19bo17b2o4bo65bo$20bo16b2o9b3o23bo$9b2o9bo8bo
4bobo13bo22b2o$9bo10bo9bo3bo14bo7b2o13b2o8b2o$19bo8b3o26b3o11b3o8bo$
17b2o40b2obo9b2o$59bo2bo10b2o$59b2obo11bo$50b2o5b3o$49bobo5b2o$49bo44b
o$48b2o40b2o2b2ob3o$90bo5b4o$86b2o6b2o$85bobo18b2o$22b2o60b3o19bo$24bo
59b2o21b3o$14b2o9bo13bo47b2o20bo$14bo10bo13bobo44b3o$25bo16b2o4b2o12b
2o$24bo17b2o4bo13b3o$22b2o18b2o9b2o9b2obo11bo6b2o$39bobo11bo10bo2bo10b
2o6bo$39bo24b2obo9b2o$62b3o11b3o$62b2o13b2o$78b2o5b2o$79bo5bobo$87bo$
87b2o!

#N One per generation
#O Nicolay Beluchenko, 2005
#C https://conwaylife.com/wiki/One_per_generation
x = 17, y = 15, rule = B3/S23
8b2o$7b2o$9bo$11b2o$10bo2$9bo2b2o$b2o5b2o4bo$2o5bo5bo$2bo4bobo3b2o$4bo
2bo4b2obo$4b2o7b2o$8bo4bob2o$7bobo2bob2o$8bo!

#N Quadratic sawtooth
#O Martin Grant, Alexey Nigin, 2015
#C https://conwaylife.com/wiki/Quadratic_sawtooth
x = 785, y = 785, rule = B3/S23
188bo$188b3o$191bo$190b2o4$199bo$179b2o5b2o9b2obo$179b2o5b2o8bo4bo$
200bo$183b2o11b4o$183b2o4$206b2o$206b2o2$203b2o5b2o$203b2o5b2o2$219b2o
$219b2o$188bo30b2o$188b3o28bo$191bo26bobo$190b2o11bo14bobo$201bobo15bo
$202b2o2$216b2o3b2o$203b2o11bobobobo$202bobo12b5o$188b2o14bo13b3o$188b
2o29bo$183b2o$183b2o3$180b2o$180b2o39b2o$221bo$184bo37b3o$183b2o39bo$
182b3o$182bo$180bo$180bo3b2o$184b2o$181bo$182bo2bo28bo$182b3o30b2o$
214b2o3$166b2o$165bobo$165bo$164b2o$172b2o$172b2o2$175b2o$175b2o3$172b
2o$172b2o13$244bo$245b2o$244b2o$31b2o3b4o$26b3obo2bo6bo$30bo2bo2b5o$
30bo2bo$32bo$29bobo17b2o$30bo18b2o3$14bo$14bo$14bo$18bo124b2o8bo$14b3o
2bo37b2o84b2o6b3o5bo$13bo4bo38b2o91bo7bobo$13bo3bo117b2o13b2o8bo$14b3o
119bo$136bobo$24bo112b2o$13bobo7b3o$13bobo7bo2bo117b2o$13bobo7b3o39b2o
77b2o12bo8b2o$13bobo7b3o8bobo28b2o91b3o6b2o$14b2o6bob2obo7b2o124bo$23b
o2b3o6bo103bo20b2o13b2o$23b4ob2o108bobo34bo$5b2o3b4o10bob3o110bo33bobo
$3obo2bo6bo11b3o144b2o99bo$4bo2bo2b5o10bob2o26bobo217b2o$4bo2bo17bo2bo
26b3o89b2o17b2o106b2o$6bo18bobo27b2o90b2o11bo5b2o$3bobo20bo132bobo$4bo
156bo$58bo113bo$56bobo112bobo$56b3o113bo$59bo$55b5o$163b2o$163b2o$43b
3o6bo$44b2o3b2obo$43b2o5bobo$3b2o43b3obo$3b2o46b2o7$11b2o$11b2o2$29bob
o$29b3o$29b2o327b3o$304bo53bobo$305b2o37b3ob4o5bo2bo$19b2o11bo271b2o
29b3o5bo2b2obob2obobob3o$19b2o9bobo301bo2b4o5bobo2bo2bobobob2o$30b3o
301bo3b4ob2ob3o3b3obo3b2o$33bo301b2obo3b2o18bo$29b5o300b3o2bobo20bo$
335bo17bo9bo$336bo16bo6bo2$27b2o$27b2o230b2o$259b2o3$262b2o$262b2o2$
259b2o$259b2o$251b2o$252bo$252bobo$253b2o2$122bo$121b4o$120b2ob4o5b2o$
119b3ob2o3bo3bo2bo125bo$120b2ob2o3bo7bo123b2o18b2o19b2o$111b2o8b5o3bo
6bo6b2o117bo18bo19bo32bo$110bobo9bo3b3o7bo6b2o114b3o19bobo7bobo5bobo5b
o27b2o$110bo21bo2bo124bo21b2o6bo2bo5b2o4b3o26b2o$109b2o21b2o145bo9b2o
13bo$277bobo7b2o3bo11b2o$270b2o6b2o9b2o$270b2o18bo2bo$291bobo$267b2o$
93b2o15bo156b2o$93b2o15bo$110bo$270b2o29b3o$83bo20b2o164b2o28bo3bo$82b
obo19bo194bo5bo$70b2o10b2obo8bobo5bobo20bo174bo3bo$70b2o10b2ob2o6bo2bo
5b2o19bobo175b3o$82b2obo6b2o17b2o9bobo11b2o133b3o27b3o$82bobo5b2o3bo
15b3o7bo2bo11b2o135bo32bo2bob2obo2bo$83bo8b2o19b2obo5bobo147bo6b2o5b2o
17b2o2bo4bo2b2o$93bo2bo16bo2bo6bobo153b2o5b2o18bo2bob2obo2bo7bo$94bobo
16b2obo8bo197b3o$104b2o5b3o168b2o38bo$103bobo5b2o149b2o18b2o18bo19b2o$
103bo199bo$102b2o197b3o16bo$319bobo$318bo3bo$319b3o$259b2o2b3o51b2o3b
2o$255b2o4b2o2bo$255b2o3bo4bo$261bo2bo$262bo46bo$307bobo$308b2o$266b2o
$267bo56bo2bo4bo2bo$264b3o55b3o2b6o2b3o$264bo59bo2bo4bo2bo3$340b3o11b
3o$339bo2bo10bo2bo$342bo4b3o6bo5b2o$342bo4bo2bo5bo5bobo$339bobo5bob2o
2bobo8bo$364b2o3$341bo8bo$340b3o5bobo$339b2obo$330bo8b3o4bo2bo$331b2o
7b2o4b3o13b2o$330b2o15bo14bobo$364bo$364b2o3$356b3o$355bo2bo$358bo$
339bo18bo$337bobo15bobo4b2o$338b2o13bo8bobo$353bo10bo22b2o$351b3o10b2o
21b2o$351bo2$384b2o$333b2o49b2o$333b2o$387b2o$362b2o23b2o$330b2o30bobo
30b2o$330b2o32bo30bo$364b2o27bobo$333b2o58b2o$333b2o22bo$358b2o$357b2o
$387bo$387b2o$336bo25b2o22bobo$336b2o24bobo$335bobo26bo$364b2o15bo$
380b2o3bo$380bobo$376bobo2b2o$316b2o5bo52bobo3bobo$315bobo4b3o52bo6b2o
$315bo5b2o2bo$314b2o$361bobo$361b2o5b2o$324b2o25b2o9bo5b2o6b2o$322b3o
25bobo23b2o$323bo9b2o17bo$333b2o36b2o$358bo12b2o$322b2o16b3o14b2o$322b
2o8b3o4bo2bo14bobo8b2o$331bo2bo7bo25b2o7bobo$331b2o9bo33bo4bo$339bobo
34bo4bo$376b2o2$332bob2o40b2o2b2o$332bo2bo5bo34b2o2b2o$332b3o5b3o33b3o
bo$339b2obo34bo$339b3o36bo$340b2o2$319bo65b2o$319bobo63bobo$319b2o66bo
$316b2o69b2o$315bobo38b3o20b2o$315bo39bo2bo20b2o$314b2o42bo$322b2o34bo
17b2o$322b2o31bobo18b2o$308b2o$308b2o15b2o$325b2o52b2o$379b2o$311b2o$
311b2o9b2o$322b2o$308b2o$308b2o$300b2o$301bo$301bobo$302b2o5$309b2o$
308b2o$310bo2$313b3o$312b4o$310b2obo2bo$310b2ob2obo2b2o$311bo7b2o$311b
o5bo$312b2o$315bobo15bo$334b2o$327b2o4b2o$319b2o6b2o$319b2o23b3o$344bo
$324b2o19bo17b2o$324b2o37b2o$337b2o24b2o$327b2o9b2o23b3o$316bobo8b2o8b
o25bobo$316bo2bo43bo2bo$315bo3b2o44b2o$315bo2$315bo2b3o42bo$315b2o45b
4o$317b3o21bo20bo3bo$317b3o20b3o20bo2bo$339b2obo20b3o$339b3o$340b2o$
310b2o$309bobo66bo$309bo69bo$308b2o67bo$316b2o63bo$316b2o38b3o20b2obo$
355bo2bo23bo$319b2o37bo23b2o$319b2o37bo15b2o$355bobo16b2o$323b2o$316b
2o5b2o46b2o$316b2o53b2o2$326b2o$326b2o46b2o$374b2o$323b2o$323b2o$315b
2o$316bo$316bobo$317b2o5$325bo$326bo$326bobo$326bo$327bobo$329bo$327bo
bo$327b2o5b2o$334b2o$347bo$331b2o12bobo$331b2o13b2o3$334b2o$334b2o202b
o$536b3o$535bo$535b2o$368bobo$366bo3bo$323b2o41bo$323b2o33b3o4bo4bo8b
2o$358b3o5bo12b2o113bo34b2o8b2o5b2o$357bo3bo4bo3bo123b3o33b2o7b2o5b2o$
326b2o28bo5bo5bobo126bo31bo$326b2o29bo3bo134b2o23bo3bo16b2o$358b3o160b
2o19b2o$323b2o16bo89bo$323b2o15b3o88b3o88b3o$315b2o22b2obo91bo68b2o2b
2o14bob2o$316bo22b3o46b2o43bo51b2o5b2o8b3o19b2o$316bobo21b2o46b2o43bo
2bo48b2o5b2o15bo$317b2o118bo62bobo19b2o$435bo53b2o10b4obo2bo5b2o4bo$
489b2o11b3ob3o6b2o5b2o$422b2o5b2o$324bo33b2o62b2o5b2o$326bo31b2o$326bo
99b2o84b2o$327b2o97b2o84b2o$326bobo22bo34b2obob2o$327b3o20bobo156b2o5b
2o$329bo12b3o4bob2o33bo5bo116b2o5b2o$327b2o13b3o3b2ob2o10b2o$327b2o5b
2o13bob2o10b2o22b2ob2o50b2o4b2o$334b2o14bobo36bo51bo2bo3bob2o74bo9bo9b
o9bo9bo$351bo14b2o73bo2bo6b4o71b3o7b3o7b3o7b3o7b3o$331b2o7b2o3b2o19b2o
73b2ob2o3b6o63bo10bo9bo9bo9bo9bo66bo$331b2o8b5o40bo56b2o71b2o10b2o8b2o
8b2o8b2o8b2o67b2o$342b3o40bobo129b2o120b2o$343bo40bo3b2o245bo3b6o$334b
2o37b2o9bo3b2o120bo22bo107bo2bo$334b2o37b2o9bo3b2o40b4o56b4o17b2o19b2o
16b4o86b2ob2o$385bobo41bo3bo55bo3bo16b2o20bobo14bo3bo88bo$386bo46bo59b
o59bo14b4o67b3o$429bo2bo56bo2bo56bo2bo14bo3bo$571bo67b3o$546b3o18bo2bo
64b2o2bo$342b2o21b5o144b3o29bo92bobo$342b2o20bob3obo145bo28b2o93b3o$
365bo3bo145bo46b2o3b2o73bo$366b3o191bo6bobo71b2o$367bo191bo2bo6bo69b2o
bo$400b3o155b2o7b3o69bobo$363bo36bo55bo102b2o78b4o$362b2o37bo52bobo
185bo$361b2o4b2o86b2o182bo2bo$351b2o7b3o4b2o269b2obo$351b2o8b2o4b2o12b
2o58b2o58b2o5b4o49b2o5b4o66bo$362b2o15b2ob2o55b2ob2o55b2ob2o3bo3bo47b
2ob2o3bo3bo65bobo$363bo15b4o56b4o56b4o8bo47b4o8bo67b2o$380b2o58b2o9bo
48b2o5bo2bo37b3o9b2o5bo2bo66bob2o$451b2o95bo89b3o$450bobo74b2o20bo25bo
64b2o$528b2o45bo36bo22bob2o2bo$358b2o5b2o29b2o5b2o54bo43b2o22bo46b3o
34b2o23b3o2bo$358b2o5b2o29b2o5b2o53b2o42bobo4b2o2b2o19b2o5b2o68bobo23b
ob2o$458bobo41bo7bo2b2o19b2o5b2o$362b2o36b2o100b3o3bobo48bo14b3o$362b
2o36b2o106b2o27b2o19b2o15bo$537b2o19bobo14bo$368b2o35b3o167bo$366b2ob
3o32bo4bo40b2o5b2o116bo$366b2obobo13b2o17b2obo15b2o25b2o5b2o115b3o$
370bob2o11b2o21b3o12b2o61b2o$411bo41b2o31b2o28bo3bo71b2o$374bo7b2o5b2o
29b2o5b2o24b2o60b2o4bo52b3o15bo$382b2o5b2o29b2o5b2o53b2o5b2o19b2o2b2o
5b2o52bo8bo5bobo$482b2o5b2o19b2o3bo4b2o53bo8bobo3b2o$496bo23bo64bobo$
430b2o13bo2bo7b2o5b2o30bo89bo2bo$430b2o10b2obo2b2o6b2o5b2o30b3o87bobo$
378b2o36b2o24b2obo4bo133bobo7bo$378bo37bo9b2o5b2o7b2o16bobo30b2o26b2o
61bo8b3o$379b3o35b3o6b2o5b2o9bo4b2o13b2o28bo27bo$381bo37bo24b2ob2o11bo
5b2o23b3o25b3o$464bob2o23bo27bo73b3o$461bo2b4o$461bo4bo16b2o108bobo$
437b2o23b4o17b2o108bobo$438bo25b2o3bobo$435b3o32b2o8b2o5b2o89b3o12b3o$
435bo34bo9b2o5b2o89bo$579bo31b2o$593b3o15bo30bo$594bo4bo9bobo29b2o$
598bobo8b2o30bobo$476b2o110b2o6b2o3bo$476bo111bobo5b2o3bo12bo$477b3o
108bo7b2o3bo10b3o$479bo118bobo10bo$599bo11b2o6$606b2o3b2o$609bo$606bo
5bo$607b2ob2o$608bobo$609bo$593b2o14bo$593b2o3$590b2o19b2o$590b2o19bo$
612b3o$593b2o19bo$593b2o13b3o$608bo$609bo$672bo$671b2o$671bobo$595b2o$
594bobo$596bo3b2o5b2o$600b2o5b2o2$604b2o$576b2o26b2o$575bobo$575bo6b3o
$574b2o5bo2bo$584bo5bo36b2o$580bo2bo6bo22bo13b2o$581bobo28bob2o$582bob
o26b2obo9b2o5b2o$584bo27bo11b2o5b2o3$582b2o$582b2o$620b2o$620bo$621b3o
$623bo5$702bo$701b2o$701bobo20$740b2o$741bo$741bobo8b2o$742b2o7bobo$
750b3o4b2ob3o$749b3o4bo2b4o$750b3o4b2o$751bobo$732bo19b2o$731b2o$731bo
bo3$764b2o$764b2o3$767b2o$767b2o2$750b3o11b2o$752bo2b3o6b2o$751bo3bo$
756bo18bo$774bobo$773bo3bo$773bo2bo$773bo2bo$773bobo5$757b2o22b2o$757b
obo21bobo$749b2o8bo23bo$749b2o8b2o22b2o$775b2o$775b2o$733bob2o$732bo2b
2o2b3o5b2o23b2o$732bo6b2o6b2o23b2o$732b2o4b2o$734bo8b2o$736b2o5b2o30b
2o$775b2o3$676bo43b2o$674b3o43b2o$673bo$666bo6b2o41b2o5b2o$665bobo48b
2o5b2o$666bo3$678b2o$670b2o6b2o47b2o$670b2o56bo$725b3o$661b2o62bo$661b
2o2$668b2o6b2o$670bo5bobo6b2o$669bo8bo8bo$678b2o6bo5$687b2o$687bo$685b
obo$685b2o2$670b2o$670b2o2$679b2o$612b2o65b2o6b2o$612b2o73b2o3$675bo$
674bobo$675bo6b2o$595b2o85bo$595b2o15b3o68b3o$611bo3bo69bo2$610bo5bo$
610b2o3b2o3$613bo$612bob2o$612bo$612bo3bo$592b2o3b2o14bo2bo$594b3o16b
5o$593bo3bo15b5o$594bobo15b2o3b2o$595bo17b5o$614b3o$615bo3$592b3o2$
592bobo$591b5o$590b2o3b2o15b2o$590b2o3b2o16bo$602b3o5b3o$610bo4$590b2o
8bo$591bo6b3o$588b3o6bo$588bo8b2o6$592b2o3b2o$595bo$592bo5bo4b2o$593b
2ob2o5b2o$594bobo$595bo$595bo4$597bo$596b3o$595bo3bo$594bob3obo$595b5o
11$597b2o$597b2o4$678b2o$678b2o6$663b2o$663bob3o18b2o$663bobo5b2o13b2o
$663bob2o3b2o$663bo6b3o3$656b5o$656bo$657b3o34b2o$657bobo34b2o$657bo3$
659b2o$658b3o$658bobo3$698b2o$698bobo$698bobo$698bobo$677b2o19bobo$
676b2o$678bo$637b2o58b3o$637bob3o54bo3bo$637bobo5b2o48bo4bo$637bob2o3b
2o48bo2b3o$637bo6b3o28bo19bo$632b2o37b6o22bo$632b2o36bob3ob2o21bo$669b
o3b4o3bo18bo$670b3o2bob3obo$674b2ob3ob2o$675b2ob4o$677bo2$640b2o$640b
2o45bo$686bobo$685bo$684bo2bo$677b5o2bo2bo$672b2o3bo6bo2bob3o$672bobo
3b4o3b2o$648b2o22bobo$648b2o22bobo$672bobo3$671b3o$670bo3bo$669bo4bo$
656b2o10bo2b3o$656b2o11bo$673bo$673bo$673bo!

#N Sawtooth 201
#O Adam P. Goucher, 2015
#C https://conwaylife.com/wiki/Sawtooth_201
x = 55, y = 79, rule = B3/S23
49b2o$49b2o2$23b2o5b2o$23b2o5b2o5$43bo5bo$42b3o3b3o$41b2obo3bob2o3$23b
o7bo12bo3bo$22bo2bo3bo2bo11bo3bo$26bobo$26bobo$26bobo$22bo2bo3bo2bo$
23b3o3b3o7$43bo$43bobo$43b2o$30b2o$30b2o2$10b2o$8b2ob2o8bobo$8bo2bo10b
o$8bo2bo$9b2o33b2obo3bob2o$32bo11bo2bo3bo2bo$9b2o20bo13b3o3b3o$8bo2bo
19b3o$2o6bo2bo$2o6b2ob2o$10b2o9bobo$21b2o$22bo2$45b2o$45b2o2$20bo$20bo
bo$20b2o2$25b2o$25b2o$6b4o15b2o$4b2o4b2o13bo$4b2o5bo12bobo$6b2obobo12b
ob2o$11bo$7bo3bo$7bo4bo12b2o$9b3o3bo9b2o$9b2o4bo$15b2o$17bo$17b3o3$20b
o$19bob5o$18b2o5bo$18b2o3bo2bo$26bo$20b2obo2bo$23bo2bo$24b2o$24b2o!
