#N Gosper glider gun
#O Bill Gosper, 1970
#C https://conwaylife.com/wiki/Gosper_glider_gun
x = 36, y = 9, rule = B3/S23
24bo$22bobo$12b2o6b2o12b2o$11bo3bo4b2o12b2o$2o8bo5bo3b2o$2o8bo3bob2o4b
obo$10bo5bo7bo$11bo3bo$12b2o!

#N Simkin glider gun
#O Michael Simkin, 2015
#C https://conwaylife.com/wiki/Simkin_glider_gun
x = 33, y = 14, rule = B3/S23
2o5b2o$2o5b2o2$4b2o$4b2o5$22bo3bo$21bo4b2o$20b2o5b2o2b2o$21b2o4bo3b2o$
22bo!

#N Period-48 glider gun
#O Tanner Jacobi, goldenratio, iNoMed, praosylen, James Pascua, 2022
#C https://conwaylife.com/wiki/Period-48_glider_gun
x = 30, y = 16, rule = B3/S23
28b2o$13b2o13bo$13b2o11bobo$20b2o4b2o$19b2obo$20bob2o$21b2o$3o4bob2o$
4b3obo7b3o$5b2o8bo3bo$3b2ob2o7bo3bo$4bobobo6bob2o7b2o$3b2ob2o18bobo$3b
o6b2o9bo6bo$10b2o10bo5b2o$20b3o!

#N AK-94
#O Mike Playle, 2013
#C https://conwaylife.com/wiki/AK-94
x = 38, y = 25, rule = B3/S23
15bo7b2o$15b3o5b2o$18bo$17b2o16b2o$30b2o2bo2bo$30bobo2b2o$19bo13b2o$5b
o12bob2o12bo$5b3o10bo2bo12bob2o$8bo10b3o4bo4b2obo2bo$7b2o15bo2bo3b2ob
2o$25b2o3$2b2ob2o22b2o$o2bob2o22bo$2obo26b3o$3bo28bo$3b2o$b2o2bobo$o2b
o2b2o$b2o16b2o$19bo10bo$13b2o5b3o8bo$13b2o7bo6b3o!

#N Period-24 glider gun
#O Noam Elkies, 1997
#C https://conwaylife.com/wiki/Period-24_glider_gun
x = 43, y = 32, rule = B3/S23
23bo2bo$21b6o$17b2obo8bo$13b2obobobob8o2bo$11b3ob2o3bobo7b3o$10bo4b3o
2bo3bo3b2o$11b3o3b2ob4obo3bob2o$12bobo3bo5bo4bo2bo4b2obo$10bo8bob2o2b
2o2b2o5bob2obo$10b5ob4obo4b3o7bo4bo$15b2o4bo4bob3o2b2obob2ob2o$12b5ob
3o4b2ob2o3bobobobobo$11bo5b2o4b2obob2o5bo5bo$12b5o6b2obo3bo3bobob2ob2o
$2ob2o9b2o2bo5bobo4bo2b3obobo$bobobobob2o3b3obo6bo2bobo4b3o2bo$o2bo7bo
6b2o3b3o8bobob2o$3o2bo4b2o11bo10bo$5b4obo17b2o4b2o$2b2obo6bo14bo3bo2b
2o$bo4bo3bo16bo6b2o$b3obo4bo16bo3bo2bo$11bo2bo3bo9b2o4bobob2o$b3obo4bo
8b2o3bo10b3o2bo$bo4bo3bo7bo6bo8b3obobo$2b2obo6bo10b3o8bobob2ob2o$5b4ob
o24bo5bo$3o2bo4b2o21bobobobobo$o2bo7bo9b2o10b2obob2ob2o$bobobobob2o10b
o8bo5bo4bo$2ob2o17b3o6bo4bob2obo$24bo4b3o5b2obo!

#N B-52 bomber
#O Noam Elkies, David Bell, 1996
#C https://conwaylife.com/wiki/B-52_bomber
x = 39, y = 21, rule = B3/S23
b2o$b2o17bo$19bobo12bobo$20bo12bo$2o7b2o23bo2bo$2obo5b2o23bobobo$3bo
23bo7bo2bo$3bo23b2o7b2o$o2bo17b2o5bo$b2o18bo$21b3o$36b2o$36b2o$b2o$o2b
o$obobo23b2o5b2o$bo2bo23b2o5b2obo$5bo12bo19bo$2bobo12bobo18bo$18bo16bo
2bo$36b2o!

#N p13-assisted period-52 glider gun
#O Chris Cain, Matthias Merzenich, Entity Valkyrie, Dave Greene, 2018
#C https://conwaylife.com/wiki/P13-assisted_period-52_glider_gun
x = 126, y = 97, rule = B3/S23
64bo$62b3o$61bo$61b2o4$47bo3bo6bo$43bo2b2ob3o4b2ob2o$42bobo3bobo5b2o$
43bo3b3o5b2o24b2o$39bo16b2o15bo7bo9bo$38bobo2bo2b2o25b3o3bobo7b3o$37bo
2b7o29bob3o7bo$38b2o5b2o28bob2o9b2o$40bo34bo2bo$40bobo41bo$41bo41bobo$
38b3o35bo2bo2bo2bo$38bo27b3o8b2o4b2o$66bo$57b2o8bo$44bo11bobo$42b2o6b
2o4bo$43b2o3bo2bo2b2ob4o27b2o$48b2obobobobo2bo27bobo$51bobobobo19bobo
8bo$51bobob2o20b2o31b2o$52bo25bo31bo$108bobo$65b2o2b2o4b2o29b2obo$56b
2o7bo3b2o3bo2bo25b6o$56b2o5bobo3b2o4bobo25b3o$63b2o3b2o6bo32b2o$68b2o
15b2o22bo$31bo35bobo10b2o4bo17bo5b3o$29b2o37bo2b2o7bo5bob2o22bo$30b2o
15bo17b3o3bobo7b3o3bo4bo7b2o$46bo11b3o4bo7bo9bo4bo4bo7bo$46b3o9bo14b2o
12b3o3bo8b3o$53b2o4bo26b2o4bo10bo$54bo32bo23b2o$9bo41b3o30b3o21b2o2bo$
9b3o39bo32bo7bo15bob2o$12bo78bobo16bo$11b2o65b2o10bo2bo16bo$78bo12b2o
2b3o13b2o$80bo14bo12b3o2bo$3b2o13bo41b2o14b5o15bo10bo3bo2bo$3bo12b2o
43bo13bo11b2o18bob2ob2o$2obo13b2o15bo22bo3bobo12b3o7bobo19bobo$o2b3o4b
2o21bo21b3o4b2o3b2o10bo6bo22b3o4bo$b2o3bo3b2o21b3o10bob2o4bo11bob2o6b
4o5b2o24b2o2bobo$3b4o39b2o2bobo2b5o6bo3bo5bo3b2o7bo22bobo2bo$3bo15b2o
18b2o8b2ob3o2bo2bo6b3o7b3o2bo6b3o20bo$4b3o12bobo18bo5b3o6b2o2b2o7bo10b
ob2o4b2o3bo19bo4bo$7bo13bo18bobo2bo3bobobo25bo6bo3b2obo18bo4b3o$2b5o
14b2o15b2obobo2b2obo3bo24b2o5bo2b2obobo20b3o$2bo34bobobob2obo2bobob2o
31b2obobob2o22bo$4bo32bo3bo4bobo2bob2o32bo3bo4bo11b3o6bo$3b2o12bo16b2o
bo3bob4obob3o17b2o15bo3bob4o11bo8b2o$18b2o14bo2bob2obo4bobo20bo14bobob
o2bo16bo$17b2o16b2obobo3b2obo23b3o11b2obob3ob2obo$38bo4b2ob2o8b3o14bo
14bobo2b2ob2o$38b2o18bo29b2o28bo$27b2o28bo6bo42bo9bobo$27b2o35b3o38b3o
9bo2bo$28b3o36bo36bo13b2o$22bo5bo37b2o36b2o$22bo6bo2b2o44b3o30bo$30bo
9bobo37bo9b3o18b2o9b2o$29b2o8bo2bo36b2o9bo4bo14bobo9bobo$28b3o9bo2bob
2o44bo3b2o27bo$17bo2bob2o19bo2bo49b2o26b2o$17b4obo21b2o16bo30bo2bo$22b
obo19b2o17b2o11bo17b2o$19b2o2b2o39b2o10b2o29b3o2b2o$19bo34bo11bo8bo2bo
31b4o$20bo20b2o11b2o5b5o10bob2o11b2o14bo2bo$19b2o21bo21bo11b3o13bo15b
2o$39b3o35bo11b3o8b2o$39bo49bo11bo$63b2o33b3o$63bo4b2ob2o25bo$60b2obob
2o2b2obo$59bo2bob2obo4bobo$59b2obo3bob4obobo2bo$62bo3bo4bobob2obo$62bo
bobob2obo2bobobo9bo$63b2obobo2b2obobobo10b2o$65bobo2bo3b5obo7b2o$65bo
5b3o6bo3b2o$64b2o8b2ob3o2bo2bo$71b2o2bobo2b5o$71bob2o4bo$80b3o$82bo!

#N Period-156 glider gun
#O Jason Summers, 2004
#C https://conwaylife.com/wiki/Period-156_glider_gun
x = 42, y = 42, rule = B3/S23
20b2o$20b2o$6b2o$5b2o$7bo$3bo$2b2o18b2o$2bobo17bo$22bo$23bo9$32bo2bo$
33b3o$2o38b2o$2o38b2o$6b3o$6bo2bo9$18bo$19bo$19bo17bobo$18b2o18b2o$38b
o$34bo$35b2o$34b2o$20b2o$20b2o!

#N New gun
#O Bill Gosper, 1971
#C https://conwaylife.com/wiki/New_gun_1
x = 36, y = 34, rule = B3/S23
25b2o5b2o$25b2o5b2o8$26bo5bo$25b3o3b3o$24b2obo3bob2o3$27bo3bo$27bo3bo
7$33bo$10b2o22b2o$2o7bobo21b2o$2o7bo$9b3o4$9b3o$2o7bo17b2o$2o7bobo15b
2o$10b2o!

#N Period-20 glider gun
#O Matthias Merzenich, Noam Elkies, 2013
#C https://conwaylife.com/wiki/Period-20_glider_gun
x = 68, y = 34, rule = B3/S23
2ob2o22b2o$o3bo4b4obo8b2obo2bo5b2o6b2o$b2obob2o4bo7b3obobob2o5bobob2o
3bo$2b3ob2obobobob2o2bo4bobobo8bobo2bo$o11b3ob2o6b2o4bo2b5obob3o$11o6b
obo9b5o4b3o$11b2ob2obob2o4bo10b2o3b3o5b2ob2o$2b2o2b4obo3bo2bob4obo2b4o
4bo2bo3bo5b2ob2o3bobo4b2o$2b2o2bo2bo2b2obo3bo6b2o4bo3bobob3o13bob4o2bo
$10bobo2bobobo2b6ob3o4bo3bo6b10o5bobo$2b2o4bobo3b2ob2o3bo5b2o4b2o3bo7b
o3bo6b5o2b2o$3bo2b4obo11b5o6b2obo11bo3bob2obo4bobo$3bobo5b10o4b2o2bo5b
o2bo9b2o2bo3b3o3bobo2bo$b2o2b2o2b2o9bo4b3obo6b3o8bo2b2o3bo3bo2bobob2o$
2bobo2bobobo2b2o2bo10b2o3b3o10bo2b2o8bo3bo$o2bob3obobobo4b2o14bo9bo2bo
2bo3bo8b2o$2obo4bo5bo4bo18bo4bo3b2o2b2o2bo2bobo2bo$3bo10bo3bo18bo8bobo
4b3o2b2obobobo$3b2o10bob2o2b2o13bo2bo3bo3b2ob3o8bo2b2o$4bo2bobo2bo2b2o
bo4bo13bo8bobo4b3o2b2obo$2bobobob2o2b3o2bobo3bo6bo7bo4bo3b2o2b2o2bo2bo
bo$2b2o2bo8bo3bo3bo4b2ob2o2bo8bo2bo2bo3bo8b2o$6bob2o2b3o2bobo3bo6bo5bo
10bo2b2o8bo3bo$7bobo2bo2b2obo4bo10b3o10bo2b2o3bo3bo2bobob2o$3b2o10bob
2o2b2o25b2o2bo3b3o3bobo2bo$3bo10bo3bo30bo3bob2obo4bobo$2obo4bo5bo4bo
20bo6bo3bo6b5o2b2o$o2bob3obobobo4b2o8b4o9bo5b10o5bobo$2bobo2bobobo2b2o
2bo8b6o6b3o14bob4o2bo$b2o2b2o2b2o9bo6bo4bo16b2ob2o3bobo4b2o$3bobo5b10o
7bo2bo17b2ob2o$3bo2b4obo14bobo2bobo11bo$2b2o4bobo3b2ob2o7b2o4b2o12bo$
14b2ob2o25b3o!

#N Bi-gun
#O Bill Gosper
#C https://conwaylife.com/wiki/Bi-gun
x = 50, y = 15, rule = B3/S23
11bo$10b2o$9b2o$10b2o2b2o$38bo$38b2o8b2o$39b2o7b2o$10b2o2b2o18b2o2b2o$
2o7b2o$2o8b2o$11bo$34b2o2b2o$39b2o$38b2o$38bo!

#N Period-184 glider gun
#O David Buckingham, 1996
#C https://conwaylife.com/wiki/Period-184_glider_gun
x = 30, y = 30, rule = B3/S23
19bo$17b3o$16bo$16b2o$28bo$26b2o$28b2o$27bo5$20b2o$19bobo$19bo$19b2obo
$2b2o17b2o$bobo$bo$2o7$5bo$5bobo$4bobo$6bo!

#N Period-43 glider gun
#O Nico Brown, 2022
#C https://conwaylife.com/wiki/Period-43_glider_gun
x = 32, y = 25, rule = B3/S23
10b2o$10bobob2o$12bobobo7bo$11bo2bo2bo5bobo$11b2o2b2o7bo3$2o$bo$bobo3b
3o12b3o$2b2o2bo3bo10bo3bo$5bo5bo8bo5bo$5bo5bo8bo5bo$5bo5bo8bo5bo$6bo3b
o10bo3bo2b2o$7b3o12b3o3bobo$30bo$30b2o3$7bo7b2o2b2o$6bobo5bo2bo2bo$7bo
7bobobo$16b2obobo$20b2o!

#N New gun 2
#O Bill Gosper, David Bell, 1994
#C https://conwaylife.com/wiki/New_gun_2
x = 51, y = 24, rule = B3/S23
23b2o24b2o$23b2o24b2o$41b2o$40bo2bo$41b2o2$36b3o$36bobo$9b2o25b3o$9b2o
25b2o$8bo2bo23b3o$8bo2bob2o20bobo$8bo4b2o20b3o$10b2ob2o$31b2o$21b2o7bo
2bo$21b2o8b2o$49b2o$49b2o2$4b2o18bo$2o4b4o10b2o2b2ob3o$2o2b2ob3o10b2o
4b4o$4bo19b2o!

#N Twogun
#O Bill Gosper, 1970
#C https://conwaylife.com/wiki/Period-60_glider_gun
x = 39, y = 27, rule = B3/S23
27bo$27b4o$11bo16b4o$10bobo5b2o8bo2bo5b2o$3b2o3b2o3bo14b4o5b2o$3b2o3b
2o3bo4bobob2o3b4o$8b2o3bo5b2o3bo2bo$10bobo10bo$11bo8bo2bo2$26bobo$28bo
$24bo$26bo$25bo2$11b2o$11b2o4bo$2o6b2o6b5ob2o$2o5b3o5bo2b2o4bo$8b2o5b
2o8bo12bo$11b2o4bo7bo10bobo$11b2o12bo11b2o$24bo8b2o$22b2o9bobo$35bo$
35b2o!

#N Gunstar
#O David Buckingham, 1990
#C https://conwaylife.com/wiki/Gunstar
x = 265, y = 265, rule = B3/S23
65bo$64b2o$64bobo34$101bo$100b2o$100bobo20$98b2o$98b2o$98b2o$98bo$97bo
bo$97bob2o$262b2o$104b2o157b2o$98b2o4b2o156bo$98b2o2$118bo26b2o$108b2o
8b3o24bo$108bobo10bo21bobo$108bo11b2o15bo5b2o4b2o$136b2o11b2o$109b2o
25bobo$105bo3bo2bo37bo$104bo2bob3o37bobo$104b3obo39bo2bo$98b2o5bob3o
37bo2bo$98b2o11bo$98b2o22b2o23bo2bo$99bo22b2o25b2o$98bobo$97b2obo12b3o
$113bo$114bo$98b2o$98b2o57b3o2$131b2o20b3obo2bo$132bo7b2o9bob3o$129b3o
8b2o8bo6b3o$129bo20b2o2$153b2o$145b2o9b2o$145b2o7bobo$101b2o52bo25bo
19b2o$101b2o74b2o2b2ob3o10b2o4b4o$160b2o15b2o4b4o10b2o2b2ob3o$142b2o
15b3o19b2o18bo24b2o$101b3o34b2o2b2o2b2o10bobo2bo2b2o59b2o$102b2o34bobo
2bo2b2o10b2o2b2o2b2o58bo$99b2o38b3o20b2o$89bo9b3o38b2o45b2o9b2o$87bo3b
o8bobo83b2obo8b2o$87bo3bo9b2o84bo$87bobobo3bo90bobo$95b2o89b2o4b3o$89b
2o6bo88bob3o3bo$89b2o3bobo91bobo2bo$89b2o3bo90bo2bo$189bo$76b2o12bobo
26bo60b2o$72b2obo2bob2o9b2o26bobo57bobo$72b2o2bo4bo37b2o60bo$77bo$78bo
bo20b2o$69bo25b2o4b2o91b2o$69b3o23b2o52b3o42bo$72bo76bo42bobo$71b2o27b
3o47bo41b2o$100b2o81b2o$90b2o11b2o78b2o$90b2o10b3o$101bobo$74bo26b2o$
72b2o$73b2o$172b2o$173bo$173bobo$89b2o83b2o$89bobo$91bo$91b2o$190b2o$
191b2o$162b2o26bo$161bobo$160b3o10b2o$80b2o78b2o11b2o$80b2o81b2o$71b2o
41bo47b3o27b2o$70bobo42bo76bo$70bo42b3o52b2o23b3o$69b2o91b2o4b2o25bo$
162b2o20bobo$187bo$83bo60b2o37bo4bo2b2o$83bobo57bobo26b2o9b2obo2bob2o$
83b2o60bo26bobo12b2o$75bo$76bo2bo90bo3b2o$71bo2bobo91bobo3b2o$70bo3b3o
bo88bo6b2o$70b3o4b2o89b2o$76bobo90bo3bobobo$77bo84b2o9bo3bo$65b2o8bob
2o83bobo8bo3bo$65b2o9b2o45b2o38b3o9bo$101b2o20b3o38b2o$38bo58b2o2b2o2b
2o10b2o2bo2bobo34b2o$36b2o59b2o2bo2bobo10b2o2b2o2b2o34b3o$37b2o24bo18b
2o19b3o15b2o$58b3ob2o2b2o10b4o4b2o15b2o$58b4o4b2o10b3ob2o2b2o74b2o$62b
2o19bo25bo52b2o$108bobo7b2o$107b2o9b2o$110b2o2$113b2o20bo$105b3o6bo8b
2o8b3o$109b3obo9b2o7bo$104bo2bob3o20b2o2$105b3o57b2o$165b2o$150bo$151b
o$149b3o12bob2o$164bobo$114b2o25b2o22bo$114bo2bo23b2o22b2o$153bo11b2o$
114bo2bo37b3obo5b2o$113bo2bo39bob3o$113bobo37b3obo2bo$114bo37bo2bo3bo$
126bobo25b2o$114b2o11b2o$114b2o4b2o5bo15b2o11bo$119bobo21bo10bobo$119b
o24b3o8b2o$118b2o26bo2$165b2o$2bo156b2o4b2o$2o157b2o$b2o$164b2obo$165b
obo$166bo$165b2o$165b2o$165b2o20$162bobo$163b2o$163bo34$198bobo$199b2o
$199bo!

#N Period-246 glider gun
#O David Buckingham, 1996
#C https://conwaylife.com/wiki/Period-246_glider_gun
x = 43, y = 38, rule = B3/S23
34bo$34b3o$32b2o3bo$31bobob2obo$32bobobobo$36bob2o$33bo2bo$34bobo$33b
2ob2o2$2o$bo20b2o$bobo16b2o3bo$2b2o21bo15b2o$19bo5bo15bo$20bo3bo14bobo
$21b3o15b2o7$29b2o$29b2o$22b2o$21bo$22b2o3$5b4o$4bo4bo$3bobo3bo$2bobo
3bo$2bo$2bo$2bo2bo$3b2o!

#N Period-22 glider gun
#O David Eppstein, 2000
#C https://conwaylife.com/wiki/Period-22_glider_gun
x = 45, y = 21, rule = B3/S23
18b2o$19bo7bo$19bobo14b2o$20b2o12b2o2bo$24b3o7b2ob2o$24b2ob2o7b3o$24bo
2b2o12b2o$25b2o14bobo$35bo7bo$43b2o2$2o23bo$bo21bobo$bobo13b3o4b2o$2b
2o3bo8bo3bo$6bob2o6bo4bo$5bo4bo6b2obo9bo$6bo3bo8bo3b2o6bo$7b3o13bobo3b
3o$25bo$25b2o!

#N Smallest period-36 glider gun
#O David Raucci, iNoMed, 2022
#C https://conwaylife.com/wiki/Period-36_glider_gun
x = 49, y = 30, rule = B3/S23
34b2o$35bo5bo$27bo2bo2bo5b3o$27b4o2b2o3bo$3bo21b2o4b2o3bo2bo$bobo20bo
2b4o2b3o3bo$2bobo17bo2bobo3b3o3b2o9bo$2bo18bo4bo3bo3bo11b3o$21bo8bobob
o10bo$12b3o8b3o5b3o11b2o$12bo19bo$12bobo$b2o10b2o$obo19b2o$o21bobo20b
3o$24bo17bo$b3o7b3o8b3o16bobo$4b2o3bo34bo$4b2o3bo4bo27b2o$b4o5bo$o5bo
5b2o$ob3o2bo5bo$b2o5bo4bo14b6o$5bob2o4bo12b2o6b2o$7b2o16bobobo2bobobo$
7b3o13b3obo6bob3o$22bo3b2ob4ob2o3bo$23b2o3bo4bo3b2o$25b2o2bo2bo2b2o$
25bob2o4b2obo!

#N Period-45 glider gun
#O Matthias Merzenich, 2010
#C https://conwaylife.com/wiki/Period-45_glider_gun
x = 48, y = 40, rule = B3/S23
15bo2bo2bo$15b7o2$15b7o$15bo2bo2bo6$16bo2bo$12b2o2bo2bo$12b2o2bo2bo7b
2o$27b2o4b2o3bo2bo3b2o$33b5o4b5o$33b2o3bo2bo3b2o$27b3o2$2ob2o$bobo23b
3o$bobo6b3o$2ob2o29bobo$bobo31b2o$bobo6b3o22bo$2ob2o2$11b2o$11b2o7bo2b
o2b2o$20bo2bo2b2o$20bo2bo3$47bo$45bobo$46b2o$18bo2bo2bo$18b7o2$18b7o$
18bo2bo2bo!

#N p4-assisted period-28 glider gun
#O James Pascua, iNoMed, 2022
#C https://conwaylife.com/wiki/P4-assisted_period-28_glider_gun
x = 34, y = 23, rule = B3/S23
6b2o8b2o$4bo2bo8b2o9bo$4b2obob2o15bobo$5bobo2bo11bob3obo$2b3o2bo14b2o
4b2o$bo23b2o3bo$bob2obobo13b2obob4o$2obo4b2o12bo2bobo$bobo5bo15bo2bo$b
ob2obo2bo19bo$2obo5bo6b3o5bobob2o$3bo4b2o4b2ob2o4b2o8bo$3b2obobo5b3o6b
o7b3o$23bo6bo$b4o2bo15bo5bo2b2o$bo3bobo2bo12b2o2bo2b2obo$4b2obob2o10b
3ob2o4bo$4bo2bo23bo$6b2o19b3ob2o$12b2o12bo2bo$13bo12b2obob2o$10b3o16bo
2bo$10bo18b2o!

#N p46 gliderless LWSS gun
#O Nathaniel Johnston, 2018
#C https://conwaylife.com/wiki/P46_gliderless_LWSS_gun
x = 40, y = 42, rule = B3/S23
23b2o$23bo$17b2ob2obo$15bo2bobobo$15b2o4bo13bo$33b3o$32bo$32b2o2$12b2o
$11bobo5b2ob2o7b2o$10bo7b2o3b2o6b2o$9bo9b2ob2o$9b2o9b3o$21bo$3b2o$4bo$
2bo$2b2o2$2b2o7bobo2bobo11bo2bo$2bobo6bo2bo3bo15bo$3bo5b2o3bobobo11bo
3bo$3o7b3obo16b4o$o6b2o5b2o$7b2o4b2o$7b2o3bo$7b2obobo$7b2obobo2$24b3o
8b2o$10b2o12bobo8b2o$6b2o2b2o5b2o5bobo$5bobo8bobo$5bo10bo19b2o$4b2o9b
2o19bo$37b3o$19b2o4bo13bo$19bo2bobobo$21b2ob2obo$27bo$27b2o!

#N P94S
#O Dean Hickerson, 1990
#C https://conwaylife.com/wiki/P94S
x = 607, y = 155, rule = B3/S23
368bo49bo104bo$368b3o47b3o102b3o$371bo49bo104bo$370b2o48b2o103b2o$421b
3o$422b2o$422bobo10$465b2o7bo$465b2o5b3o14bo7b2o$66bo65bo7b2o329bo8bo
8b3o5b2o$66b2o40b2o7bo14b3o5b2o303bo7b2o16b2o5b3o2bo8bo49b2o$65bobo40b
2o5b3o8bo8bo309b3o5b2o22bo5b3o5b2o16b2o7bo23bobo$114bo8bo2b3o5b2o16b2o
7bo258b2o7bo18bo17bo10b2o7bo22b2o5b3o23bo$88bo7b2o16b2o5b3o5bo22b2o5b
3o169b2o7bo79b2o5b3o17b2o16b2o18b2o6b3o19bo$54b2o32b3o5b2o22bo7bo11b3o
15bo18bo7b2o144b2o5b3o14bo7b2o34bo7b2o17bo8bo28bob6obo18bo3bo18b2o$54b
obo34bo28b2o6bo2bo7bo3bo14b2o17b3o5b2o79bo7b2o61bo8bo8b3o5b2o34b3o5b2o
17b2o5b3o17bo9b3o2bob2o2b2o15bo5bo50b2o5bo7b2o$54bo35b2o40bo6b2ob2o27b
o8bo17b2o7bo34b2o7bo14b3o5b2o35bo7b2o16b2o5b3o2bo8bo43bo29bo20b2o9bo4b
o4bo16bo5bo14b3o34b2o4b3o5b2o$42b2o7bo55b3o7bo12bo8bo4bo6b3o17b3o5b2o
17b2o5b3o5b2o27b2o5b3o8bo8bo41b3o5b2o22bo5b3o5b2o16b2o7bo16b2o16b3o11b
o12bob6obo9b2o5b2o17bo5bo13bo3bo14b2o7bo8bo9bo$42b2o5b3o54bo2bo7b2o21b
2ob2o5bo3bo7b2o10bo29bo7bobo33bo8bo2b3o5b2o16b2o7bo6b2o10bo28b2o7bo22b
2o5b3o10b2o21bo3bo7bo2bo10b2o2b2obo2b3o10bo3bo20bo3bo13bo5bo13b2o5b3o
17b2o$48bo18bo7b2o29b3o7bobo25bo5b2ob2o6bobo9b2o29b2o8bo7bo7b2o16b2o5b
3o5bo22b2o5b3o7bob3o5b2o36b2o9bo18bo8bo3b2o10bo11b2ob2o6bo15bo4bo4bo
11bobobo21b3o14bo5bo19bo$48b2o17b3o5b2o11bo7b3o13b2o25b2ob2o5bo4bo8bo
58b3o5b2o22bo7b2o14bo13bo9bob2o55bo3bo15b2o5b3o5bo8bo3bo7bo4bo8bo14b2o
5b2o13b3o39bo5bo19b2o$70bo16b2o7bo2bo12bo26b3o7b2ob2o32bobo27bo8bo28b
2o21bobo12b2o12bo21bo36bo21bo21bo7b2ob2o26bo3bo16bo41bo3bo$69b2o16bobo
7b3o11bob2o21bob2o9bo33b2o4bo4b3o19b3o5b2o12b3o36bob2o45b2ob2o35bo10bo
9b2o21bo6bo30bobobo59b3o$92b2o17bob2o19b2ob2o11b2ob2o27bo6bo29bo55bob
2o49bo31b4obo8bo3bo25b4obo8b2ob2o26b3o$48bo44bo18b2o23b2o13b3o28b2obo
2bo2bo5bo19b2o17bo4bo31b2o47bo15bo25b3o6bo34b3o8b3o27bo107bo$46b4o41b
2obo59b2obo21b3o6bo3bo5bo34b3obo4bo78b2ob2o14bo17bo14bo28bo19b2obo131b
2o$46b2o2bo40b2obo60b2ob2o18bo3bo9bo5bo8bo34bo8bo71bo16b2o15bobo14bob
4o21bobo19b2ob2o35b2o91bo2bo$45bo3bo42b2o61b2o20bo5bo22b2o23bo18b2o34b
2o24bo23b2o3bo14bo3bo11b3o25bo3bo18b2o39bo34b2o54b3o$46b3o21bo71b2o33b
o16b3o8bo2bo22bo4bob3o8bo2bo9b2o19b2obo24bo27b2o15bo3bo20bo18bo3bo56b
3o5b2o28bo56bo2bo$46b3o20b2o35b2o34bo34bob2o3bo22bo14bo8bo4bo14bo10b2o
17b2obo25b2o24b5o15bo4bo18bobo17bo4bo55bo8bo22b2o5b3o33b3o12b3o3b2o$
55b2o11bo2bo35bo28b2o5b3o34bo28b2o11b2o29b2o7bobo3b2o12bobo25bo3b2o41b
o2bo18bo3bo17bo2bo62b3o5b2o16bo8bo32bo3bo11bobo8bo$53bo13b3o34b3o5b2o
22bo8bo35bobo20bo5bo10bo2bo8b3o12bo5bo12b2obo12bo14b2o11b2o46b2o18bo3b
o19b2o13b2o29b2o16bo7b2o10b2o5b3o37bo5bo10bo2bo8b2o$50bo2bo2bo11bo2bo
32bo8bo16b2o5b3o64bo4bo12bo25bo4bo14bobo27b2o11b5o13b2o47bo4bo35bo29bo
37b2o7bo16b2o18bo3bo3bo10bobo7b2o$49b3o3bo7b3o3b2o39b3o5b2o10b2o7bo16b
2o29b2o15bob3o10b2o27bob3o16bo22b2o3bobo30bo34b2o12bo2bo26b2o5b3o5b2o
17b2o5b3o61bo18bo2bobo2bo10b3o$48bob5o8bobo8bo17b2o16bo7b2o37bo29bo17b
2o12bo5bo23b2o25b2o13bob2o32b3o5b2o28bo13b2o28bo6bo8bo17b2o7bo58b3o5b
2o12bo3bo3bo23b2o$52b2o9bo2bo8b2o15bo61b3o5b2o17b2o5b3o5b2o22bo4bo14b
2o34bo14bobo33bo8bo22b2o5b3o34b2o5b3o9b3o5b2o31bo37bobo7bo7b2o13bo5bo
24bo$40b2o9bo12bobo7b2o10b2o5b3o58bo7b2o17bo8bo6bo23b3obo15bo28b2o5b3o
12bo40b3o5b2o16bo8bo34bo8bo9bo7b2o29bobo37b2o36bo19b2o5b3o$41bo9bo12b
3o19b2o7bo79b2o5b3o9b3o5b2o19b2o13b3o5b2o22bo8bo35b2o16bo7b2o10b2o5b3o
34b2o5b3o55b2o38bo31bo3bo20bo8bo$20b2o16b3o5b2o127b2o7bo9bo8bo34bo8bo
16b2o5b3o41bo37b2o7bo16b2o16b2o7bo127bo18b2o5b3o$21b2o15bo8bo59bo92b3o
5b2o34b3o5b2o10b2o7bo16b2o17b2o5b3o61bo154bo17b2o7bo24b3o$20bo23b3o5b
2o17b2o35bo31bobo57bo7b2o16b2o16bo7b2o37bo17b2o7bo58b3o5b2o145b3o5b2o
45bo$44bo7b2o17bo34b3o31b2o84bo61b3o5b2o79bo7b2o145bo7b2o46bo$65b2o5b
3o66bo78b2o5b3o58bo7b2o$65b2o7bo145b2o7bo4$334bo26bo$335b2o24bobo$334b
2o25b2o2$539bo$246bobo19bo268bo3bo$247b2o19bobo220b5o14bo31bo42b5o$60b
3o184bo20b2o220bo4bo14bobo24bo4bo41bo4bo$12b2o45b5o42b2o387bo14b2o26b
5o46bo$11b2ob3o41b2ob3o41b2ob3o379bo3bo89bo3bo$12b5o42b2o45b5o381bo93b
o$13b3o81bobo7b3o260b3o91b3o91b3o41b2o$89bo8b2o83bo185b5o45b2o42b5o45b
2o42b5o39bo2bo$3b2o82bo3bo6bo82bo3bo183b3ob2o41b3ob2o41b3ob2o41b3ob2o
41b3ob2o39b2o$2bo2bo33b5o42bo46b5o42bo46b5o140b2o42b5o45b2o42b5o45b2o$
3b2o34bo4bo41bo4bo41bo4bo41bo4bo41bo4bo184b3o91b3o$39bo46b5o42bo46b5o
42bo375b2o$40bo3bo89bo3bo89bo3bo370bo$2b2o38bo93bo93bo373b3o$3bo602bo$
3o$o2$445b2o7bo$144bo126b2o172b2o5b3o$143b2o7bo7b2o109bobo57b2o118bo7b
2o9bo7b2o$143bobo6b3o5b2o109bo60b2o117b2o5bobo9b3o4bo2bo$127b2o7bo18bo
175bo128bo3bo8bo6bo$127b2o5b3o17b2o308b3o5b2o3bo$133bo8bo324bo9bo3bo5b
o$133b2o5b3o21bo277bo23b2o8bo9bo$139bo24bo144b2o7bo122bobo31bo2bobo5b
3o$139b2o23bo144b2o5b3o121bo3bo30bo2bobo$288bo7b2o17bo18bo7b2o97bobo
31bobo2bobo$122b2o36b3o3b3o119b3o5b2o17b2o17b3o5b2o98bo11bo25bo2bo$
124bo138b2o7bo18bo36bo8bo115bobo25b2o$121bobo40bo98b2o5b3o17b2o36b3o5b
2o118bo24b2o$122bobo39bo104bo8bo52bo123b2o$136bo11b2o14bo8bo95b2o5b3o
51b2o120b2obo17b2o$135bobo9bo6bo17b2o101bo40bo113b2o19bo2bo17b2obo$
138bo14b3o16bobo100b2o15bo22b2o21bo90bobo19bobo19bo2bo$137b2o13bo3bo
111bo22bo2bo19bo22bo2bo8bo81bo20bo21b2o$134b2obo15b2obo110bobo21bo2b2o
18b2o21bo2b2o6bobo$133bo2bo17b2o106b2o3bobo26bo23b3o19bo4bo$133bobo
131b2o22b2o3bo22b4o14b2o3bo5b2o99b2o$134bo126b2o26bo5bo22b2obo2bo10bo
5bo108bo$156b2o104bo31bo23b2o2bobo15bo106b3o5b2o17b2o$156bo119b3o3bobo
3bo4bo15bo7bo2b2o6bobo3bo4bo107bo7b2o17bo$131b2o17b2o5b3o122bo2bo2bo
19bo8bobobobo4bo2bo2bo133b2o5b3o$132bo17b2o7bo114bo5b2o2bo23b3o6bo5bo
4bobo137b2o7bo$129b3o5b2o135bo5bo38b3o$129bo7b2o135bo5bo38b3o$299bo13b
2o30bo$276b3o21b2o12bo31b2o$292b2o5b2o10b3o5b2o17b2o5b2o145bo$292bo18b
o7b2o17bo90bobo58bobo$267b2o17b2o5b3o36b2o5b3o87b2o60b2o$257bo10bo17b
2o7bo36b2o7bo31bo7b2o47bo$257bobo5b3o5b2o98b3o5b2o$179bo44b2o7bo6b2o
15b2o6bo7b2o101bo$180bo43b2o5b3o7b2o124b3o5b2o16b2o7bo$178b3o49bo9bo
126bo25b2o5b3o$196b2o6bo7b2o16b2o136bo30bo$195b2o7b3o5b2o185b2o5b3o$
197bo9bo13bo186bo$206b2o12bobo162bo21bo$219b2obo160b2ob2o$221b2obo160b
o$224b2o148bo15bo$373bo14b2ob2o$365b2o5b2o16bo$212b2o71bo79b2o5bo3b2o
23bo$213bob2o19b2o47bobo76b3o6b2o27bo$215bob2o17b2o47b2o86b5o24b2o$
215bobo12b2o3bobo160b2o3bo4b4o$200b2o14bo12bob2o168b2o5b3obo$200b2o27b
obo151b2o13b5o6b2o$200bobo3b2o22bo152bo$205b2obo13b2o153b2o5b3o$206bob
o14bo153bo8bo$207bo12b3o5b2o141b2o5b3o$220bo8bo141b2o7bo16b2o$226b3o5b
2o162bo$208b2o16bo7b2o37b2o120b3o5b2o$208bo63bobo120bo7b2o$202b2o5b3o
60bo$202b2o7bo59b2o5$379bo$377b2o$378b2o3$231bo$229bobo$230b2o!

#N Period-113 glider gun
#O Mitchell Riley, 2022
#C https://conwaylife.com/wiki/Period-113_glider_gun
x = 47, y = 37, rule = B3/S23
44b2o$44bo$42bobo$42b2o7$29b2o14b2o$11b2o4b2o10b2o14b2o$11b2o4b2o4$26b
3o$17b3o6bo2bo$17bo2bo5bo2bo$17bo2bo6b3o$18b3o4$28b2o4b2o$2o14b2o10b2o
4b2o$2o14b2o7$3b2o$2bobo$2bo$b2o!

#N Period-40 glider gun
#O Adam P. Goucher, Matthias Merzenich, Jason Summers, 2013
#C https://conwaylife.com/wiki/Period-40_glider_gun
x = 226, y = 220, rule = B3/S23
108b2o18b3o$127bo$107bo3bo15bo3bo$106bo4bo15bo2bobo8bo$105bobobo19bobo
2bo4b3o$104bobobo21bo3bo3bo$102bo4bo26bo3b2o$102bo3bo24b3o$136bo$104b
2o5bo23bobo$110bob2o22b2o2b2o$114bo21b2o2b2o$110bo2bobo20b2o$112bo2bo
20bobo$113b2o21bo$106bo10b2o$105b3o9b2o3$118b2o$116bob2o$116bo$116bo9b
obo17b2o$116bo2bo6b2o18bobo$117b2o8bo18bo$106b2o5b2o$107b2o3b2o$104bo
2bobobobo2bo$104bo11bo$104bo2bobobobo2bo$107b2o3b2o$106b2o5b2o$102b2o
17bo34b2o$101bo2bo17b2o32bobo$104bo16b2o33bo$104bo$101b2obo$101b2o3$
102b2o9b3o$102b2o10bo$106b2o23bo34b2o$105bo2bo23b2o21b2o9bobo$105bobo
2bo20b2o19bo13bo$106bo44bobo2b2o$107b2obo38bobob3o2bo$109bo5b2o32bo2b
6o$152b2ob2o$114bo3bo32b6o2bo$113bo4bo31bo2b3obobo$112bobobo11bo22b2o
2bobo$111bobobo12b3o12b3o10bo19b2o$109bo4bo16bo9bob2obo5b2o22bobo$109b
o3bo10bo5b2o13bo30bo$123b3o$111b2o9b3obo$123bo3bo$124bo3bo8bo$125bob3o
6b3o$120b2o4b3o6bo3bo$121bo5bo8bobo$54b2o65bobo30b2o30b2o$54b2obo64b2o
24bo5bobo29bobo$58bo8bo86bo31bo$55bo9b3o78bob3o$56bob2o4bo53bo8b2o19b
2obo$58b2o4b2o61bobo18bob2o$116bob3o6bo14bo6b3obo$62bo55b2obo18bobo$
61bobo54bob2o19b2o8bo30bo31bo$62b2o2b2o51b3obo$66b2o46b2o48b2o14b3obo
11b2o14b3obo$88b2o25bo5bo24b2o16bobo12bob2o13bobo12bob2o$63b2o23bo26bo
bo28bobo15bo14b2obo13bo14b2obo$63bobo19b2obobo25b2o13bobo8bo5bo5b3o20b
ob3o5b2o20bob3o$63bo21bo2bo3bo37bo3bo6b3o4b2o3bo33b2obo$86b2o4bo38b3o
6b3obo8bo3bo21bo11bo19bo$88b3o21bo19bo8bo3bo7bo2bobo16bo12bo18bo$88bob
ob3o16b3o28bo3bo8bobo2bo13bobo12bob2o13bobo$89bobo3bo14b3obo28bob3o8bo
3bo13b2o15b2o13b2o$86b3o3b3obo14bo3bo28b3o13bo17b2o16bo13b2o$53bobo30b
o2b2o4bobo14bo3bo8bo19bo11b3o7b2o9bobo18b2o9bobo$53b2o34bo4bo2bo15bob
3o6b3o35bo5b2o3b2o5bo13b2o4b2o3b2o5bo$54bo18b2o15b3obobo11b2o4b3o6bo3b
o33bobo3bo5b2o5b2o12b2o3b2o4b2o5b2o$73bobo11b3o2b2o2b2o11bo5bo8bobo14b
o20b2o27b2o5b3o$73bo12bo3b2o2bobo2bo9bobo27bobo16b2o30bobo4b3o$87bo2bo
bobo3b2o10b2o28b2o15bobo30bo5bobo$88bobo2bo63bo5b2o24b2o5b2o$87b2obob
2o40b2o20b2o5b2o58b3o$91bo3bo2b2o6bo8b2o14bo2b3o56bo29b3o$93bo3b3o15bo
bo13b5o2bo54b2o28b3o$43bobo50b2obo4bob3o6bo16bo2b2o36b3o16b2obo11b3o
10b3o$43b2o48b4obo7b2obo18b4o3bo2b3o32bo17bo2b3o10bo12b3o$44bo5b2o31b
2o7bo4bo2bo5bob2o19bo6b3o2bo32bo15bobobo13bo11b3o$50b2obo29bobo7b2o2bo
b3o5b3obo21bo2bo2bo2bo8bo37bobobo$54bo8bo19bo11bobobobo31bo3b3o3bo5bob
o35b3o2bo24bo$51bo9b3o12b2o17bobobo2bob2o3bo23bo3bo3bobo6b2o36bob2o24b
obo$52bob2o4bo15bo17b2obob4o34b4obob2o43b2o25b2o$54b2o4b2o11b2obobo17b
obo3bo3bo12bobo8bo3b2obo2bobobo41bo3bo29b2o$73bo2bo3bo15bo3b3o3bo11bo
3bo6b3o6bobobobo40bobo32bobo$58bo15b2o4bo16bo2bo2bo2bo12b3o6b3obo5b3ob
o2b2o33bo4b2o21bo6b2o5bo$33bobo21bobo16b3o19bo2b3o16bo8bo3bo5bo2bo4bo
32b2o7b2o17b2o5b2o5b2o$33b2o23b2o2b2o12bobob3o16b3o2bo25bo3bo6bob4o32b
obo7bobo15bobo$34bo27b2o13bobo3bo9b2o8b2o26bob3o4bob2o40b2o5bo$74b3o3b
3obo8bobo5bo2b2o26b3o5b3o3bo14bo22b2o5b2o$74bo2b2o4bobo7bo9b3o7bo19bo
6b2o2bo3bo10bobo$77bo4bo2bo18b2o6b3o31b2obob2o7b2o$61b2o15b3obobo26bo
3bo30bo2bobo$61bobo11b3o2b2o2b2o26bobo14bo10b2o3bobobo2bo$61bo12bo3b2o
2bobo2bo39bobo10bo2bobo2b2o3bo$75bo2bobobo3b2o40b2o12b2o2b2o2b3o17bo
27bo$23bobo25bobo22bobo2bo61bobob3o20b2o26b2o$23b2o26b2o22b2obob2o40b
2o18bo2bo4bo18bobo25bobo$24bo27bo26bo3bo2b2o6bo8b2o14bo2b3o17bobo4b2o
2bo$35b2o5b2o37bo3b3o15bobo13b5o2bo16bob3o3b3o$36bo5b2o40b2obo4bob3o6b
o16bo2b2o19bo3bobo13b2o$36bobo42b4obo7b2obo18b4o3bo2b3o16b3obobo12b2o
2b2o$4b2o5b2o24b2o32b2o7bo4bo2bo5bob2o19bo6b3o2bo19b3o16bobo$5bo5b2o
28b2o28bobo7b2o2bob3o5b3obo21bo2bo2bo2bo8bo7bo4b2o15bo$5bobo32bobo28bo
11bobobobo31bo3b3o3bo5bobo7bo3bo2bo17b3o$6b2o3b3o27bo6bo34bobobo2bob2o
3bo23bo3bo3bobo6b2o9bobob2o11b2o3bo16bo$10bo4bo33bo32b2obob4o34b4obob
2o17bo15bo3bo3bo12b2o$9bo4bo21b3o8b3o34bobo3bo3bo12bobo8bo3b2obo2bobob
o17b2o12b3o4bo2bobo10bobo$6bo3b5o21b3o45bo3b3o3bo11bo3bo6b3o6bobobobo
31bo8bobo2bo$6b2o28b3o46bo2bo2bo2bo12b3o6b3obo5b3obo2b2o39bo3bo$5b2obo
24b3o50bo2b3o16bo8bo3bo5bo2bo4bo42bo$4bo2b3o23b3o51b3o2bo25bo3bo6bob4o
40b3o$3bobobo25b3o45b2o8b2o26bob3o4bob2o$2bobobo74bobo5bo2b2o26b3o5b3o
3bo14bo$3o2bo75bo9b3o7bo19bo6b2o2bo3bo10bobo$bob2o19bo33bo4b2o5b2o20b
2o6b3o31b2obob2o7b2o28bo$2b2o21bo4b2o5b2o20bo3b2o5bo28bo3bo30bo2bobo
38b2o$3bo19b3o4b2o5bo19b3o8bobo29bobo25b2o3bobobo2bo36bobo$35bobo30b2o
58bo2bobo2b2o3bo$35b2o27b2o64b2o2b2o2b3o$14b2o5b2o8b2o13b2o5b2o9bobo
64bobob3o$15bo5b2o8bobo13bo5b2o10bo44b2o18bo2bo4bo$15bobo14bo14bobo32b
o8b2o14bo2b3o17bobo4b2o2bo$16b2o17b3o10b2o18b2o21bobo13b5o2bo16bob3o3b
3o17bo$20b2o12bo17b2o14b2obo8bob3o6bo16bo2b2o19bo3bobo18bobo$21bo4bo7b
o3bo14bo4bo13bo9b2obo18b4o3bo2b3o16b3obobo18b2o8bo$19b2o3bobo7bo2bobo
11b2o3bobo10bo12bob2o19bo6b3o2bo19b3o28b2o$16bo8b2o9bobo2bo6bo8b2o11bo
b2o9b3obo21bo2bo2bo2bo16bo4b2o25bobo$15b3o19bo3bo5b3o22b2o4b2o29bo3b3o
3bo15bo3bo2bo$14bob3o22bo4bob3o28bo5bo23bo3bo3bobo17bobob2o$13bo3bo20b
3o4bo3bo29bobo31b4obob2o17bo$12bo3bo27bo3bo31b2o13bobo8bo3b2obo2bobobo
17b2o$11b3obo27b3obo46bo3bo6b3o6bobobobo39b2o$12b3o29b3o48b3o6b3obo5b
3obo2b2o37b2o2b2o$13bo31bo30bo19bo8bo3bo5bo2bo4bo40bobo$36bo31bo6b3o
28bo3bo6bob4o42bo$34bobo29bobo5b3obo28bob3o4bob2o48b3o$35b2o30b2o6bo3b
o28b3o5b3o3bo39b2o3bo$76bo3bo8bo19bo6b2o2bo3bo38bo3bo3bo$77bob3o6b3o
31b2obob2o31b3o4bo2bobo$78b3o6bo3bo30bo2bobo32bo8bobo2bo$79bo8bobo13b
2o10b2o3bobobo2bo41bo3bo$104bobo9bo2bobo2b2o3bo44bo$100bo5bo11b2o2b2o
2b3o42b3o$106b2o11bobob3o$46bo31bo19bob3o15bo2bo4bo$44bobo29bobo21b2ob
o14bobo4b2o2bo$45b2o30b2o14b2o5bob2o15bob3o3b3o$101b3obo14bo3bobo$115b
o5b3obobo$96b2o5bo10bobo8b3o$70b4o22bo16bo3bo5bo4b2o$69bo4bob2o19b3o
12bo3bo6bo3bo2bo$69bo4bo3bo20bo11bo3bo9bobob2o$72b2o4bo31bo3bo12bo$56b
o12b2o4bo2bo11b2o19bobo12b2o$54bobo11bo2bo3bo2bo10b2o21bo$55b2o11bo2bo
4b2o13bo26bo$68bo4b2o42bob2o$68bo3bo4bo43bo$69b2obo4bo35bo3bo2bobo$73b
4o36bo5bo2bo$113bo6b2o$124b2o$109b3o4b2o5bo2bo$66bo33b2o9bob2obo9bo$
64bobo32b2o10bo2bo11bo$65b2o34bo9b2o10b2obo$123b2o2$115b2o$113bo2bo7b
2o$111bob2obo7b2o$110b2o4b3o2$76bo28bo8bo5bo$74bobo28b2o7bo5bo$75b2o
27bobo7bo5bo2$116b3o4b2o$109b2o7bob2obo$109b2o7bo2bo$118b2o2$110b2o$
86bo8bo12bob2o10b2o$84bobo8b2o11bo11bo2bo$85b2o7bobo11bo9bob2obo$108bo
2bo5b2o4b3o$109b2o$113b2o6bo$112bo2bo5bo$112bobo2bo3bo$86b2o25bo$86b2o
2b2o22b2obo$90bobo23bo$91bo30bo$121bobo$88b2o4b2o24bo3bo$89bo4b2obo21b
o3bo$86b3o9bo19bo3bo$86bo8bo21bo3bo$96bob2o18bobo$98b2o19bo!

#N Period-54 glider gun
#O David Raucci, 2021
#C https://conwaylife.com/wiki/Period-54_glider_gun
x = 29, y = 28, rule = B3/S23
o9bo14bo$3o5b3o12b3o$3bo3bo14bo$2b2o3b2o13b2o2$5bo$4bobo$15bo2bo$4b3o
11bo$15bo3bo$17b2o$4b3o10b2o$25b2o$4bobo6b2o10bobo$5bo7b2o12bo$27b2o$
2b2o3b2o$3bo3bo$bobobobobo$obob2ob2obob2ob2o$obo7bob2ob2o$bo2b4obo$2b
2o3bob2ob2o14bo$4bo5bob2ob2obo7bobo$4b4ob3o3bob2o8b2o$9bo2bobo$6b3o3b
2o$6bo!

#N Vacuum (gun)
#O Dietrich Leithner, 1997
#C https://conwaylife.com/wiki/Vacuum_(gun)
x = 49, y = 43, rule = B3/S23
b2o23b2o$b2o23bo$24bobo$15b2o7b2o$2o13bobo$2o13bob2o$16b2o$16bo$44b2o$
16bo27b2o$16b2o$2o13bob2o13bo3bo$2o13bobo13bo5bo7b2o$15b2o14bo13b2o$
31b2o3bo$b2o30b3o$b2o$33b3o$31b2o3bo$31bo13b2o$31bo5bo7b2o$32bo3bo2$
44b2o$44b2o5$37b2o$37bobo7b2o$39bo7b2o$37b3o$22bobo$21b3o$21b3o$21bo
15b3o$25bobo11bo$21b2o4bo9bobo$16b2o4bo3b2o9b2o$15bobo6bo$15bo$14b2o!

#N p46 gliderless MWSS gun
#O Matthias Merzenich, 2017
#C https://conwaylife.com/wiki/P46_gliderless_MWSS_gun
x = 40, y = 29, rule = B3/S23
6bo$6b3o$9bo$8b2o$2b2o$3bo$2bo$2b2o2$2b2o7bobo2bobo$2bobo6bo2bo3bo$3bo
5b2o3bobobo$3o7b3obo$o6b2o5b2o8b3o$7b2o4b2o8bo3bo$7b2o3bo9bo5bo$7b2obo
bo8bo3bo3bo$7b2obobo8bo7bo5b2o$21bobo3bobo5b2o$17b2o3b2o3b2o$10b2o4bob
o$6b2o2b2o4bo19b2o$5bobo7b2o19bo$5bo31b3o$4b2o19bo13bo$19b2obobobo$19b
ob2ob2obo$27bo$27b2o!

#N Period-117 glider gun
#O David Raucci, 2021
#C https://conwaylife.com/wiki/Period-117_glider_gun
x = 42, y = 29, rule = B3/S23
7bo7b2o10bob2o4b2obo$7b3o5b2o10b2o2bo2bo2b2o$10bo14b2o3bo4bo3b2o$9b2o
13bo3b2ob4ob2o3bo$25b3obobo2bobob3o$12bo14bobobo2bobobo$11bobo16bo4bo$
10bo3bo16b4o$10bo3bo$10bo3bo$11bobo$12bo2$5b2o$5b2o28b2o$35b2o2$29bo$
28bobo$27bo3bo$27bo3bo$7b4o16bo3bo$6bo4bo16bobo$3bobobo2bobobo14bo$b3o
bobo2bobob3o$o3b2ob4ob2o3bo13b2o$b2o3bo4bo3b2o14bo$3b2o2bo2bo2b2o10b2o
5b3o$3bob2o4b2obo10b2o7bo!

#N Period-25 glider gun
#O Mitchell Riley, 2022
#C https://conwaylife.com/wiki/Period-25_glider_gun
x = 22, y = 21, rule = B3/S23
13b2o4b2o$13bobo2bobo$15b4o$13bo2b2o2bo$13bo2b2o2bo$15bo2bo$8b2o$6bo2b
o$6b2obobo$8bob2o$8bo9b2o$6bobo9bo2bo$5bobob2o7bo2bo$5bobo3bo7bobo$3b
2o2bob2o9bo$2bo4bob2o$3b4ob2o$3o4bo2bo$o2bob3obobo$3bob2obobo$4bo4bo!
