#N Herschel
#O John Conway, 1970
#C https://conwaylife.com/wiki/Herschel
x = 3, y = 4, rule = B3/S23
o$3o$obo$2bo!

#N Pi-heptomino
#O John Conway, 1970
#C https://conwaylife.com/wiki/Pi-heptomino
x = 3, y = 3, rule = B3/S23
3o$obo$obo!

#N B-heptomino
#O John Conway, 1970
#C https://conwaylife.com/wiki/B-heptomino
x = 4, y = 3, rule = B3/S23
ob2o$3o$bo!

#N R-pentomino
#O John Conway, 1969
#C https://conwaylife.com/wiki/R-pentomino
x = 3, y = 3, rule = B3/S23
b2o$2o$bo!

#N Wing
#C https://conwaylife.com/wiki/Wing
x = 4, y = 4, rule = B3/S23
b2o$o2bo$bobo$2b2o!

#N Switch engine
#O Charles Corderman, 1971
#C https://conwaylife.com/wiki/Switch_engine
x = 6, y = 4, rule = B3/S23
bobo$o$bo2bo$3b3o!

#N Century
#O 1970
#C https://conwaylife.com/wiki/Century
x = 4, y = 3, rule = B3/S23
2b2o$3o$bo!

#N Queen bee
#O Robert W. April, 1970
#C https://conwaylife.com/wiki/Queen_bee
x = 5, y = 7, rule = B3/S23
o$obo$bobo$bo2bo$bobo$obo$o!

#N Die hard
#C https://conwaylife.com/wiki/Die_hard
x = 8, y = 3, rule = B3/S23
6bo$2o$bo3b3o!

#N Two-glider octomino
#O 1971
#C https://conwaylife.com/wiki/Two-glider_octomino
x = 4, y = 4, rule = B3/S23
2b2o$2b2o$3o$bo!

#N U-turner
#O 1971
#C https://conwaylife.com/wiki/U-turner
x = 4, y = 4, rule = B3/S23
b3o$b3o$obo$2o!

#N Bunnies
#O Robert Wainwright, Andrew Trevorrow
#C https://conwaylife.com/wiki/Bunnies
x = 8, y = 4, rule = B3/S23
o5bo$2bo3bo$2bo2bobo$bobo!

#N Blonk-tie
#O 1971
#C https://conwaylife.com/wiki/Blonk-tie
x = 3, y = 5, rule = B3/S23
2o$2o$2bo$2bo$2bo!

#N Octomino II
#C https://conwaylife.com/wiki/Octomino_II
x = 4, y = 4, rule = B3/S23
bo$3o$ob2o$3bo!

#N 52513M
#O Dylan Chen, 2021
#C https://conwaylife.com/wiki/52513M
x = 16, y = 16, rule = B3/S23
3o2b2obob2ob3o$2obob3o4bobo$bo2bo2bobob3obo$2bo2b2o3bo2bo$2bo5bobo3b2o
$o4b2o3b3obo$3b2o2bo2bobo2bo$2b4obo2bob2o$2ob2o2b2o5b2o$ob4obo4b3o$o3b
4o2b3o$b10o2b3o$2o3bob3obob3o$b2ob6o3bobo$obo5b4obo$3obobob2o5bo!

#N Acorn
#O Charles Corderman
#C https://conwaylife.com/wiki/Acorn
x = 7, y = 3, rule = B3/S23
bo$3bo$2o2b3o!

#N R-turner
#C https://conwaylife.com/wiki/R-turner
x = 5, y = 4, rule = B3/S23
2b2o$4bo$o2bo$3o!

#N 50093M
#O Rob Liston, 2021
#C https://conwaylife.com/wiki/50093M
x = 16, y = 16, rule = B3/S23
3bo5bob2obo$5bo2bo2b2ob2o$2b3o2bobo3bo$bobo3bob4o2bo$3bobobob7o$2b2ob
2ob2ob2obo$b4o6b2o$3ob4ob2o3b2o$4ob2o2bo$bobob2o2bo$2o2b4o3b4o$2b2obob
o3bo3bo$bo4bobob2obo$b4ob2o2b2o3bo$2b3o4bo2bobo$2obo4b2ob3o!

#N C-heptomino
#O John Conway, 1970
#C https://conwaylife.com/wiki/C-heptomino
x = 4, y = 3, rule = B3/S23
b3o$3o$bo!

#N E-heptomino
#O John Conway, 1970
#C https://conwaylife.com/wiki/E-heptomino
x = 4, y = 3, rule = B3/S23
b3o$2o$b2o!

#N Homer
#O Adam P. Goucher, 2018
#C https://conwaylife.com/wiki/Homer
x = 16, y = 16, rule = B3/S23
obo6b5obo$2b3obobob2o2bo$b2o2bobo2b2o3bo$2bobo2b2obo2b2o$o2bo4b3o3bo$
3bob3obo$6obobob2obo$6b2ob2ob2o$2b3ob8o$3b2ob4o4b2o$6obo2bo2bo$bo3b3ob
3o2b2o$5obo3bob2obo$2o6bo2bo$2ob3o2bob6o$2b2obobob2o2b2o!

#N Thunderbird
#O Hugh Thompson, 1971
#C https://conwaylife.com/wiki/Thunderbird
x = 3, y = 5, rule = B3/S23
3o2$bo$bo$bo!

#N 49768M
#O Rob Liston, 2020
#C https://conwaylife.com/wiki/49768M
x = 16, y = 16, rule = B3/S23
b6o2bo2b2obo$2obobo2b2o2bo$5bo5bo2b2o$bo2bob3o2b5o$2o2b6o4bo$o3bob5obo
bo$2ob2o3bo4bobo$3bo5bobob3o$5obob2obobobo$o8b2ob2obo$bo2bo4bo3bobo$2o
3b2o4bo2bo$ob2o6bo2bobo$5bobo4b2obo$3ob3o8bo$obobo3b3ob3o!

#N F-heptomino
#O John Conway, 1970
#C https://conwaylife.com/wiki/F-heptomino
x = 4, y = 4, rule = B3/S23
2o$bo$bo$b3o!

#N Lidka
#O Andrzej Okrasinski, David Bell, 2005
#C https://conwaylife.com/wiki/Lidka
x = 9, y = 15, rule = B3/S23
bo$obo$bo8$8bo$6bobo$5b2obo2$4b3o!

#N Two-glider mess
#O 1972
#C https://conwaylife.com/wiki/Two-glider_mess
x = 12, y = 6, rule = B3/S23
2bo$obo$b2o$11bo$9b2o$10b2o!

#N 42100M
#O Dave Greene, 2018
#C https://conwaylife.com/wiki/42100M
x = 16, y = 16, rule = B3/S23
obobobobo3b2o$2bo3bo2bo3b3o$2bobo3bo5b2o$o3bo2b6ob2o$3ob2obobobo$6bo2b
obob3o$2ob2o2bo2bob4o$o2bob2ob3o4bo$o4bob3o5bo$bobo2bob2ob2ob2o$3b3obo
b2ob4o$obob4o3b3o$obo3b2ob2obobo$ob2ob3obob2o2bo$o3b3o2b2obo2bo$3ob2o
2b2ob2obo!

#N 47575M
#O Adam P. Goucher, 2019
#C https://conwaylife.com/wiki/47575M
x = 16, y = 16, rule = B3/S23
5b2ob2o2bob2o$2bo2bo4b3obo$o2b2obobob2o3bo$bob2o3b2o2b3o$3o8b2o2bo$bob
3o4b3ob2o$bob4obob3o$ob2obo2bo3b3o$2b4o2b4o2bo$6b2o2bobob2o$o3bo2bo2b
5o$2b4o3b7o$o2b2o2bob2ob3o$o2bo3b2o3bobo$2ob2obob8o$6o3bobo!

#N Fred
#O Schneelocke, 2010
#C https://conwaylife.com/wiki/Fred
x = 20, y = 20, rule = B3/S23
5bo8bo2b2o$bo5b6o2bobo$3b6ob2o2bobo$o2bo2b2obo3bo4b2o$obob3o2bobo6bo$b
ob4o2b3o5b2o$bo2b3ob2obob3o$o2bo4bo3bo6bo$b2o2b3o3bo3bo$obo3b2obo3bo2b
obo$bo6bobo5b2o$6o2b3o2bo$2bo4b3o5bobo$2b2ob2o5bo3b3o$3bo2b4obobo2bob
2o$o4bo6b2obobo$o2bo2b2obobo$bo5bo2bo2bobobo$b3ob2obo$ob3obo6bo3b2o!

#N Gliders by the dozen
#O Roger H. Rosenbaum, 1971
#C https://conwaylife.com/wiki/Gliders_by_the_dozen
x = 5, y = 3, rule = B3/S23
2o2bo$o3bo$o2b2o!

#N Multum in parvo
#O Charles Corderman, 1972
#C https://conwaylife.com/wiki/Multum_in_parvo
x = 6, y = 4, rule = B3/S23
3b3o$2bo2bo$bo$o!

#N Wilma
#O Rob Liston, 2018
#C https://conwaylife.com/wiki/Wilma
x = 20, y = 20, rule = B3/S23
o2bob2o2bobo2bo$2o2b2ob3obob2o2b3o$b2o2bo3bob6o$2obo4b4obo3b2o$obob2ob
o2b3ob5o$b2ob3ob4o2b2ob3o$b2o6bo2b5ob2o$bo6bobob3obo2bo$o3bob3ob3o3bob
o$b2o2b2obob3o$b4o3bo4b2obo$2o2b6obo5bobo$bob3ob3obobo4bo$obobobobo3b
3o3b2o$2obobob2o3b2ob4o$ob2ob2o6bobo2bo$o3b2ob2ob2obo4bo$7o6bo4bo$2b2o
bo7b2o2b3o$o3b3o2bo3b3o2bo!

#N 7468M
#O Tomas Rokicki, 2005
#C https://conwaylife.com/wiki/7468M
x = 6, y = 4, rule = B3/S23
4bo$4b2o$2ob2o$o!

#N Edna
#O Erik de Neve, 2010
#C https://conwaylife.com/wiki/Edna
x = 20, y = 20, rule = B3/S23
2bo2bo2bo5bo4bo$2b2o4bo2bo2b2obo$b4ob2ob4obobobo$2obo5b2ob2o2b3o$8bo2b
o2b3o$3ob2o3bo2bo2bo3bo$b4o5bo2b3o2b2o$obo2bo3bo5bobo$2obob2ob3obo$2bo
2b2o5bobo2bobo$2o2bobob2o3bo2b2o$4bobo3bobo4b2o$bo2bobo4bo2b2o$3o3bo3b
o4b4o$2ob2o6bo4bo2bo$5bo3bobo6b2o$6bo2bo5bobo$8bo2bo2bobo$2b4obo2bob2o
5bo$ob2o2bo6b2ob3o!

#N Iwona
#O Andrzej Okrasinski, 2004
#C https://conwaylife.com/wiki/Iwona
x = 20, y = 21, rule = B3/S23
14b3o6$2bo$3b2o$3bo14bo$18bo$18bo$19bo$18b2o$7b2o$8bo5$2o$bo!
