#N Blinker
#O John Conway, 1969
#C https://conwaylife.com/wiki/Blinker
x = 3, y = 1, rule = B3/S23
3o!

#N Traffic light
#O JHC group, 1969
#C https://conwaylife.com/wiki/Traffic_light
x = 7, y = 7, rule = B3/S23
2b3o2$o5bo$o5bo$o5bo2$2b3o!

#N Pentadecathlon
#O John Conway, 1970
#C https://conwaylife.com/wiki/Pentadecathlon
x = 10, y = 3, rule = B3/S23
2bo4bo$2ob4ob2o$2bo4bo!

#N Toad
#O Simon Norton, 1970
#C https://conwaylife.com/wiki/Toad
x = 4, y = 4, rule = B3/S23
b2o$o$3bo$b2o!

#N Figure eight
#O Simon Norton, 1970
#C https://conwaylife.com/wiki/Figure_eight
x = 6, y = 6, rule = B3/S23
2o$2obo$4bo$bo$2bob2o$4b2o!

#N Twin bees shuttle
#O Bill Gosper, 1971
#C https://conwaylife.com/wiki/Twin_bees_shuttle
x = 29, y = 11, rule = B3/S23
17b2o$2o15bobo7b2o$2o17bo7b2o$17b3o4$17b3o$2o17bo$2o15bobo$17b2o!

#N Beacon
#O John Conway, 1970
#C https://conwaylife.com/wiki/Beacon
x = 4, y = 4, rule = B3/S23
2o$2o$2b2o$2b2o!

#N Pulsar
#O John Conway, 1970
#C https://conwaylife.com/wiki/Pulsar
x = 13, y = 13, rule = B3/S23
2b3o3b3o2$o4bobo4bo$o4bobo4bo$o4bobo4bo$2b3o3b3o2$2b3o3b3o$o4bobo4bo$o
4bobo4bo$o4bobo4bo2$2b3o3b3o!

#N Mold
#O Achim Flammenkamp, 1988
#C https://conwaylife.com/wiki/Mold
x = 6, y = 6, rule = B3/S23
3b2o$2bo2bo$o2bobo$4bo$ob2o$bo!

#N Queen bee shuttle
#O Bill Gosper, Robert W. April, Richard P. Howell, 1970
#C https://conwaylife.com/wiki/Queen_bee_shuttle
x = 22, y = 7, rule = B3/S23
9bo$7bobo$6bobo11b2o$2o3bo2bo11b2o$2o4bobo$7bobo$9bo!

#N Caterer
#O Dean Hickerson, 1989
#C https://conwaylife.com/wiki/Caterer
x = 8, y = 6, rule = B3/S23
2bo$o3b4o$o3bo$o$3bo$b2o!

#N Unix
#O David Buckingham, 1976
#C https://conwaylife.com/wiki/Unix
x = 8, y = 8, rule = B3/S23
b2o$b2o2$bo$obo$o2bo2b2o$4bob2o$2b2o!

#N Blocker
#O Robert Wainwright
#C https://conwaylife.com/wiki/Blocker
x = 10, y = 5, rule = B3/S23
6bobo$5bo$2o2bo4bo$2obo2bob2o$4b2o!

#N 34P14 shuttle
#O carybe, 2018
#C https://conwaylife.com/wiki/34P14_shuttle
x = 15, y = 11, rule = B3/S23
5b2o$2o2b2obo5b2o$2o3bobo5b2o$7bo$9bo2$9bo$7bo$2o3bobo5b2o$2o2b2obo5b
2o$5b2o!

#N Fumarole
#O Dean Hickerson, 1989
#C https://conwaylife.com/wiki/Fumarole
x = 8, y = 7, rule = B3/S23
3b2o$bo4bo$bo4bo$bo4bo$2bo2bo$obo2bobo$2o4b2o!

#N Test tube baby
#C https://conwaylife.com/wiki/Test_tube_baby
x = 8, y = 5, rule = B3/S23
2o4b2o$obo2bobo$2bo2bo$2bo2bo$3b2o!

#N Clock
#O Simon Norton, 1970
#C https://conwaylife.com/wiki/Clock
x = 4, y = 4, rule = B3/S23
2bo$obo$bobo$bo!

#N 30P25
#O Charity Engine, 2022
#C https://conwaylife.com/wiki/30P25
x = 20, y = 20, rule = B3/S23
o$3o$3bo$2bo$2bo2bo2$6b2o$7bo$5bobo$4b2o$14b2o$12bobo$12bo$12b2o2$14bo
2bo$17bo$16bo$17b3o$19bo!

#N Merzenich's p31
#O Matthias Merzenich, 2010
#C https://conwaylife.com/wiki/Merzenich's_p31
x = 24, y = 13, rule = B3/S23
7b2obo2bob2o$2o4bo2bo4bo2bo4b2o$2o5bobo4bobo5b2o$8bo6bo6$8bo6bo$2o5bob
o4bobo5b2o$2o4bo2bo4bo2bo4b2o$7b2obo2bob2o!

#N Octagon 2
#O Arthur Taber, Sol Goodman, 1971
#C https://conwaylife.com/wiki/Octagon_2
x = 8, y = 8, rule = B3/S23
3b2o$2bo2bo$bo4bo$o6bo$o6bo$bo4bo$2bo2bo$3b2o!

#N Rich's p16
#O Rich Holmes, 2016
#C https://conwaylife.com/wiki/Rich's_p16
x = 13, y = 10, rule = B3/S23
4bo3bo$2b2obobob2o$bo3bobo3bo$o3b2ob2o3bo$obo7bobo$bo9bo2$4b2ob2o$3bob
obobo$4bo3bo!

#N Rob's p16
#O Rob Liston, 2020
#C https://conwaylife.com/wiki/Rob's_p16
x = 8, y = 9, rule = B3/S23
5b2o$2bo2b2o$bo4bo$bo4bo$6bo$2obobo$2ob2o2$5b3o!

#N Pseudo-barberpole
#O Achim Flammenkamp, 1994
#C https://conwaylife.com/wiki/Pseudo-barberpole
x = 12, y = 12, rule = B3/S23
10b2o$11bo$9bo$7bobo2$5bobo2$3bobo2$2b2o$o$2o!

#N Tumbler
#O George Collins, 1970
#C https://conwaylife.com/wiki/Tumbler
x = 9, y = 5, rule = B3/S23
bo5bo$obo3bobo$o2bobo2bo$2bo3bo$2b2ob2o!

#N Jason's p22
#O Jason Summers, 2000
#C https://conwaylife.com/wiki/Jason's_p22
x = 27, y = 10, rule = B3/S23
2o$bo$bobo13b3o$2b2o3bo8bo3bo$6bob2o6bo4bo$5bo4bo6b2obo$6bo3bo8bo3b2o$
7b3o13bobo$25bo$25b2o!

#N Kok's galaxy
#O Jan Kok, 1971
#C https://conwaylife.com/wiki/Kok's_galaxy
x = 9, y = 9, rule = B3/S23
2bo2bobo$2obob3o$bo6bo$2o5bo2$bo5b2o$o6bo$b3obob2o$bobo2bo!

#N Spark coil
#O 1971
#C https://conwaylife.com/wiki/Spark_coil
x = 8, y = 5, rule = B3/S23
2o4b2o$obo2bobo$2bo2bo$obo2bobo$2o4b2o!

#N Beluchenko's p13
#O Nicolay Beluchenko, 2009
#C https://conwaylife.com/wiki/Beluchenko's_p13
x = 16, y = 16, rule = B3/S23
4b3o2$6bo$6b2o$5bo$8bo$4bo3bo$9b2o$2o2b3o5bo$2o5bo4b2obo$7bo3bo3bo$7bo
bo5bo3$6b2o$6b2o!

#N Interchange
#O Hugh Thompson, 1971
#C https://conwaylife.com/wiki/Interchange
x = 14, y = 7, rule = B3/S23
2b3o4b3o2$o12bo$o12bo$o12bo2$2b3o4b3o!

#N Ellison p4 HW emulator
#O Scot Ellison, 2010
#C https://conwaylife.com/wiki/Ellison_p4_HW_emulator
x = 24, y = 9, rule = B3/S23
11b2o$4bo3bo6bo3bo$3bobo12bobo$3bobo12bobo$2obobob10obobob2o$2obo16bob
2o$3bo16bo$3bobo4b2obo4bobo$4b2o4bob2o4b2o!

#N Rattlesnake
#O Dean Hickerson, 2016
#C https://conwaylife.com/wiki/Rattlesnake
x = 13, y = 15, rule = B3/S23
8b2o$8bo$9bo$8b2o4$5bo$5b2o$2obobob3o$ob2obobobo$6bo2b3o$7b2o3bo$9b3o$
9bo!

#N Tanner's p46
#O Tanner Jacobi, 2017
#C https://conwaylife.com/wiki/Tanner's_p46
x = 13, y = 26, rule = B3/S23
2b2o$2bo$3bo$2b2o2$9b2o$9bo$10bo$9b2o$b2o$b2o6b2o$o7bobo$b2o6bo$b2o7b
3o$12bo7$b2o$b2o2b2o$5bobo$7bo$7b2o!

#N 34P7
#O Charity Engine, 2022
#C https://conwaylife.com/wiki/34P7
x = 9, y = 16, rule = B3/S23
bo2bo$5bo$o5bo$2o4bo$5bo$4bo$3b4obo$3bo3bo$bo3bo$ob4o$4bo$3bo$2bo4b2o$
2bo5bo$3bo$4bo2bo!

#N Bipole
#O MIT group, 1970
#C https://conwaylife.com/wiki/Bipole
x = 5, y = 5, rule = B3/S23
3b2o$2bobo2$obo$2o!

#N Heavyweight emulator
#O Robert Wainwright, 1980
#C https://conwaylife.com/wiki/Heavyweight_emulator
x = 16, y = 7, rule = B3/S23
7b2o$2b2obo4bob2o$2bo10bo$3b2o6b2o$3o2b6o2b3o$o2bo8bo2bo$b2o10b2o!

#N Middleweight volcano
#O Dean Hickerson, 1992
#C https://conwaylife.com/wiki/Middleweight_volcano
x = 13, y = 11, rule = B3/S23
4b5o$3bo5bo$b3o5b3o$o11bo$ob3obob4o$bo3b3o$3bo5b2obo$2b2obobobob2o$3bo
bo2bo$3bo2b2o$2b2o!

#N Mazing
#O David Buckingham, 1973
#C https://conwaylife.com/wiki/Mazing
x = 7, y = 7, rule = B3/S23
3b2o$bobo$o5bo$bo3b2o2$3bobo$4bo!

#N p47 pre-pulsar shuttle
#O David Buckingham, 1982
#C https://conwaylife.com/wiki/P47_pre-pulsar_shuttle
x = 30, y = 31, rule = B3/S23
2bo24bo$2b3o20b3o$5bo18bo$4b2o18b2o3$6b3o12b3o$14b2o$14b2o2$bo9bo6bo9b
o$obo7bo8bo7bobo$bo8bo8bo8bo$10bo8bo$11bo6bo2$11bo6bo$10bo8bo$bo8bo8bo
8bo$obo7bo8bo7bobo$bo9bo6bo9bo2$14b2o$14b2o$6b3o12b3o3$4b2o18b2o$5bo
18bo$2b3o20b3o$2bo24bo!

#N Jam
#O Achim Flammenkamp, 1988
#C https://conwaylife.com/wiki/Jam
x = 6, y = 7, rule = B3/S23
3b2o$2bo2bo$o2bobo$o3bo$o$3bo$b2o!

#N Snacker
#O Mark Niemiec, 1972
#C https://conwaylife.com/wiki/Snacker
x = 20, y = 11, rule = B3/S23
2o16b2o$bo16bo$bobo12bobo$2b2o12b2o$7bo4bo$5b2ob4ob2o$7bo4bo$2b2o12b2o
$bobo12bobo$bo16bo$2o16b2o!

#N T-nosed p4
#O Robert Wainwright, 1989
#C https://conwaylife.com/wiki/T-nosed_p4
x = 11, y = 10, rule = B3/S23
4b3o$5bo2$4b3o$3bo3bo$2bo5bo$2bobobobo$b2obobob2o$o2b2ob2o2bo$2o7b2o!

#N Heavyweight volcano
#O Dean Hickerson, 1995
#C https://conwaylife.com/wiki/Heavyweight_volcano
x = 24, y = 15, rule = B3/S23
4bo14bo$2b3o2b2o6b2o2b3o$bo7b6o7bo$bob2o3b2o4b2o3b2obo$2obo16bob2o$4b
5o6b5o$10bo2bo$6b2obo4bob2o$6bo2b2o2b2o2bo$7bobob2obobo$2b2obobobo4bob
obob2o$2bob2obobo4bobob2obo$7bo8bo$7bobo4bobo$8b2o4b2o!

#N p29 pre-pulsar shuttle
#O David Buckingham, 1980
#C https://conwaylife.com/wiki/P29_pre-pulsar_shuttle
x = 28, y = 28, rule = B3/S23
15bo$13b3o$12bo$12b2o2$bo$obo3b3o$bo4bobo6b2o$6b3o6b2o3$19b2o$6b3o10b
2o5b2o$bo4bobo17bo$obo3b3o15bobo$bo22b2o4$13b3o3b3o$13bobo3bobo$13b3o
3b3o4$13bo7bo$12bobo5bobo$13bo7bo!

#N Phoenix 1
#O MIT group, 1971
#C https://conwaylife.com/wiki/Phoenix_1
x = 8, y = 8, rule = B3/S23
3bo$3bobo$bo$6b2o$2o$6bo$2bobo$4bo!

#N 55P10
#O Bullet51, 2018
#C https://conwaylife.com/wiki/55P10
x = 21, y = 9, rule = B3/S23
3b2o11b2o$b3ob2ob2ob2ob2ob3o$o8bobo8bo$b5obobobobob5o$6b2obobob2o$3b2o
5bo5b2o$3bo13bo$4bo11bo$3b2o11b2o!

#N p32 honey farm hassler
#O David Raucci, praosylen, iNoMed, 2021
#C https://conwaylife.com/wiki/P32_honey_farm_hassler
x = 27, y = 16, rule = B3/S23
21bo$19b3o$18bo$18b2o3$11bobo$15bobo$11bobo3bo6b2o$14b2obo5bo2bo$4b2o
15bo2bobo$2bob2o19bo$bo19bob2o$4bo17bo$2obo5b2o$2o7b2o!

#N Coe's p8
#O Tim Coe, 1997
#C https://conwaylife.com/wiki/Coe's_p8
x = 12, y = 6, rule = B3/S23
2o$2o2b2o$5b2o$4bo2bo$7bo2b2o$5bobo2b2o!

#N David Hilbert
#O Luka Okanishi, praosylen, 2019
#C https://conwaylife.com/wiki/David_Hilbert
x = 33, y = 26, rule = B3/S23
7b2o15b2o$8bo15bo$6bo19bo$6b5o11b5o$10bo11bo$4b4o17b4o$4bo2bo17bo2bo$
21bo$21bo$9bo4b2ob2o2bob2o$8b3o3b2obo6b2o$7bo2b2o6bo$7b3o12bo$22bobo$
3b2o11b2o4bo2bo2b2o$3bo12b2o5b2o4bo$2obo12b2o11bob2o$ob2ob2o19b2ob2obo
$5bo21bo$5bobo17bobo$6b2o17b2o$10bo11bo$6b5o11b5o$6bo19bo$8bo15bo$7b2o
15b2o!

#N Honey thieves
#O Matthias Merzenich, 2014
#C https://conwaylife.com/wiki/Honey_thieves
x = 15, y = 15, rule = B3/S23
2o$bo$bobo9b2o$2bobo8bo$11bobo$11b2o$5b2o$5b2ob2o$8b2o$2b2o$bobo$bo8bo
bo$2o9bobo$13bo$13b2o!

#N 38P7.2
#O Nicolay Beluchenko, 2009
#C https://conwaylife.com/wiki/38P7.2
x = 13, y = 11, rule = B3/S23
4bo3bo$o2bobobobo2bo$obo2bobo2bobo$bo2b2ob2o2bo$5bobo$2b2o5b2o$2bo7bo$
4bo3bo2$bo2bo3bo2bo$2b2o5b2o!

#N Eureka
#O David Buckingham, 1980
#C https://conwaylife.com/wiki/Eureka
x = 18, y = 11, rule = B3/S23
bo14bo$obo4bo7bobo$bo3b2ob2o6bo$7bo4$7bo$bo3b2ob2o6bo$obo4bo7bobo$bo
14bo!

#N Gourmet
#O David Buckingham, 1978
#C https://conwaylife.com/wiki/Gourmet
x = 20, y = 20, rule = B3/S23
10b2o$10bo$4b2ob2obo4b2o$2bo2bobobo5bo$2b2o4bo8bo$16b2o2$16b2o$o10bo3b
obo$3o7b3o3bo$3bo6bobo4b3o$2bobo14bo$2b2o2$2b2o$2bo8bo4b2o$4bo5bobobo
2bo$3b2o4bob2ob2o$9bo$8b2o!

#N p44 pi-heptomino hassler
#O David Buckingham, 1992
#C https://conwaylife.com/wiki/P44_pi-heptomino_hassler
x = 31, y = 42, rule = B3/S23
12b2o$12bobo$14b3o$13bo3bo$13b2ob2o2$11bo7bo$11bo7bo$11bo7bo7$14b3o$2o
12b3o12b2o$2o11bo3bo11b2o$13b2ob2o5$13b2ob2o$2o11bo3bo11b2o$2o12b3o12b
2o$14b3o7$11bo7bo$11bo7bo$11bo7bo2$13b2ob2o$13bo3bo$14b3o$16bobo$17b2o
!

#N Two blockers hassling R-pentomino
#O Robert Wainwright, 1990
#C https://conwaylife.com/wiki/Two_blockers_hassling_R-pentomino
x = 30, y = 14, rule = B3/S23
4b2o19bo$4o4b2o10b3ob2o2b2o$3ob2o2b2o10b4o4b2o$5bo18b2o4$7b2o12b2o$7b
2o12b2o2$18b3o$17bo$17bo2bo$18b2o!

#N 58P37
#O Luke Kiernan, 2022
#C https://conwaylife.com/wiki/58P37
x = 27, y = 24, rule = B3/S23
8bo$8b3o14b2o$11bo13bo$10b2o11bobo$23b2o$15b2o$15b3o$14bo2bo$15b2o$2o$
bo$bobo19b2o$2b2o19bobo$25bo$25b2o$10b2o$9bo2bo$9b3o$10b2o$2b2o$bobo
11b2o$bo13bo$2o14b3o$18bo!

#N 66P13
#O Bullet51, praosylen, Matthias Merzenich, 2019
#C https://conwaylife.com/wiki/66P13
x = 20, y = 17, rule = B3/S23
5bo$3b5o$2bo5bo$2bo2b3o10b2o$b2obo13bo$o3b2o9b2obo$bobo2bo10bo$2ob2ob
2o5bo$7bo4bo$2ob2ob2o5bobo$bobo2bo$o3b2o$b2obo$2bo2b3o$2bo5bo$3b5o$5bo
!

#N 68P9
#O carybe, 2018
#C https://conwaylife.com/wiki/68P9
x = 16, y = 17, rule = B3/S23
b2o10b2o$obo10bobo$3o10b3o2$b2o10b2o$4o8b4o$o3bo6bo3bo$5bo4bo$2bo2bo4b
o2bo$5bo4bo$o3bo6bo3bo$4o8b4o$b2o10b2o2$3o10b3o$obo10bobo$b2o10b2o!

#N Achim's p144
#O Achim Flammenkamp, Dean Hickerson, David Bell, 1994
#C https://conwaylife.com/wiki/Achim's_p144
x = 28, y = 19, rule = B3/S23
2o24b2o$2o24b2o$18b2o$17bo2bo$18b2o$14bo$13bobo$12bo3bo$12bo2bo2$12bo
2bo$11bo3bo$12bobo$13bo$8b2o$7bo2bo$8b2o$2o24b2o$2o24b2o!

#N Achim's p4
#O Achim Flammenkamp, 1988
#C https://conwaylife.com/wiki/Achim's_p4
x = 11, y = 9, rule = B3/S23
2b2o3b2o$bo2bobo2bo$bob2ob2obo$2o7b2o$2bobobobo$2o7b2o$bob2ob2obo$bo2b
obo2bo$2b2o3b2o!

#N Achim's p8
#O Achim Flammenkamp, 1994
#C https://conwaylife.com/wiki/Achim's_p8
x = 9, y = 9, rule = B3/S23
b2o$o$bo3bo$bo3b2o$3bobo$2b2o3bo$3bo3bo$8bo$6b2o!

#N Block on griddle
#O Robert Wainwright, 1972
#C https://conwaylife.com/wiki/Block_on_griddle
x = 6, y = 7, rule = B3/S23
3bo$bobo$o4bo$6o2$2b2o$2b2o!

#N Middleweight emulator
#O Robert Wainwright, 1980
#C https://conwaylife.com/wiki/Middleweight_emulator
x = 15, y = 7, rule = B3/S23
7bo$2b2obo3bob2o$2bo9bo$3b2o5b2o$3o2b5o2b3o$o2bo7bo2bo$b2o9b2o!

#N Raucci's p38
#O David Raucci, Jason Summers, 2022
#C https://conwaylife.com/wiki/Raucci's_p38
x = 40, y = 12, rule = B3/S23
2b3o30b3o2$o5bo2b2o18b2o2bo5bo$o4b2o4bo16bo4b2o4bo$o11bo14bo11bo$11b2o
14b2o3$5b2o26b2o$5bo28bo$6b3o22b3o$8bo22bo!

#N Scrubber
#O 1971
#C https://conwaylife.com/wiki/Scrubber
x = 11, y = 11, rule = B3/S23
4bo$2b3o$bo$bo2b3o$2obo3bo$3bo3bo$3bo3bob2o$4b3o2bo$9bo$6b3o$6bo!

#N Trans-block on candlefrobra
#C https://conwaylife.com/wiki/Trans-block_on_candlefrobra
x = 5, y = 10, rule = B3/S23
2o$2o2$4o$o3bo$3bo$3bo$2bo$bobo$2bo!

#N Twirling T-tetsons 2
#O Robert Wainwright, 1989
#C https://conwaylife.com/wiki/Twirling_T-tetsons_2
x = 24, y = 24, rule = B3/S23
7b2o3b2o$6bo7bo$9bobo$7b2o3b2o4$21b3o$20b3o$13bo$3o9b3o$b3o$20b3o$21b
3o2$b3o$3o9b3o$13bo3$10b2o3b2o$12bobo$9bo7bo$10b2o3b2o!

#N 28P7.3
#O Bullet51, 2017
#C https://conwaylife.com/wiki/28P7.3
x = 10, y = 13, rule = B3/S23
obo$2obo$3bo2b2o$2obobobo$o2bo2bo$2bo$4bo$2b3o2$6b2o$6bobo$8bo$8b2o!

#N 37P7.1
#O Scot Ellison, 2005
#C https://conwaylife.com/wiki/37P7.1
x = 12, y = 10, rule = B3/S23
4b2o$2o3bo$bo3bobo$bob2obobob2o$2bobobob2obo$4bo$2bo5b3o$o9bo$o3b4obo$
bo5b2o!

#N Burloaferimeter
#O David Buckingham, 1972
#C https://conwaylife.com/wiki/Burloaferimeter
x = 10, y = 11, rule = B3/S23
4b2o$5bo$4bo$3bob3o$3bobo2bo$2obo3bobo$2obo4bo$4b4o2$4b2o$4b2o!

#N Cuphook
#O Rich Schroeppel, 1970
#C https://conwaylife.com/wiki/Cuphook
x = 8, y = 9, rule = B3/S23
b2o$b2o2$b4o$o4bo$2o3bo$4bo$5b3o$7bo!

#N Karel's p15
#O Karel Suhajda, 2002
#C https://conwaylife.com/wiki/Karel's_p15
x = 10, y = 11, rule = B3/S23
2bo4bo$2b6o$2bo4bo4$2b6o$bo6bo$o8bo$bo6bo$2b6o!

#N Lei
#C https://conwaylife.com/wiki/Lei
x = 7, y = 6, rule = B3/S23
4bo$2bobobo$o5bo$o5bo$obobo$2bo!

#N Merzenich's p64
#O Matthias Merzenich, 2010
#C https://conwaylife.com/wiki/Merzenich's_p64
x = 21, y = 21, rule = B3/S23
5b2o$5b2o3$8b2o$9b2o8b2o$19b2o2$10bobo$9bo3bo$8bo3bo$7bo3bo$8bobo2$2o$
2o8b2o$11b2o3$14b2o$14b2o!

#N p45 pi-heptomino hassler
#O Luke Kiernan, 2022
#C https://conwaylife.com/wiki/P45_pi-heptomino_hassler
x = 16, y = 17, rule = B3/S23
10b2o$10b2o4$10bo$9b3o$8b2ob2o2$bo$obo$2o3$8bo4bo$6b2ob4ob2o$8bo4bo!

#N p58 pi-heptomino hassler
#O Luke Kiernan, 2022
#C https://conwaylife.com/wiki/P58_pi-heptomino_hassler
x = 23, y = 30, rule = B3/S23
7bo$5b3o$4bo$4b2o6b2o$12bo$10bobo8b2o$10b2o9b2o3$2b2o$bobo$bo$bobo$2b
2o3$19b2o$19bobo$21bo$19bobo$19b2o3$2o9b2o$2o8bobo$10bo$9b2o6b2o$18bo$
15b3o$15bo!

#N p60 glider shuttle
#O 1971
#C https://conwaylife.com/wiki/P60_glider_shuttle
x = 35, y = 7, rule = B3/S23
2bo4bo$2ob4ob2o$2bo4bo$16bo$17b2o8bo4bo$16b2o7b2ob4ob2o$27bo4bo!

#N p7 pipsquirter
#O Noam Elkies, 1999
#C https://conwaylife.com/wiki/P7_pipsquirter
x = 13, y = 22, rule = B3/S23
6b2o$6bobo$8bo$3bo2bob2o$3b4o$7b2o2b2o$3b4o$obo3bob2o$2ob2obobo$3bo4bo
$3bobobob2o$2obobobobo$obo4bobo$2bob2obo2b2o$2bobo3bobo$b2o2bob2obo$2b
obo4bo$2bo3b3o$3b2obo$8b3o$b7o2bo$bo2bo2bo!

#N Pentoad
#O Bill Gosper, 1977
#C https://conwaylife.com/wiki/Pentoad
x = 13, y = 12, rule = B3/S23
11b2o$11bo$9bobo$9b2o$5b2o$6bo$6bo$6b2o$2b2o$bobo$bo$2o!

#N Quadpole
#O MIT group, 1970
#C https://conwaylife.com/wiki/Quadpole
x = 7, y = 7, rule = B3/S23
5b2o$4bobo2$2bobo2$obo$2o!

#N Silver's p5
#O Stephen Silver, 2000
#C https://conwaylife.com/wiki/Silver's_p5
x = 11, y = 7, rule = B3/S23
2o$o$bo2bo$3b2o$3bo3bob2o$2bo4b2obo$2b2o!

#N Thumb 1
#O Dean Hickerson, 1998
#C https://conwaylife.com/wiki/Thumb_1
x = 13, y = 9, rule = B3/S23
3b2o$3bobob2o2b2o$2obo3bobo2bo$2obo3bob3o$3bo3bo$3bobob3o$4bobo3bo$6bo
2b2o$6b2o!

#N Toaster
#O Dean Hickerson, 1992
#C https://conwaylife.com/wiki/Toaster
x = 11, y = 12, rule = B3/S23
2bo6b2o$bobob2o2bo$bobobobobo$2obo3bob2o$o2b2ob2o2bo$bo7bo$bo7bo$o2b2o
b2o2bo$2obo3bob2o$bobobobobo$bobob2o2bo$2bo6b2o!

#N Two eaters
#O Bill Gosper, 1971
#C https://conwaylife.com/wiki/Two_eaters
x = 9, y = 8, rule = B3/S23
2o$bo$bobo$2b2o$5b2o$5bobo$7bo$7b2o!

#N 56P27
#O Nicolay Beluchenko, 2010
#C https://conwaylife.com/wiki/56P27
x = 30, y = 30, rule = B3/S23
15b2o$15b2o5$13b2o$14b2o$10bo4bo$10bo3bo$10b2o7b3o$19bo2$2o21bo$2o5b2o
11bob2o$6b2obo11b2o5b2o$6bo21b2o2$10bo$8b3o7b2o$15bo3bo$14bo4bo$14b2o$
15b2o5$13b2o$13b2o!

#N Beluchenko's p40
#O Nicolay Beluchenko, 2009
#C https://conwaylife.com/wiki/Beluchenko's_p40
x = 17, y = 14, rule = B3/S23
2o8b2o$2o7bo$12bo$8b2obo$8b2o5$7b2o$5bob2o$4bo$7bo7b2o$5b2o8b2o!

#N Cross
#O Robert Wainwright, 1989
#C https://conwaylife.com/wiki/Cross
x = 8, y = 8, rule = B3/S23
2b4o$2bo2bo$3o2b3o$o6bo$o6bo$3o2b3o$2bo2bo$2b4o!

#N Jason's p33
#O Jason Summers, 2000
#C https://conwaylife.com/wiki/Jason's_p33
x = 30, y = 24, rule = B3/S23
bo4b2o$obo2bobo$bo4bo5$12b2o$8b2obo2bo$7bobo5b5o$7bo3bo5bo2bo$7bo3b2o
8bo$8bo8b2o3bo$9bo2bo5bo3bo$10b5o5bobo$15bo2bob2o$16b2o5$23bo4bo$22bob
o2bobo$22b2o4bo!

#N Killer toads
#C https://conwaylife.com/wiki/Killer_toads
x = 4, y = 7, rule = B3/S23
b3o$3o4$3o$b3o!

#N Monogram
#O Dean Hickerson, 1989
#C https://conwaylife.com/wiki/Monogram
x = 7, y = 5, rule = B3/S23
2o3b2o$bobobo$b2ob2o$bobobo$2o3b2o!

#N p76 pi-heptomino hassler
#O David Raucci, 2021
#C https://conwaylife.com/wiki/P76_pi-heptomino_hassler
x = 23, y = 28, rule = B3/S23
b2o$obo$obob2o$bobobo$3bo$2b2o$b3o$b3o8bobo$b3o8bobo$b3o8b3o$2b2o$3bo$
bobobo$obob2o$obo$b2o4$13b3o2$11bo$11bo$11bo$19b2o$13b3o3bobo$21bo$21b
2o!
