#N Glider
#O Richard K. Guy, 1969
#C https://conwaylife.com/wiki/Glider
x = 3, y = 3, rule = B3/S23
bo$2bo$3o!

#N Lightweight spaceship
#O John Conway, 1970
#C https://conwaylife.com/wiki/Lightweight_spaceship
x = 5, y = 4, rule = B3/S23
bo2bo$o$o3bo$4o!

#N Middleweight spaceship
#O John Conway, 1970
#C https://conwaylife.com/wiki/Middleweight_spaceship
x = 6, y = 5, rule = B3/S23
3bo$bo3bo$o$o4bo$5o!

#N Heavyweight spaceship
#O John Conway, 1970
#C https://conwaylife.com/wiki/Heavyweight_spaceship
x = 7, y = 5, rule = B3/S23
3b2o$bo4bo$o$o5bo$6o!

#N Sir Robin
#O Adam P. Goucher, Tomas Rokicki, 2018
#C https://conwaylife.com/wiki/Sir_Robin
x = 31, y = 79, rule = B3/S23
4b2o$4bo2bo$4bo3bo$6b3o$2b2o6b4o$2bob2o4b4o$bo4bo6b3o$2b4o4b2o3bo$o9b
2o$bo3bo$6b3o2b2o2bo$2b2o7bo4bo$13bob2o$10b2o6bo$11b2ob3obo$10b2o3bo2b
o$10bobo2b2o$10bo2bobobo$10b3o6bo$11bobobo3bo$14b2obobo$11bo6b3o2$11bo
9bo$11bo3bo6bo$12bo5b5o$12b3o$16b2o$13b3o2bo$11bob3obo$10bo3bo2bo$11bo
4b2ob3o$13b4obo4b2o$13bob4o4b2o$19bo$20bo2b2o$20b2o$21b5o$25b2o$19b3o
6bo$20bobo3bobo$19bo3bo3bo$19bo3b2o$18bo6bob3o$19b2o3bo3b2o$20b4o2bo2b
o$22b2o3bo$21bo$21b2obo$20bo$19b5o$19bo4bo$18b3ob3o$18bob5o$18bo$20bo$
16bo4b4o$20b4ob2o$17b3o4bo$24bobo$28bo$24bo2b2o$25b3o$22b2o$21b3o5bo$
24b2o2bobo$21bo2b3obobo$22b2obo2bo$24bobo2b2o$26b2o$22b3o4bo$22b3o4bo$
23b2o3b3o$24b2ob2o$25b2o$25bo2$24b2o$26bo!

#N Schick engine
#O Paul Schick, 1972
#C https://conwaylife.com/wiki/Schick_engine
x = 20, y = 11, rule = B3/S23
bo2bo$o$o3bo$4o9b2o$6b3o5b2o$6b2ob2o6b3o$6b3o5b2o$4o9b2o$o3bo$o$bo2bo!

#N 2-engine Cordership
#O praosylen, 2017
#C https://conwaylife.com/wiki/2-engine_Cordership
x = 41, y = 49, rule = B3/S23
19b2o$19b4o$19bob2o2$20bo$19b2o$19b3o$21bo$33b2o$33b2o7$36bo$35b2o$34b
o3bo$35b2o2bo$40bo$37bobo$38bo$38bo$38b2o$38b2o3$13bo10bo$12b5o5bob2o
11bo$11bo10bo3bo9bo$12b2o8b3obo9b2o$13b2o9b2o12bo$2o13bo21b3o$2o35b3o
7$8b2o$8b2o11b2o$19b2o2bo$24bo3bo$18bo5bo3bo$19bo2b2o3bobo$20b3o5bo$
28bo!

#N Crab
#O Jason Summers, 2000
#C https://conwaylife.com/wiki/Crab
x = 13, y = 12, rule = B3/S23
8b2o$7b2o$9bo$11b2o$10bo2$9bo2bo$b2o5b2o$2o5bo$2bo4bobo$4b2o2bo$4b2o!

#N Loafer
#O Josh Ball, 2013
#C https://conwaylife.com/wiki/Loafer
x = 9, y = 9, rule = B3/S23
b2o2bob2o$o2bo2b2o$bobo$2bo$8bo$6b3o$5bo$6bo$7b2o!

#N Copperhead
#O zdr, 2016
#C https://conwaylife.com/wiki/Copperhead
x = 8, y = 12, rule = B3/S23
b2o2b2o$3b2o$3b2o$obo2bobo$o6bo2$o6bo$b2o2b2o$2b4o2$3b2o$3b2o!

#N 58P5H1V1
#O Matthias Merzenich, 2010
#C https://conwaylife.com/wiki/58P5H1V1
x = 23, y = 23, rule = B3/S23
20b2o$20b2o$19bo2bo$16b2obo2bo$22bo$14b2o3bo2bo$14b2o5bo$15bob5o$16bo
3$13b3o$13bo$11b2o$5b2o4bo$5b3o3bo$3bo4bo$3bo3bo$7bo$2b2obobo$2o5bo$2o
4b2o$2b4o!

#N 25P3H1V0.1
#O Dean Hickerson, 1989
#C https://conwaylife.com/wiki/25P3H1V0.1
x = 16, y = 5, rule = B3/S23
7b2obo$4b2obob2ob3o$b4o2b2o6bo$o4bo3bo3b2o$b2o!

#N Big A
#O Hartmut Holzwart
#C https://conwaylife.com/wiki/Big_A
x = 9, y = 15, rule = B3/S23
4o$o3bo$o$bo2bo2$5b4o$4bo2bo$4bo2bo$4bo2bo$5b4o2$bo2bo$o$o3bo$4o!

#N Spider
#O David Bell, 1997
#C https://conwaylife.com/wiki/Spider
x = 27, y = 8, rule = B3/S23
9bo7bo$3b2obobob2o3b2obobob2o$3obob3o9b3obob3o$o3bobo5bobo5bobo3bo$4b
2o6bobo6b2o$b2o9bobo9b2o$b2ob2o15b2ob2o$5bo15bo!

#N Weekender
#O David Eppstein, 2000
#C https://conwaylife.com/wiki/Weekender
x = 16, y = 11, rule = B3/S23
bo12bo$bo12bo$obo10bobo$bo12bo$bo12bo$2bo3b4o3bo$6b4o$2b4o4b4o2$4bo6bo
$5b2o2b2o!

#N Coe ship
#O Tim Coe, 1995
#C https://conwaylife.com/wiki/Coe_ship
x = 17, y = 10, rule = B3/S23
14b2o$o7bob4ob2o$o7bo2b5o$8bo3b3o$2bo$2bo$12b4o$11bo3bo$15bo$11bo2bo!

#N Dart
#O David Bell, 1992
#C https://conwaylife.com/wiki/Dart
x = 15, y = 10, rule = B3/S23
7bo$6bobo$5bo3bo$6b3o2$4b2o3b2o$2bo3bobo3bo$b2o3bobo3b2o$o5bobo5bo$bob
2obobob2obo!

#N Edge-repair spaceship 1
#O David Bell, 1992
#C https://conwaylife.com/wiki/Edge-repair_spaceship_1
x = 16, y = 7, rule = B3/S23
8bo$7b4o$2bo3bo3b2ob2o$b4o5bo2b2o$o3bo7bo2bo$bobo2bo$5bo!

#N Pre-pulsar spaceship
#O David Bell, 1998
#C https://conwaylife.com/wiki/Pre-pulsar_spaceship
x = 69, y = 13, rule = B3/S23
31bo5bo$30b3o3b3o4$2b2o5b2o5b2o5b2o19b2o5b2o5b2o5b2o$o3bo3bo2bo3bo2bo
3bo3bo15bo3bo3bo2bo3bo2bo3bo3bo$o3bobob3o5b3obobo3bo15bo3bobob3o5b3obo
bo3bo$o5b2o2b3ob3o2b2o5bo15bo5b2o2b3ob3o2b2o5bo$2ob3o15b3ob2o15b2ob3o
15b3ob2o$o25bo15bo25bo$bo3bo15bo3bo17bo3bo15bo3bo$2bo2bo15bo2bo19bo2bo
15bo2bo!

#N Sidecar
#O Hartmut Holzwart, 1992
#C https://conwaylife.com/wiki/Sidecar
x = 8, y = 10, rule = B3/S23
bo$o5bo$o5bo$5obo2$4b2o$2bo4bo$bo$bo5bo$b6o!

#N Dragon
#O Paul Tooke, 2000
#C https://conwaylife.com/wiki/Dragon
x = 29, y = 18, rule = B3/S23
12bo$12b2o14bo$10bob2o5bobo4b2o$5bo3bo3b3o2bo4bo$2o3bo2bo6bobo5b3o2bo$
2o3bob2o6bo3bobobo$2o3bo10bobo7b2o$5b2o14bo6bo$7bo12bobo$7bo12bobo$5b
2o14bo6bo$2o3bo10bobo7b2o$2o3bob2o6bo3bobobo$2o3bo2bo6bobo5b3o2bo$5bo
3bo3b3o2bo4bo$10bob2o5bobo4b2o$12b2o14bo$12bo!

#N 25P3H1V0.2
#O David Bell, 1992
#C https://conwaylife.com/wiki/25P3H1V0.2
x = 16, y = 8, rule = B3/S23
10bo$8b3ob3o$7b2o6bo$2bo3bo2bo3b2o$b4o$o3bo$bobo2bo$5bo!

#N 30P5H2V0
#O Paul Tooke, 2000
#C https://conwaylife.com/wiki/30P5H2V0
x = 13, y = 11, rule = B3/S23
4bo$3b3o$2b2ob2o2$bobobobo2bo$2o3bo3b3o$2o3bo6bo$10bobo$8bobo$9bo2bo$
12bo!

#N 44P5H2V0
#O Dean Hickerson, 1991
#C https://conwaylife.com/wiki/44P5H2V0
x = 15, y = 11, rule = B3/S23
4bo5bo$3b3o3b3o$2bo2bo3bo2bo$b3o7b3o$2bobo5bobo$4b2o3b2o$o4bo3bo4bo$5b
o3bo$2o3bo3bo3b2o$2bo2bo3bo2bo$4bo5bo!

#N 60P5H2V0
#O Tim Coe, 1996
#C https://conwaylife.com/wiki/60P5H2V0
x = 19, y = 11, rule = B3/S23
5bo7bo$3b2ob2o3b2ob2o$6b2o3b2o$8bobo$bo4bobobobo4bo$3o5bobo5b3o$o5bobo
bobo5bo$2bo2bo2bobo2bo2bo$2b2o3b2ob2o3b2o$o7bobo7bo$o6b2ob2o6bo!

#N Canada goose
#O Jason Summers, 1999
#C https://conwaylife.com/wiki/Canada_goose
x = 13, y = 12, rule = B3/S23
3o$o9b2o$bo6b3obo$3b2o2b2o$4bo$8bo$4b2o3bo$3bobob2o$3bobo2bob2o$2bo4b
2o$2b2o$2b2o!

#N Lobster
#O Matthias Merzenich, 2011
#C https://conwaylife.com/wiki/Lobster
x = 26, y = 26, rule = B3/S23
12b3o$12bo$13bo2b2o$16b2o$12b2o$13b2o$12bo2bo2$14bo2bo$14bo3bo$15b3obo
$20bo$2o2bobo13bo$obob2o13bo$o4bo2b2o13b2o$6bo3bo6b2o2b2o2bo$2b2o6bo6b
o2bo$2b2o4bobo4b2o$9bo5bo3bo3bo$10bo2bo4b2o$11b2o3bo5bobo$15bo8b2o$15b
o4bo$14bo3bo$14bo5b2o$15bo5bo!

#N 13-engine Cordership
#O Dean Hickerson, 1991
#C https://conwaylife.com/wiki/13-engine_Cordership
x = 97, y = 98, rule = B3/S23
54b3o$53bo2bo$52bo4bo$52bo2b3o$52bo5bo$53b7o$59bo$59bo$57b2o12b2o$71b
2o7$79b2o$79b2o$36b3o$35bo3bo$34bo4bo$34bo2bobo35bo$34b2obobo34bo$36b
2obo2bo32bo$38b2o2bo44b2o$39b3o45b2o$28b3o38bo$27bo2bo36bobo$26bo4bo
34b2o$26bo2b3o$26bo5bo14b3o7bobo$27b7o16b3o5bo$33bo16b3o42b2o$33bo17bo
34bo8b2o$31b2o53bo$86bo$87b2o$87b3o$39bo47b2o$39bo$39bo$40b2o$40b3o$
40b2o44bo$10b3o74bo$9bo3bo72bo$8bo4bo52b2o$8bo2bobo52b2o$8b2obobo25bo
27bo$10b2obo2bo21bobo$12b2o2bo21bo2bo$13b3o$2b3o62b3o7bobo$bo2bo32bo2b
o29b3o5bo$o4bo31b2ob3o27b3o$o2b3o33b2o2bo27bo$o5bo27b2o4bo2bo$b7o22b2o
3bo4bobo12b2o$7bo11b3o7bo6bo18b3o$7bo14b3o5bo3b5o21bo$5b2o15b3o6bo3bo
24bo$23bo11bo2bo21bo$36b2o23b2o$61b3o$4bo56b2o$3bobo$2b2obo$2b2o$3b3o$
4bo55bo$5bo2bo52bo$2bo6bo50bo$2bo6bo$2bo4b3o5$41b3o7bobo$44b3o5bo$7b2o
35b3o$7b2o36bo4$34bo$34bo$34bo$15b2o18b2o$15b2o18b3o$35b2o5$34bo$23b2o
10bo$23b2o9bo!

#N Spaghetti monster
#O Tim Coe, 2016
#C https://conwaylife.com/wiki/Spaghetti_monster
x = 27, y = 137, rule = B3/S23
9bo7bo$8bobo5bobo$7b2ob2o3b2ob2o$8bobo5bobo$6bob2o3bo3b2obo$6b7ob7o$
10b7o$9bob2ob2obo$6b2obo7bob2o$5b3ob2o5b2ob3o$4bo17bo$7bob2o5b2obo2$
11bo3bo$6bob3o5b3obo$7bob3o3b3obo$11bo3bo$10b2o3b2o$9b2o5b2o$8b3o5b3o$
5b4o9b4o$4bo17bo$3b2o3b2o7b2o3b2o$4bobobobo5bobobobo$4b3o2b3o3b3o2b3o$
9bo7bo$4bo17bo2$4bobobo9bobobo$6b3o9b3o$3bob3o2bo5bo2b3obo$4b2ob3o7b3o
b2o$8b2o7b2o$8bob2o3b2obo$8bo3bobo3bo$3o5bo3bobo3bo5b3o$ob2o6bo5bo6b2o
bo$o2bo3b2ob2o3b2ob2o3bo2bo$3bo2b2o3bo3bo3b2o2bo$7bo2bo5bo2bo$2bobobob
o9bobobobo$2obo19bob2o$6bo13bo$3b2o17b2o2$2bo21bo$b2o21b2o$2o23b2o2$2o
23b2o$bo23bo$2bo4bobo7bobo4bo$b3o4bob2o3b2obo4b3o$b3o2bobob2o3b2obobo
2b3o$6bo2b2o5b2o2bo$5b4o9b4o2$3b2o17b2o$3b2o2b2o9b2o2b2o$4bo2bobo7bobo
2bo$bo2bobo2bo3bo3bo2bobo2bo$bo4bo3bob3obo3bo4bo$2bobobo4bobobo4bobobo
$4bobo4bo3bo4bobo$2b4o2bobo5bobo2b4o$2b3ob2ob2ob3ob2ob2ob3o$11b5o$8bob
o5bobo$8bob2o3b2obo$13bo$13bo$7b2o9b2o$7b2obo5bob2o$7bob2obobob2obo$9b
2obobob2o$6bobobobobobobobo$6b2o2bo5bo2b2o$7bob2o5b2obo$9b2o5b2o$8bo9b
o$8b3o5b3o4$9bo7bo$8b2obo3bob2o$8bo2bo3bo2bo$8b3o5b3o$10b3ob3o$11b2ob
2o$12bobo$11b2ob2o$9b2o2bo2b2o$13bo$8b2o7b2o$7b3obo3bob3o$6bo2bo7bo2bo
$7bo11bo$8bo9bo$5b2ob2o7b2ob2o$8bo9bo$4bo3b2o7b2o3bo$5b6o5b6o$9bo7bo$
8b2obo3bob2o$9bob2ob2obo$8bo9bo$9bobo3bobo$7bobobo3bobobo$9bob5obo$8b
2ob2ob2ob2o$8b4o3b4o$7bo2bo5bo2bo$6bo2bo7bo2bo$7bob2o5b2obo$5bob2o9b2o
bo$5b2o13b2o$5b2o13b2o$6b2o2b3ob3o2b2o$6b2o2b2o3b2o2b2o$9b2o5b2o$6bo2b
o7bo2bo$6bo2bo7bo2bo$5b2obo9bob2o$5bo2bo3b3o3bo2bo$5bo2bo3b3o3bo2bo$8b
o2bo3bo2bo$4b2obo4b3o4bob2o$3b6o3bobo3b6o$3bo19bo$7bo2b3ob3o2bo$7bo3bo
3bo3bo$7bo11bo$12b3o$13bo$10b3ob3o$11b2ob2o!

#N 56P6H1V0
#O Hartmut Holzwart, 2009
#C https://conwaylife.com/wiki/56P6H1V0
x = 26, y = 12, rule = B3/S23
5b3o10b3o$3obo7b2o7bob3o$4bo3bo2bo2bo2bo3bo$4bo5bo4bo5bo$10b2o2b2o$7bo
3bo2bo3bo$7bobo6bobo$8b10o$10bo4bo$8bo8bo$7bo10bo$8bo8bo!

#N B29
#O Hartmut Holzwart, 2004
#C https://conwaylife.com/wiki/B29
x = 8, y = 16, rule = B3/S23
3b2o$2b2o$4bo$6b2o$5bo2$4bo2bo$b2obo$2o4bo$2bobo2bo$7bo$4bo2bo$5bobo$
5bobo$6b2o$6bo!

#N Hivenudger
#O Hartmut Holzwart, 1992
#C https://conwaylife.com/wiki/Hivenudger
x = 13, y = 13, rule = B3/S23
4o5bo2bo$o3bo3bo$o7bo3bo$bo2bo3b4o2$5b2o$5b2o$5b2o2$bo2bo3b4o$o7bo3bo$
o3bo3bo$4o5bo2bo!

#N Turtle
#O Dean Hickerson, 1989
#C https://conwaylife.com/wiki/Turtle
x = 12, y = 10, rule = B3/S23
b3o7bo$b2o2bob2ob2o$3b3o4bo$bo2bobo3bo$o4bo4bo$o4bo4bo$bo2bobo3bo$3b3o
4bo$b2o2bob2ob2o$b3o7bo!

#N Bulldozer
#O Paul Tooke, 2008
#C https://conwaylife.com/wiki/Bulldozer
x = 16, y = 32, rule = B3/S23
4bo6bo$3bobob2obobo$3b2o2b2o2b2o$7b2o2$5b2o2b2o$5b2o2b2o$6b4o$6bo2bo$
5bo4bo$5bo4bo$5bob2obo$6bo2bo$6bo2bo2$o14bo$2o4bo2bo4b2o$o5b4o5bo$b2o
4b2o4b2o$2bo10bo$obo10bobo$b5o4b5o$3bo2b4o2bo$2bo4b2o4bo$6bo2bo$7b2o$
4b2ob2ob2o2$3bo8bo$2b3o6b3o$2bo2bo4bo2bo$b2o10b2o!

#N Pushalong 1
#O David Bell, 1992
#C https://conwaylife.com/wiki/Pushalong_1
x = 11, y = 12, rule = B3/S23
3bo$bo2bo$o3bo$o3bo$2obo$5b2o$2bo2b2o$4bo$7b3o$6b5o$5b2ob3o$6b2o!

#N Snail
#O Tim Coe, 1996
#C https://conwaylife.com/wiki/Snail
x = 38, y = 21, rule = B3/S23
bo$bo$o$b3o17b3o3b3o$b2obo9bo3bobo6b3o$2bo11b2obo7bo4b4o$6bo6bo3bobo3b
2obo5b2o$3bo2bob3o3b2o9bo8b2obo$3b2obo5bo5bo17bo$9bob7o2$9bob7o$3b2obo
5bo5bo17bo$3bo2bob3o3b2o9bo8b2obo$6bo6bo3bobo3b2obo5b2o$2bo11b2obo7bo
4b4o$b2obo9bo3bobo6b3o$b3o17b3o3b3o$o$bo$bo!

#N Wings
#O Jason Summers, 2000
#C https://conwaylife.com/wiki/Wings
x = 12, y = 12, rule = B3/S23
7b3o$7bo$8bo$10b2o$9b2o2$8bo$3o5bo2bo$o7bo$bo2b5obo$3bo$4b2o!

#N x66
#O Hartmut Holzwart, 1992
#C https://conwaylife.com/wiki/X66
x = 9, y = 11, rule = B3/S23
2bo$2o$o2b3o2bo$o4b3o$b3o2b2o2$b3o2b2o$o4b3o$o2b3o2bo$2o$2bo!

#N 295P5H1V1
#O Jason Summers, 2000
#C https://conwaylife.com/wiki/295P5H1V1
x = 52, y = 52, rule = B3/S23
13b2o$5b2o4b2obobo$4b3o4b4o$3b2o6b2o5bo$2b2o2b2o3bo2bo2bo$b2o5bo7bo2b
2o$b2obo3b4o$4bo3b2o2b2obo$5b3o4bobo$6b2o3b2o2bo$6bo5bo$b4obo2bo2bo3bo
$b3o3b5o2b7obo$obo4bo10bo2b2o$3obo3bo3bo5b3o$7bobo2bo7b2o$bo3bo5b2o8b
2o2bobo$4bo7bo8b3obob3o$3bo8b3o6bo4bo$5bo6bobo5bobo$5bo6bob2o3bo4bo$
13bob4o3bo5bo2bo$12b2o2b2obobo3bob3o$17bo6bo2b3o3b3o$20bo2bo6b2o$16b2o
4bo2bo10b2o$18bo13bo3bo$16b2o4b2o8bo$17bo3b3o8bobobobo$17bo4b2o8bo5b2o
$24bo8bo2b3o$21bo2bo8bo8bo$26b4o8b2o3bo$23bo6b2o6b2o3bo$23bo4bo12bo$
23bo15bo$25b2obobo7bo2bo$25bo4bo9b3o$28b3ob2o2bo3bo3bob2o$29bo2b2obo5b
o3bo2bo$37b2o2bo3bo$34bob2ob2obo2b2o3bo$31bo5bo3bo7bobo$32b2o12b2o3bo$
38bo7b2o$39b3o3b2o2bo$38bo2bob3o$38bo4b2o$39bo$42bo2bo$41bo$42b2o!

#N 3-engine Cordership
#O Paul Tooke, 2004
#C https://conwaylife.com/wiki/3-engine_Cordership
x = 58, y = 65, rule = B3/S23
31b3o$32bo$32bo2bo$32bo2bo$33bobo$48b2o$48b2o3$32bo$31bobo$32bo$49bo$
48bo7b2o$30b4o22b2o$30b2o3bo10bo$31bo4bo9bobo$33bob2o10bo$34bo3$42bobo
b2o$25bo16bobo$24b3o17bo2bo$43bo3bo$24b3o16b4o2b2o$25b2ob2o14bo5b2o$
27bo21bo3$b3o$2bo$2bo2bo$2bo2bo$3bobo$18b2o$18b2o$24bo$23b3o$2bo19b2ob
2o$bobo18bobo$2bo19bo3$4o$2o3bo13bo$bo4bo11bobo$3bob2o11bo$4bo15b2o$
21bo$18b3o$19b2o$16bo$16b2o$16b2o$6b2o6b2o$6b2o4b2o$12b2obo$14b2o5$14b
2o$14b2o!

#N 31P8H4V0
#O Jason Summers, 2002
#C https://conwaylife.com/wiki/31P8H4V0
x = 11, y = 11, rule = B3/S23
b5o$bo4bo$bo$2bo4bo$4bo$5b2o2bo$3bo2bo3bo$bo7bo$o5bo2bo$o3b2o$4o2b2o!

#N Brain
#O David Bell, 1992
#C https://conwaylife.com/wiki/Brain
x = 17, y = 11, rule = B3/S23
b3o9b3o$obob2o5b2obobo$obobo7bobobo$bob2ob2ob2ob2obo$5bobobobo$3bobobo
bobobo$2b2obobobobob2o$2b3o2bobo2b3o$2b2o2bo3bo2b2o$bo4b2ob2o4bo$bo13b
o!

#N Seal
#O Nicolay Beluchenko, 2005
#C https://conwaylife.com/wiki/Seal
x = 34, y = 35, rule = B3/S23
2b2o$b3ob3o$3bo3b2o$2ob2o2bo2bobo$o6bob4o$6b2obo2bo$o4b2o3bob2o$2o8bob
o2bo$o2b5ob3o4bo$bo9bo4bo$b2obo2bo3bo3bo$2bo9b2o$9b2o2b2o4bo$2bo3b2obo
4b3o2bo$3b2obob5o5bob2o$7b2ob2ob2ob2o2b3o$17bobo4bo$8b2o4bobo3b6o$13bo
7b2o$13bo3bo$13bo4bo3b3o6bo$14b5o3b2ob2o2b2ob2o$17b2obo2bob2o2bo$16b2o
5bo4bo2b3o$15b3obobobobo$22bo2bo$18bobo$19bo2$21b3o$21b3o2$20b2o$20b2o
$21bo!

#N 46P4H1V0
#O Tim Coe, 1996
#C https://conwaylife.com/wiki/46P4H1V0
x = 19, y = 10, rule = B3/S23
3bo11bo$3bo11bo$2bobo9bobo2$bo3bo7bo3bo$bob6ob6obo$o7bobo7bo$o7bobo7bo
$o17bo$bob2ob2o3b2ob2obo!

#N 7-engine Cordership
#O Dean Hickerson, 1993
#C https://conwaylife.com/wiki/7-engine_Cordership
x = 71, y = 65, rule = B3/S23
27bobo$26bo$27bo2bo$29bobo$32bo11b3o$31b3o$31bo$29b2o$31bo13b3o$14bo
14bo2bo12b3o5b2o$13bobo13bobo13b2o6b2o$29bo14bo$13bo2bo3bob3o17b2o2bo$
15bo4bo22bo3bo$16bob2obobo19bo2bo$17b2o3bo21b3o$18bo$61b2o$61b2o2$25bo
$25bo5b3o$24bobo3b2o2bo$25bo3bo5bo$25bo3bo$30bo2b2o25bo8b2o$bobo27b2o
26bobo7b2o$o58bobo$bo2bo54bo2bo$3bobo54bobo$6bo56bo$5b3o54b2o$5bo56bo$
3b2o$5bo$3bo2bo31bo$3bobo31bob2o$3bo36b2o$35bo6bo$34bo3b4o$35bo4bo4$
41b3o$40bo3bo$41b2o$7b2o34b2ob2o$7b2o36b2o3$34bo$33bobo$33bobo$33bo2bo
$15b2o17bobo$15b2o20bo$36b2o$36bo5$23b2o$23b2o!

#N Fireship
#O Simon Ekström, 2016
#C https://conwaylife.com/wiki/Fireship
x = 12, y = 21, rule = B3/S23
4bo2bo$4bo2bo$3bo4bo$3bo4bo$3bo4bo$3bo4bo$2b3o2b3o$2bob4obo$3bo4bo3$5b
2o$5b2o$5b2o$3bo4bo$b3o4b3o$3o6b3o$2o8b2o$b10o$2b8o$4b4o!

#N Sprayer
#O Adam P. Goucher, Dylan Chen, 2021
#C https://conwaylife.com/wiki/Sprayer
x = 80, y = 178, rule = B3/S23
12bo$11b4o4b3o$10bo2b2o2bo3bo$13bo2b2o$16b2ob2o$10b3o7bo$9b3o7b2o$9b3o
6bobo$4b3o$4b2ob2o2b2o$2bo3bo3b3ob3o$2b4ob2o4b2o$bo7b4o$3obo9bo$2bo6b
8o$6b2o3bo4bo$8b3o2bo$7bobo3bo2bobo$7bobo9bo$19bo$15b2o$15bob3o$13bo$
13bob2o$12bo2bob2o$12bob5o$14bo2b2ob2o$22bo$18bo3bo$18bo3b2o$23bo$20b
2o$15b3ob2o3bo$15bo2b2o2bob3o$15bob2o3b2o$16bo5b2o$14b2o4b2obo$14b3ob
2o3bo$16b3o4b2obo$15bo7bobo$15bo3bobo$15bo4bobo$17bo4bo$23bo$18b3obo$
19bob3o$20bob2o$19bo$18bo3b2o$17b2o2b3o$22b2o$16bo2bo$15bo3b2o$15bo4bo
bo$15bo3bo3bo$16bo7bo$17bobo2bo$22bo2bob2o$17bo9b2o$17bobo2b2o3b2o$22b
2o4bo$24bo2bobo$21b4o$21b6o2bo$28bo2b2o$28bobobo$33bo$26bo5b2o$26bo6bo
$26bo7bo$25bo4bob2o$24bo6bo$24bo2bo4bobo$24b4o3bo2bo$29bo2bo$27bo2bobo
bo$24bo2bo3bo2b2o$24b4o3bobo2bo$24b4o5b2o$28b3obob2o$25bo4b3ob2o$25bo
3bob2ob2o$29bobo2b2o2$29b2o2bo2b2o$29b2o2bo$35bo$35b3obo$33bob3o$34bob
o3b2o$37bo2bo$37b4o$37bobob2o$38bo$36b3o2b2o$41b2o$35b3o3bo$36bobobobo
$36bo3b2o$41bo$37bo2bo$37b2ob2o$37bob3o$36b2o3bo$35b2o3b2o$35bo3b2o$
35b3o2bo2bo$35b2o3bo3bo$38bo6bo$38bobob2obob2o$39b2o4bo$45b2o$38b2o2b
4o$37b5o3b2o$43bob2o$38bo4bo$39bo3bo2bo$41bob2obo$40b3o2bo$40b2ob2o$
41bo5bo$42b2o3bo$37b3o5bo$37bo8b2o$37bobo2$39b5o$40bobo$43bo$41b2o2b3o
$45bo2bo$46b3o$48b2ob2o$49bo3bo$49bo4bo$50bo2b2o$50bo$49b3o5b3o$49bo4b
2o$54b2o4bo$55bo4bo$56bo$57b2o$59b3o2$59b2obo$59bobobo$61bobo2b3o$59bo
3bo3b2o$60b2obob2o$63bobo$65bo$62b3o$62b3o$61b2o$61bo$60bo3b2o$61bo2bo
2$66b2o$64b2ob3o$64b2obob2o5b2o$65bobo3bo3b2obo$67b3ob2ob3obo$73b2o$
70bo5b2o$70bo7bo$79bo$74b2o3bo$77b3o$76bo2bo$75bob2o$75bobo$74bobo$74b
o$78bo$74bo$77b2o!

#N 37P4H1V0
#O Josh Ball, 2012
#C https://conwaylife.com/wiki/37P4H1V0
x = 19, y = 12, rule = B3/S23
bo$bo8bo$obo5bo3bo$8bo3b2o$5bob2o5b2o$b6o2bo6bo$2b2o6bo3b3o$10bo3bob2o
$13bo$18bo$17bo$17bo!

#N 4-engine Cordership
#O David Bell, 2005
#C https://conwaylife.com/wiki/4-engine_Cordership
x = 76, y = 76, rule = B3/S23
46bo$46bo$48bo5bo$47bo6bobo$46bo3bo2bo$47bo2bobob2o$52bob2o$66b2o$66b
2o7$74b2o$74b2o$55b2o3bo$53b3o4b2o$48b3obo8b2o$52bobo2b5o$53bo3b3o3$
40bo$40bo7bo$40bo5b3o$39b2o3bobo$45bo2bo$44bo2b2o10$27bo$24b4o4$27bobo
$28bo$2o2bo21b2o$3bobo20bo2bo$2bo16bo5b2ob2o$19bo$4b2o13bo2$5b2o12b2o$
4bo13bo2bo$2b2ob2o11bobo$5b2o10b2o$3bo13bo$20b2o$20b2o$20b2o$17b2obo$
18b3o$19bo4$7b2o$7b2o7$15b2o$15b2o!

#N LWSS on HWSS 1
#C https://conwaylife.com/wiki/LWSS_on_HWSS_1
x = 7, y = 12, rule = B3/S23
3b2o$bo4bo$o$o5bo$6o4$4o$o3bo$o$bo2bo!

#N MWSS and HWSS dragging block
#C https://conwaylife.com/wiki/MWSS_and_HWSS_dragging_block
x = 10, y = 14, rule = B3/S23
3bo$bo3bo$o$o4bo$5o2$5b2o$5b2o2$6b2o$4bo4bo$3bo$3bo5bo$3b6o!

#N Orion
#O Hartmut Holzwart, 1993
#C https://conwaylife.com/wiki/Orion
x = 14, y = 15, rule = B3/S23
3b2o$3bobo$3bo$2obo$o4bo$ob2o6b3o$5b3o4b2o$6b3obobo$13bo$6bobo$5b2obo$
6bo$4b2obo$7bo$5b2o!

#N Swan
#O Tim Coe, 1996
#C https://conwaylife.com/wiki/Swan
x = 24, y = 12, rule = B3/S23
bo10b2o$5o6b2o$o2b2o8bo7b2o$2b2obo5b2o6b3obo$11b2o3bob2o$5bobo6b2o$10b
3obo4bo$7b3o3bo4bo$8bo7bo$8bo6bo2$11bo!

#N Wasp
#O David Bell, 1998
#C https://conwaylife.com/wiki/Wasp
x = 22, y = 9, rule = B3/S23
10bo3bo$7bobob2ob3o$6bo2bo6b2ob2o$b2o2b2o2bo3bo2bo2b2o$b2obob2o2bo2bo
4bo2bo$o3bo4b2o$obobo2bo2b2o$9bo$b3o!

#N 119P4H1V0
#O Dean Hickerson, 1989
#C https://conwaylife.com/wiki/119P4H1V0
x = 35, y = 19, rule = B3/S23
33bo$16bo15bobo$6bobo6bo5b2o8bo$6bo4bo4bob6o4b2o$6bob8o10bo2bob3o$9bo
5bo7b4o4b3o$4b2o17b3obo$bo2b2o7b2o8b2o$bo2bo$o$bo2bo$bo2b2o7b2o8b2o$4b
2o17b3obo$9bo5bo7b4o4b3o$6bob8o10bo2bob3o$6bo4bo4bob6o4b2o$6bobo6bo5b
2o8bo$16bo15bobo$33bo!
