#N Block
#O John Conway, 1969
#C https://conwaylife.com/wiki/Block
x = 2, y = 2, rule = B3/S23
2o$2o!

#N Eater 1
#O Bill Gosper, 1971
#C https://conwaylife.com/wiki/Eater_1
x = 4, y = 4, rule = B3/S23
2o$obo$2bo$2b2o!

#N Beehive
#O JHC group, 1969
#C https://conwaylife.com/wiki/Beehive
x = 4, y = 3, rule = B3/S23
b2o$o2bo$b2o!

#N Boat
#O JHC group, 1970
#C https://conwaylife.com/wiki/Boat
x = 3, y = 3, rule = B3/S23
bo$obo$2o!

#N Tub
#O JHC group, 1970
#C https://conwaylife.com/wiki/Tub
x = 3, y = 3, rule = B3/S23
bo$obo$bo!

#N Loaf
#O John Conway, 1969
#C https://conwaylife.com/wiki/Loaf
x = 4, y = 4, rule = B3/S23
b2o$o2bo$bobo$2bo!

#N Ship
#O JHC group, 1970
#C https://conwaylife.com/wiki/Ship
x = 3, y = 3, rule = B3/S23
b2o$obo$2o!

#N Honey farm
#O JHC group, 1970
#C https://conwaylife.com/wiki/Honey_farm
x = 13, y = 13, rule = B3/S23
6bo$5bobo$5bobo$6bo2$b2o7b2o$o2bo5bo2bo$b2o7b2o2$6bo$5bobo$5bobo$6bo!

#N Snake
#O JHC group, 1970
#C https://conwaylife.com/wiki/Snake
x = 4, y = 2, rule = B3/S23
2obo$ob2o!

#N Pond
#O JHC group, 1970
#C https://conwaylife.com/wiki/Pond
x = 4, y = 4, rule = B3/S23
b2o$o2bo$o2bo$b2o!

#N Long boat
#O JHC group, 1970
#C https://conwaylife.com/wiki/Long_boat
x = 4, y = 4, rule = B3/S23
2bo$bobo$obo$2o!

#N Barge
#O JHC group, 1970
#C https://conwaylife.com/wiki/Barge
x = 4, y = 4, rule = B3/S23
2bo$bobo$obo$bo!

#N Aircraft carrier
#O John Conway, 1970
#C https://conwaylife.com/wiki/Aircraft_carrier
x = 4, y = 3, rule = B3/S23
2b2o$o2bo$2o!

#N Integral sign
#O 1971
#C https://conwaylife.com/wiki/Integral_sign
x = 5, y = 5, rule = B3/S23
3b2o$2bobo$2bo$obo$2o!

#N Eater 2
#O David Buckingham
#C https://conwaylife.com/wiki/Eater_2
x = 7, y = 7, rule = B3/S23
3bob2o$b3ob2o$o$b3ob2o$3bobo$3bobo$4bo!

#N Tub-with-tail eater
#C https://conwaylife.com/wiki/Tub-with-tail_eater
x = 9, y = 6, rule = B3/S23
7b2o$3bo3b2o$2bobo$bobo$bo$2o!

#N Hat
#O 1971
#C https://conwaylife.com/wiki/Hat
x = 5, y = 4, rule = B3/S23
2bo$bobo$bobo$2ob2o!

#N Bi-block
#O 1970
#C https://conwaylife.com/wiki/Bi-block
x = 5, y = 2, rule = B3/S23
2ob2o$2ob2o!

#N Half-bakery
#C https://conwaylife.com/wiki/Half-bakery
x = 7, y = 7, rule = B3/S23
5bo$4bobo$3bo2bo$2bob2o$bobo$o2bo$b2o!

#N Ship-tie
#C https://conwaylife.com/wiki/Ship-tie
x = 6, y = 6, rule = B3/S23
2o$obo$b2o$3b2o$3bobo$4b2o!

#N Long ship
#O JHC group, 1970
#C https://conwaylife.com/wiki/Long_ship
x = 4, y = 4, rule = B3/S23
2o$obo$bobo$2b2o!

#N Mango
#O 1971
#C https://conwaylife.com/wiki/Mango
x = 5, y = 4, rule = B3/S23
b2o$o2bo$bo2bo$2b2o!

#N Eater 3
#O David Buckingham, 1977
#C https://conwaylife.com/wiki/Eater_3
x = 12, y = 12, rule = B3/S23
9b2o$4b2o2bo2bo$bo2bo4bobo$obobo5bo$bo2bob2o$4bo2bo$5bo4bo$6b5o2$8bo$
7bobo$8bo!

#N Hook with tail
#O 1971
#C https://conwaylife.com/wiki/Hook_with_tail
x = 5, y = 4, rule = B3/S23
obo$2obo$3bo$3b2o!

#N Elevener
#C https://conwaylife.com/wiki/Elevener
x = 6, y = 6, rule = B3/S23
4b2o$3bobo$3bo$b3o$o$2o!

#N Tub with tail
#O Charles Corderman, Hugh Thompson, 1971
#C https://conwaylife.com/wiki/Tub_with_tail
x = 5, y = 5, rule = B3/S23
bo$obo$bobo$3bo$3b2o!

#N Dead spark coil
#C https://conwaylife.com/wiki/Dead_spark_coil
x = 7, y = 5, rule = B3/S23
2o3b2o$obobobo$2bobo$obobobo$2o3b2o!

#N Fleet
#C https://conwaylife.com/wiki/Fleet
x = 10, y = 10, rule = B3/S23
4b2o$3bobo$3b2o$b2o$obo5b2o$2o5bobo$7b2o$5b2o$4bobo$4b2o!

#N Blockade
#O 1970
#C https://conwaylife.com/wiki/Blockade
x = 23, y = 10, rule = B3/S23
2o$2o3$b2o17b2o$b2o17b2o3$21b2o$21b2o!

#N Loop
#O 1972
#C https://conwaylife.com/wiki/Loop
x = 5, y = 4, rule = B3/S23
b2o$o2bo$bobo$2ob2o!

#N Shillelagh
#O Charles Corderman, Hugh Thompson, 1971
#C https://conwaylife.com/wiki/Shillelagh
x = 5, y = 3, rule = B3/S23
2o$o2b2o$b2obo!

#N Canoe
#O 1971
#C https://conwaylife.com/wiki/Canoe
x = 5, y = 5, rule = B3/S23
3b2o$4bo$3bo$obo$2o!

#N Boat-tie
#O 1972
#C https://conwaylife.com/wiki/Boat-tie
x = 6, y = 6, rule = B3/S23
bo$obo$b2o$3b2o$3bobo$4bo!

#N Paperclip
#C https://conwaylife.com/wiki/Paperclip
x = 5, y = 6, rule = B3/S23
2b2o$bo2bo$bob2o$2obo$o2bo$b2o!

#N Block on table
#O 1972
#C https://conwaylife.com/wiki/Block_on_table
x = 4, y = 5, rule = B3/S23
2b2o$2b2o2$4o$o2bo!

#N Boat tie ship
#C https://conwaylife.com/wiki/Boat_tie_ship
x = 6, y = 6, rule = B3/S23
2o$obo$b2o$3b2o$3bobo$4bo!

#N Eleven loop
#C https://conwaylife.com/wiki/Eleven_loop
x = 5, y = 5, rule = B3/S23
bo$obo$o2bo$bobo$2ob2o!

#N Long barge
#O JHC group, 1970
#C https://conwaylife.com/wiki/Long_barge
x = 5, y = 5, rule = B3/S23
bo$obo$bobo$2bobo$3bo!

#N Long snake
#O John Conway, 1970
#C https://conwaylife.com/wiki/Long_snake
x = 5, y = 3, rule = B3/S23
2o$obobo$3b2o!

#N Mirrored table
#C https://conwaylife.com/wiki/Mirrored_table
x = 5, y = 4, rule = B3/S23
2ob2o$bobo$bobo$2ob2o!

#N Beehive with tail
#O 1972
#C https://conwaylife.com/wiki/Beehive_with_tail
x = 6, y = 5, rule = B3/S23
b2o$o2bo$b2obo$4bo$4b2o!

#N Bi-pond
#C https://conwaylife.com/wiki/Bi-pond
x = 7, y = 7, rule = B3/S23
b2o$o2bo$o2bo$b2ob2o$3bo2bo$3bo2bo$4b2o!

#N Big S
#O MIT group, 1971
#C https://conwaylife.com/wiki/Big_S
x = 7, y = 6, rule = B3/S23
4b2o$3bo2bo$3bob2o$2obo$o2bo$b2o!

#N Cis-boat with tail
#O 1971
#C https://conwaylife.com/wiki/Cis-boat_with_tail
x = 5, y = 5, rule = B3/S23
bo$obo$2obo$3bo$3b2o!

#N Eater bridge eater
#C https://conwaylife.com/wiki/Eater_bridge_eater
x = 8, y = 5, rule = B3/S23
2o$o5b2o$b3obobo$3bobo$4b2o!

#N Prodigal
#O 1972
#C https://conwaylife.com/wiki/Prodigal
x = 6, y = 6, rule = B3/S23
2o$obo$2bo$2bobo$3bobo$4bo!

#N Tub with long tail
#O Robert Wainwright, 1972
#C https://conwaylife.com/wiki/Tub_with_long_tail
x = 4, y = 6, rule = B3/S23
bo$obo$bobo$3bo$2bo$2b2o!

#N Bakery
#C https://conwaylife.com/wiki/Bakery
x = 10, y = 10, rule = B3/S23
4b2o$3bo2bo$3bobo$b2obo3bo$o2bo3bobo$obo3bo2bo$bo3bob2o$4bobo$3bo2bo$
4b2o!

#N Very long boat
#O 1971
#C https://conwaylife.com/wiki/Very_long_boat
x = 5, y = 5, rule = B3/S23
bo$obo$bobo$2bobo$3b2o!

#N Cis-bookend and bun
#C https://conwaylife.com/wiki/Cis-bookend_and_bun
x = 7, y = 4, rule = B3/S23
2o3bo$obobobo$2bobobo$b2ob2o!
